src/resources/luts/linear_to_filmic-sRGB-High.3dl
0 256 512 767 1023
0 0 0
0 0 2393
0 0 3051
0 0 3357
0 0 3534
0 2393 0
0 2393 2393
0 2393 3051
0 2393 3357
0 2393 3534
0 3051 0
0 3051 2393
0 3051 3051
0 3051 3357
0 3051 3534
0 3357 0
0 3357 2393
0 3357 3051
0 3357 3357
0 3357 3534
0 3534 0
0 3534 2393
0 3534 3051
0 3534 3357
0 3534 3534
2393 0 0
2393 0 2393
2393 0 3051
2393 0 3357
2393 0 3534
2393 2393 0
2393 2393 2393
2393 2393 3051
2393 2393 3357
2393 2393 3534
2393 3051 0
2393 3051 2393
2393 3051 3051
2393 3051 3357
2393 3051 3534
2393 3357 0
2393 3357 2393
2393 3357 3051
2393 3357 3357
2393 3357 3534
2393 3534 0
2393 3534 2393
2393 3534 3051
2393 3534 3357
2393 3534 3534
3051 0 0
3051 0 2393
3051 0 3051
3051 0 3357
3051 0 3534
3051 2393 0
3051 2393 2393
3051 2393 3051
3051 2393 3357
3051 2393 3534
3051 3051 0
3051 3051 2393
3051 3051 3051
3051 3051 3357
3051 3051 3534
3051 3357 0
3051 3357 2393
3051 3357 3051
3051 3357 3357
3051 3357 3534
3051 3534 0
3051 3534 2393
3051 3534 3051
3051 3534 3357
3051 3534 3534
3357 0 0
3357 0 2393
3357 0 3051
3357 0 3357
3357 0 3534
3357 2393 0
3357 2393 2393
3357 2393 3051
3357 2393 3357
3357 2393 3534
3357 3051 0
3357 3051 2393
3357 3051 3051
3357 3051 3357
3357 3051 3534
3357 3357 0
3357 3357 2393
3357 3357 3051
3357 3357 3357
3357 3357 3534
3357 3534 0
3357 3534 2393
3357 3534 3051
3357 3534 3357
3357 3534 3534
3534 0 0
3534 0 2393
3534 0 3051
3534 0 3357
3534 0 3534
3534 2393 0
3534 2393 2393
3534 2393 3051
3534 2393 3357
3534 2393 3534
3534 3051 0
3534 3051 2393
3534 3051 3051
3534 3051 3357
3534 3051 3534
3534 3357 0
3534 3357 2393
3534 3357 3051
3534 3357 3357
3534 3357 3534
3534 3534 0
3534 3534 2393
3534 3534 3051
3534 3534 3357
3534 3534 3534
