src/resources/luts/linear-ACES_to_linear-RGB.3dl
0 256 512 767 1023
0 0 0
0 0 1191
0 0 2383
0 0 3574
0 0 4095
0 1402 0
0 1306 1040
0 1209 2232
0 1113 3423
0 1016 4095
0 2805 0
0 2708 889
0 2612 2080
0 2515 3272
0 2418 4095
0 4095 0
0 4095 738
0 4014 1929
0 3917 3120
0 3821 4095
0 4095 0
0 4095 586
0 4095 1778
0 4095 2969
0 4095 4095
2582 0 0
2188 0 1175
1794 0 2366
1400 0 3558
1006 0 4095
1418 1120 0
1024 1024 1024
630 927 2215
236 831 3407
0 734 4095
254 2523 0
0 2426 872
0 2330 2064
0 2233 3255
0 2136 4095
0 3925 0
0 3828 721
0 3732 1913
0 3635 3104
0 3539 4095
0 4095 0
0 4095 570
0 4095 1761
0 4095 2953
0 4095 4095
4095 0 0
4095 0 1159
4095 0 2350
3982 0 3542
3587 0 4095
4000 838 0
3606 742 1007
3212 645 2199
2817 549 3390
2423 452 4095
2836 2241 0
2442 2144 856
2047 2048 2047
1653 1951 3239
1259 1854 4095
1672 3643 0
1277 3546 705
883 3450 1896
489 3353 3088
95 3257 4095
508 4095 0
113 4095 553
0 4095 1745
0 4095 2936
0 4095 4095
4095 0 0
4095 0 1142
4095 0 2334
4095 0 3525
4095 0 4095
4095 556 0
4095 460 991
4095 363 2182
4095 267 3374
4095 170 4095
4095 1959 0
4095 1862 840
4095 1765 2031
4095 1669 3223
3841 1572 4095
4095 3361 0
3859 3264 688
3465 3168 1880
3071 3071 3071
2677 2975 4095
3089 4095 0
2695 4095 537
2301 4095 1729
1907 4095 2920
1513 4095 4095
4095 0 0
4095 0 1126
4095 0 2317
4095 0 3509
4095 0 4095
4095 274 0
4095 178 975
4095 81 2166
4095 0 3357
4095 0 4095
4095 1677 0
4095 1580 823
4095 1483 2015
4095 1387 3206
4095 1290 4095
4095 3079 0
4095 2982 672
4095 2886 1863
4095 2789 3055
4095 2693 4095
4095 4095 0
4095 4095 521
4095 4095 1712
4095 4095 2904
4095 4095 4095
