src/resources/luts/linear_to_filmic-sRGB-Medium.3dl
0 256 512 767 1023
0 0 0
0 0 2310
0 0 2846
0 0 3127
0 0 3306
0 2310 0
0 2310 2310
0 2310 2846
0 2310 3127
0 2310 3306
0 2846 0
0 2846 2310
0 2846 2846
0 2846 3127
0 2846 3306
0 3127 0
0 3127 2310
0 3127 2846
0 3127 3127
0 3127 3306
0 3306 0
0 3306 2310
0 3306 2846
0 3306 3127
0 3306 3306
2310 0 0
2310 0 2310
2310 0 2846
2310 0 3127
2310 0 3306
2310 2310 0
2310 2310 2310
2310 2310 2846
2310 2310 3127
2310 2310 3306
2310 2846 0
2310 2846 2310
2310 2846 2846
2310 2846 3127
2310 2846 3306
2310 3127 0
2310 3127 2310
2310 3127 2846
2310 3127 3127
2310 3127 3306
2310 3306 0
2310 3306 2310
2310 3306 2846
2310 3306 3127
2310 3306 3306
2846 0 0
2846 0 2310
2846 0 2846
2846 0 3127
2846 0 3306
2846 2310 0
2846 2310 2310
2846 2310 2846
2846 2310 3127
2846 2310 3306
2846 2846 0
2846 2846 2310
2846 2846 2846
2846 2846 3127
2846 2846 3306
2846 3127 0
2846 3127 2310
2846 3127 2846
2846 3127 3127
2846 3127 3306
2846 3306 0
2846 3306 2310
2846 3306 2846
2846 3306 3127
2846 3306 3306
3127 0 0
3127 0 2310
3127 0 2846
3127 0 3127
3127 0 3306
3127 2310 0
3127 2310 2310
3127 2310 2846
3127 2310 3127
3127 2310 3306
3127 2846 0
3127 2846 2310
3127 2846 2846
3127 2846 3127
3127 2846 3306
3127 3127 0
3127 3127 2310
3127 3127 2846
3127 3127 3127
3127 3127 3306
3127 3306 0
3127 3306 2310
3127 3306 2846
3127 3306 3127
3127 3306 3306
3306 0 0
3306 0 2310
3306 0 2846
3306 0 3127
3306 0 3306
3306 2310 0
3306 2310 2310
3306 2310 2846
3306 2310 3127
3306 2310 3306
3306 2846 0
3306 2846 2310
3306 2846 2846
3306 2846 3127
3306 2846 3306
3306 3127 0
3306 3127 2310
3306 3127 2846
3306 3127 3127
3306 3127 3306
3306 3306 0
3306 3306 2310
3306 3306 2846
3306 3306 3127
3306 3306 3306
