src/resources/luts/linear_to_filmic-sRGB-Low.3dl
0 256 512 767 1023
0 0 0
0 0 2250
0 0 2681
0 0 2926
0 0 3092
0 2250 0
0 2250 2250
0 2250 2681
0 2250 2926
0 2250 3092
0 2681 0
0 2681 2250
0 2681 2681
0 2681 2926
0 2681 3092
0 2926 0
0 2926 2250
0 2926 2681
0 2926 2926
0 2926 3092
0 3092 0
0 3092 2250
0 3092 2681
0 3092 2926
0 3092 3092
2250 0 0
2250 0 2250
2250 0 2681
2250 0 2926
2250 0 3092
2250 2250 0
2250 2250 2250
2250 2250 2681
2250 2250 2926
2250 2250 3092
2250 2681 0
2250 2681 2250
2250 2681 2681
2250 2681 2926
2250 2681 3092
2250 2926 0
2250 2926 2250
2250 2926 2681
2250 2926 2926
2250 2926 3092
2250 3092 0
2250 3092 2250
2250 3092 2681
2250 3092 2926
2250 3092 3092
2681 0 0
2681 0 2250
2681 0 2681
2681 0 2926
2681 0 3092
2681 2250 0
2681 2250 2250
2681 2250 2681
2681 2250 2926
2681 2250 3092
2681 2681 0
2681 2681 2250
2681 2681 2681
2681 2681 2926
2681 2681 3092
2681 2926 0
2681 2926 2250
2681 2926 2681
2681 2926 2926
2681 2926 3092
2681 3092 0
2681 3092 2250
2681 3092 2681
2681 3092 2926
2681 3092 3092
2926 0 0
2926 0 2250
2926 0 2681
2926 0 2926
2926 0 3092
2926 2250 0
2926 2250 2250
2926 2250 2681
2926 2250 2926
2926 2250 3092
2926 2681 0
2926 2681 2250
2926 2681 2681
2926 2681 2926
2926 2681 3092
2926 2926 0
2926 2926 2250
2926 2926 2681
2926 2926 2926
2926 2926 3092
2926 3092 0
2926 3092 2250
2926 3092 2681
2926 3092 2926
2926 3092 3092
3092 0 0
3092 0 2250
3092 0 2681
3092 0 2926
3092 0 3092
3092 2250 0
3092 2250 2250
3092 2250 2681
3092 2250 2926
3092 2250 3092
3092 2681 0
3092 2681 2250
3092 2681 2681
3092 2681 2926
3092 2681 3092
3092 2926 0
3092 2926 2250
3092 2926 2681
3092 2926 2926
3092 2926 3092
3092 3092 0
3092 3092 2250
3092 3092 2681
3092 3092 2926
3092 3092 3092
