src/resources/luts/linear_to_filmic-sRGB-MediumHigh.3dl
0 128 256 384 512 639 767 895 1023
0 0 0
0 0 1718
0 0 2349
0 0 2708
0 0 2943
0 0 3111
0 0 3237
0 0 3335
0 0 3415
0 1718 0
0 1718 1718
0 1718 2349
0 1718 2708
0 1718 2943
0 1718 3111
0 1718 3237
0 1718 3335
0 1718 3415
0 2349 0
0 2349 1718
0 2349 2349
0 2349 2708
0 2349 2943
0 2349 3111
0 2349 3237
0 2349 3335
0 2349 3415
0 2708 0
0 2708 1718
0 2708 2349
0 2708 2708
0 2708 2943
0 2708 3111
0 2708 3237
0 2708 3335
0 2708 3415
0 2943 0
0 2943 1718
0 2943 2349
0 2943 2708
0 2943 2943
0 2943 3111
0 2943 3237
0 2943 3335
0 2943 3415
0 3111 0
0 3111 1718
0 3111 2349
0 3111 2708
0 3111 2943
0 3111 3111
0 3111 3237
0 3111 3335
0 3111 3415
0 3237 0
0 3237 1718
0 3237 2349
0 3237 2708
0 3237 2943
0 3237 3111
0 3237 3237
0 3237 3335
0 3237 3415
0 3335 0
0 3335 1718
0 3335 2349
0 3335 2708
0 3335 2943
0 3335 3111
0 3335 3237
0 3335 3335
0 3335 3415
0 3415 0
0 3415 1718
0 3415 2349
0 3415 2708
0 3415 2943
0 3415 3111
0 3415 3237
0 3415 3335
0 3415 3415
1718 0 0
1718 0 1718
1718 0 2349
1718 0 2708
1718 0 2943
1718 0 3111
1718 0 3237
1718 0 3335
1718 0 3415
1718 1718 0
1718 1718 1718
1718 1718 2349
1718 1718 2708
1718 1718 2943
1718 1718 3111
1718 1718 3237
1718 1718 3335
1718 1718 3415
1718 2349 0
1718 2349 1718
1718 2349 2349
1718 2349 2708
1718 2349 2943
1718 2349 3111
1718 2349 3237
1718 2349 3335
1718 2349 3415
1718 2708 0
1718 2708 1718
1718 2708 2349
1718 2708 2708
1718 2708 2943
1718 2708 3111
1718 2708 3237
1718 2708 3335
1718 2708 3415
1718 2943 0
1718 2943 1718
1718 2943 2349
1718 2943 2708
1718 2943 2943
1718 2943 3111
1718 2943 3237
1718 2943 3335
1718 2943 3415
1718 3111 0
1718 3111 1718
1718 3111 2349
1718 3111 2708
1718 3111 2943
1718 3111 3111
1718 3111 3237
1718 3111 3335
1718 3111 3415
1718 3237 0
1718 3237 1718
1718 3237 2349
1718 3237 2708
1718 3237 2943
1718 3237 3111
1718 3237 3237
1718 3237 3335
1718 3237 3415
1718 3335 0
1718 3335 1718
1718 3335 2349
1718 3335 2708
1718 3335 2943
1718 3335 3111
1718 3335 3237
1718 3335 3335
1718 3335 3415
1718 3415 0
1718 3415 1718
1718 3415 2349
1718 3415 2708
1718 3415 2943
1718 3415 3111
1718 3415 3237
1718 3415 3335
1718 3415 3415
2349 0 0
2349 0 1718
2349 0 2349
2349 0 2708
2349 0 2943
2349 0 3111
2349 0 3237
2349 0 3335
2349 0 3415
2349 1718 0
2349 1718 1718
2349 1718 2349
2349 1718 2708
2349 1718 2943
2349 1718 3111
2349 1718 3237
2349 1718 3335
2349 1718 3415
2349 2349 0
2349 2349 1718
2349 2349 2349
2349 2349 2708
2349 2349 2943
2349 2349 3111
2349 2349 3237
2349 2349 3335
2349 2349 3415
2349 2708 0
2349 2708 1718
2349 2708 2349
2349 2708 2708
2349 2708 2943
2349 2708 3111
2349 2708 3237
2349 2708 3335
2349 2708 3415
2349 2943 0
2349 2943 1718
2349 2943 2349
2349 2943 2708
2349 2943 2943
2349 2943 3111
2349 2943 3237
2349 2943 3335
2349 2943 3415
2349 3111 0
2349 3111 1718
2349 3111 2349
2349 3111 2708
2349 3111 2943
2349 3111 3111
2349 3111 3237
2349 3111 3335
2349 3111 3415
2349 3237 0
2349 3237 1718
2349 3237 2349
2349 3237 2708
2349 3237 2943
2349 3237 3111
2349 3237 3237
2349 3237 3335
2349 3237 3415
2349 3335 0
2349 3335 1718
2349 3335 2349
2349 3335 2708
2349 3335 2943
2349 3335 3111
2349 3335 3237
2349 3335 3335
2349 3335 3415
2349 3415 0
2349 3415 1718
2349 3415 2349
2349 3415 2708
2349 3415 2943
2349 3415 3111
2349 3415 3237
2349 3415 3335
2349 3415 3415
2708 0 0
2708 0 1718
2708 0 2349
2708 0 2708
2708 0 2943
2708 0 3111
2708 0 3237
2708 0 3335
2708 0 3415
2708 1718 0
2708 1718 1718
2708 1718 2349
2708 1718 2708
2708 1718 2943
2708 1718 3111
2708 1718 3237
2708 1718 3335
2708 1718 3415
2708 2349 0
2708 2349 1718
2708 2349 2349
2708 2349 2708
2708 2349 2943
2708 2349 3111
2708 2349 3237
2708 2349 3335
2708 2349 3415
2708 2708 0
2708 2708 1718
2708 2708 2349
2708 2708 2708
2708 2708 2943
2708 2708 3111
2708 2708 3237
2708 2708 3335
2708 2708 3415
2708 2943 0
2708 2943 1718
2708 2943 2349
2708 2943 2708
2708 2943 2943
2708 2943 3111
2708 2943 3237
2708 2943 3335
2708 2943 3415
2708 3111 0
2708 3111 1718
2708 3111 2349
2708 3111 2708
2708 3111 2943
2708 3111 3111
2708 3111 3237
2708 3111 3335
2708 3111 3415
2708 3237 0
2708 3237 1718
2708 3237 2349
2708 3237 2708
2708 3237 2943
2708 3237 3111
2708 3237 3237
2708 3237 3335
2708 3237 3415
2708 3335 0
2708 3335 1718
2708 3335 2349
2708 3335 2708
2708 3335 2943
2708 3335 3111
2708 3335 3237
2708 3335 3335
2708 3335 3415
2708 3415 0
2708 3415 1718
2708 3415 2349
2708 3415 2708
2708 3415 2943
2708 3415 3111
2708 3415 3237
2708 3415 3335
2708 3415 3415
2943 0 0
2943 0 1718
2943 0 2349
2943 0 2708
2943 0 2943
2943 0 3111
2943 0 3237
2943 0 3335
2943 0 3415
2943 1718 0
2943 1718 1718
2943 1718 2349
2943 1718 2708
2943 1718 2943
2943 1718 3111
2943 1718 3237
2943 1718 3335
2943 1718 3415
2943 2349 0
2943 2349 1718
2943 2349 2349
2943 2349 2708
2943 2349 2943
2943 2349 3111
2943 2349 3237
2943 2349 3335
2943 2349 3415
2943 2708 0
2943 2708 1718
2943 2708 2349
2943 2708 2708
2943 2708 2943
2943 2708 3111
2943 2708 3237
2943 2708 3335
2943 2708 3415
2943 2943 0
2943 2943 1718
2943 2943 2349
2943 2943 2708
2943 2943 2943
2943 2943 3111
2943 2943 3237
2943 2943 3335
2943 2943 3415
2943 3111 0
2943 3111 1718
2943 3111 2349
2943 3111 2708
2943 3111 2943
2943 3111 3111
2943 3111 3237
2943 3111 3335
2943 3111 3415
2943 3237 0
2943 3237 1718
2943 3237 2349
2943 3237 2708
2943 3237 2943
2943 3237 3111
2943 3237 3237
2943 3237 3335
2943 3237 3415
2943 3335 0
2943 3335 1718
2943 3335 2349
2943 3335 2708
2943 3335 2943
2943 3335 3111
2943 3335 3237
2943 3335 3335
2943 3335 3415
2943 3415 0
2943 3415 1718
2943 3415 2349
2943 3415 2708
2943 3415 2943
2943 3415 3111
2943 3415 3237
2943 3415 3335
2943 3415 3415
3111 0 0
3111 0 1718
3111 0 2349
3111 0 2708
3111 0 2943
3111 0 3111
3111 0 3237
3111 0 3335
3111 0 3415
3111 1718 0
3111 1718 1718
3111 1718 2349
3111 1718 2708
3111 1718 2943
3111 1718 3111
3111 1718 3237
3111 1718 3335
3111 1718 3415
3111 2349 0
3111 2349 1718
3111 2349 2349
3111 2349 2708
3111 2349 2943
3111 2349 3111
3111 2349 3237
3111 2349 3335
3111 2349 3415
3111 2708 0
3111 2708 1718
3111 2708 2349
3111 2708 2708
3111 2708 2943
3111 2708 3111
3111 2708 3237
3111 2708 3335
3111 2708 3415
3111 2943 0
3111 2943 1718
3111 2943 2349
3111 2943 2708
3111 2943 2943
3111 2943 3111
3111 2943 3237
3111 2943 3335
3111 2943 3415
3111 3111 0
3111 3111 1718
3111 3111 2349
3111 3111 2708
3111 3111 2943
3111 3111 3111
3111 3111 3237
3111 3111 3335
3111 3111 3415
3111 3237 0
3111 3237 1718
3111 3237 2349
3111 3237 2708
3111 3237 2943
3111 3237 3111
3111 3237 3237
3111 3237 3335
3111 3237 3415
3111 3335 0
3111 3335 1718
3111 3335 2349
3111 3335 2708
3111 3335 2943
3111 3335 3111
3111 3335 3237
3111 3335 3335
3111 3335 3415
3111 3415 0
3111 3415 1718
3111 3415 2349
3111 3415 2708
3111 3415 2943
3111 3415 3111
3111 3415 3237
3111 3415 3335
3111 3415 3415
3237 0 0
3237 0 1718
3237 0 2349
3237 0 2708
3237 0 2943
3237 0 3111
3237 0 3237
3237 0 3335
3237 0 3415
3237 1718 0
3237 1718 1718
3237 1718 2349
3237 1718 2708
3237 1718 2943
3237 1718 3111
3237 1718 3237
3237 1718 3335
3237 1718 3415
3237 2349 0
3237 2349 1718
3237 2349 2349
3237 2349 2708
3237 2349 2943
3237 2349 3111
3237 2349 3237
3237 2349 3335
3237 2349 3415
3237 2708 0
3237 2708 1718
3237 2708 2349
3237 2708 2708
3237 2708 2943
3237 2708 3111
3237 2708 3237
3237 2708 3335
3237 2708 3415
3237 2943 0
3237 2943 1718
3237 2943 2349
3237 2943 2708
3237 2943 2943
3237 2943 3111
3237 2943 3237
3237 2943 3335
3237 2943 3415
3237 3111 0
3237 3111 1718
3237 3111 2349
3237 3111 2708
3237 3111 2943
3237 3111 3111
3237 3111 3237
3237 3111 3335
3237 3111 3415
3237 3237 0
3237 3237 1718
3237 3237 2349
3237 3237 2708
3237 3237 2943
3237 3237 3111
3237 3237 3237
3237 3237 3335
3237 3237 3415
3237 3335 0
3237 3335 1718
3237 3335 2349
3237 3335 2708
3237 3335 2943
3237 3335 3111
3237 3335 3237
3237 3335 3335
3237 3335 3415
3237 3415 0
3237 3415 1718
3237 3415 2349
3237 3415 2708
3237 3415 2943
3237 3415 3111
3237 3415 3237
3237 3415 3335
3237 3415 3415
3335 0 0
3335 0 1718
3335 0 2349
3335 0 2708
3335 0 2943
3335 0 3111
3335 0 3237
3335 0 3335
3335 0 3415
3335 1718 0
3335 1718 1718
3335 1718 2349
3335 1718 2708
3335 1718 2943
3335 1718 3111
3335 1718 3237
3335 1718 3335
3335 1718 3415
3335 2349 0
3335 2349 1718
3335 2349 2349
3335 2349 2708
3335 2349 2943
3335 2349 3111
3335 2349 3237
3335 2349 3335
3335 2349 3415
3335 2708 0
3335 2708 1718
3335 2708 2349
3335 2708 2708
3335 2708 2943
3335 2708 3111
3335 2708 3237
3335 2708 3335
3335 2708 3415
3335 2943 0
3335 2943 1718
3335 2943 2349
3335 2943 2708
3335 2943 2943
3335 2943 3111
3335 2943 3237
3335 2943 3335
3335 2943 3415
3335 3111 0
3335 3111 1718
3335 3111 2349
3335 3111 2708
3335 3111 2943
3335 3111 3111
3335 3111 3237
3335 3111 3335
3335 3111 3415
3335 3237 0
3335 3237 1718
3335 3237 2349
3335 3237 2708
3335 3237 2943
3335 3237 3111
3335 3237 3237
3335 3237 3335
3335 3237 3415
3335 3335 0
3335 3335 1718
3335 3335 2349
3335 3335 2708
3335 3335 2943
3335 3335 3111
3335 3335 3237
3335 3335 3335
3335 3335 3415
3335 3415 0
3335 3415 1718
3335 3415 2349
3335 3415 2708
3335 3415 2943
3335 3415 3111
3335 3415 3237
3335 3415 3335
3335 3415 3415
3415 0 0
3415 0 1718
3415 0 2349
3415 0 2708
3415 0 2943
3415 0 3111
3415 0 3237
3415 0 3335
3415 0 3415
3415 1718 0
3415 1718 1718
3415 1718 2349
3415 1718 2708
3415 1718 2943
3415 1718 3111
3415 1718 3237
3415 1718 3335
3415 1718 3415
3415 2349 0
3415 2349 1718
3415 2349 2349
3415 2349 2708
3415 2349 2943
3415 2349 3111
3415 2349 3237
3415 2349 3335
3415 2349 3415
3415 2708 0
3415 2708 1718
3415 2708 2349
3415 2708 2708
3415 2708 2943
3415 2708 3111
3415 2708 3237
3415 2708 3335
3415 2708 3415
3415 2943 0
3415 2943 1718
3415 2943 2349
3415 2943 2708
3415 2943 2943
3415 2943 3111
3415 2943 3237
3415 2943 3335
3415 2943 3415
3415 3111 0
3415 3111 1718
3415 3111 2349
3415 3111 2708
3415 3111 2943
3415 3111 3111
3415 3111 3237
3415 3111 3335
3415 3111 3415
3415 3237 0
3415 3237 1718
3415 3237 2349
3415 3237 2708
3415 3237 2943
3415 3237 3111
3415 3237 3237
3415 3237 3335
3415 3237 3415
3415 3335 0
3415 3335 1718
3415 3335 2349
3415 3335 2708
3415 3335 2943
3415 3335 3111
3415 3335 3237
3415 3335 3335
3415 3335 3415
3415 3415 0
3415 3415 1718
3415 3415 2349
3415 3415 2708
3415 3415 2943
3415 3415 3111
3415 3415 3237
3415 3415 3335
3415 3415 3415
