src/resources/luts/linear_to_filmic-sRGB-VeryHigh.3dl
0 64 128 192 256 320 384 448 512 575 639 703 767 831 895 959 1023
0 0 0
0 0 897
0 0 1606
0 0 2099
0 0 2449
0 0 2706
0 0 2901
0 0 3053
0 0 3174
0 0 3273
0 0 3354
0 0 3423
0 0 3481
0 0 3530
0 0 3573
0 0 3611
0 0 3644
0 897 0
0 897 897
0 897 1606
0 897 2099
0 897 2449
0 897 2706
0 897 2901
0 897 3053
0 897 3174
0 897 3273
0 897 3354
0 897 3423
0 897 3481
0 897 3530
0 897 3573
0 897 3611
0 897 3644
0 1606 0
0 1606 897
0 1606 1606
0 1606 2099
0 1606 2449
0 1606 2706
0 1606 2901
0 1606 3053
0 1606 3174
0 1606 3273
0 1606 3354
0 1606 3423
0 1606 3481
0 1606 3530
0 1606 3573
0 1606 3611
0 1606 3644
0 2099 0
0 2099 897
0 2099 1606
0 2099 2099
0 2099 2449
0 2099 2706
0 2099 2901
0 2099 3053
0 2099 3174
0 2099 3273
0 2099 3354
0 2099 3423
0 2099 3481
0 2099 3530
0 2099 3573
0 2099 3611
0 2099 3644
0 2449 0
0 2449 897
0 2449 1606
0 2449 2099
0 2449 2449
0 2449 2706
0 2449 2901
0 2449 3053
0 2449 3174
0 2449 3273
0 2449 3354
0 2449 3423
0 2449 3481
0 2449 3530
0 2449 3573
0 2449 3611
0 2449 3644
0 2706 0
0 2706 897
0 2706 1606
0 2706 2099
0 2706 2449
0 2706 2706
0 2706 2901
0 2706 3053
0 2706 3174
0 2706 3273
0 2706 3354
0 2706 3423
0 2706 3481
0 2706 3530
0 2706 3573
0 2706 3611
0 2706 3644
0 2901 0
0 2901 897
0 2901 1606
0 2901 2099
0 2901 2449
0 2901 2706
0 2901 2901
0 2901 3053
0 2901 3174
0 2901 3273
0 2901 3354
0 2901 3423
0 2901 3481
0 2901 3530
0 2901 3573
0 2901 3611
0 2901 3644
0 3053 0
0 3053 897
0 3053 1606
0 3053 2099
0 3053 2449
0 3053 2706
0 3053 2901
0 3053 3053
0 3053 3174
0 3053 3273
0 3053 3354
0 3053 3423
0 3053 3481
0 3053 3530
0 3053 3573
0 3053 3611
0 3053 3644
0 3174 0
0 3174 897
0 3174 1606
0 3174 2099
0 3174 2449
0 3174 2706
0 3174 2901
0 3174 3053
0 3174 3174
0 3174 3273
0 3174 3354
0 3174 3423
0 3174 3481
0 3174 3530
0 3174 3573
0 3174 3611
0 3174 3644
0 3273 0
0 3273 897
0 3273 1606
0 3273 2099
0 3273 2449
0 3273 2706
0 3273 2901
0 3273 3053
0 3273 3174
0 3273 3273
0 3273 3354
0 3273 3423
0 3273 3481
0 3273 3530
0 3273 3573
0 3273 3611
0 3273 3644
0 3354 0
0 3354 897
0 3354 1606
0 3354 2099
0 3354 2449
0 3354 2706
0 3354 2901
0 3354 3053
0 3354 3174
0 3354 3273
0 3354 3354
0 3354 3423
0 3354 3481
0 3354 3530
0 3354 3573
0 3354 3611
0 3354 3644
0 3423 0
0 3423 897
0 3423 1606
0 3423 2099
0 3423 2449
0 3423 2706
0 3423 2901
0 3423 3053
0 3423 3174
0 3423 3273
0 3423 3354
0 3423 3423
0 3423 3481
0 3423 3530
0 3423 3573
0 3423 3611
0 3423 3644
0 3481 0
0 3481 897
0 3481 1606
0 3481 2099
0 3481 2449
0 3481 2706
0 3481 2901
0 3481 3053
0 3481 3174
0 3481 3273
0 3481 3354
0 3481 3423
0 3481 3481
0 3481 3530
0 3481 3573
0 3481 3611
0 3481 3644
0 3530 0
0 3530 897
0 3530 1606
0 3530 2099
0 3530 2449
0 3530 2706
0 3530 2901
0 3530 3053
0 3530 3174
0 3530 3273
0 3530 3354
0 3530 3423
0 3530 3481
0 3530 3530
0 3530 3573
0 3530 3611
0 3530 3644
0 3573 0
0 3573 897
0 3573 1606
0 3573 2099
0 3573 2449
0 3573 2706
0 3573 2901
0 3573 3053
0 3573 3174
0 3573 3273
0 3573 3354
0 3573 3423
0 3573 3481
0 3573 3530
0 3573 3573
0 3573 3611
0 3573 3644
0 3611 0
0 3611 897
0 3611 1606
0 3611 2099
0 3611 2449
0 3611 2706
0 3611 2901
0 3611 3053
0 3611 3174
0 3611 3273
0 3611 3354
0 3611 3423
0 3611 3481
0 3611 3530
0 3611 3573
0 3611 3611
0 3611 3644
0 3644 0
0 3644 897
0 3644 1606
0 3644 2099
0 3644 2449
0 3644 2706
0 3644 2901
0 3644 3053
0 3644 3174
0 3644 3273
0 3644 3354
0 3644 3423
0 3644 3481
0 3644 3530
0 3644 3573
0 3644 3611
0 3644 3644
897 0 0
897 0 897
897 0 1606
897 0 2099
897 0 2449
897 0 2706
897 0 2901
897 0 3053
897 0 3174
897 0 3273
897 0 3354
897 0 3423
897 0 3481
897 0 3530
897 0 3573
897 0 3611
897 0 3644
897 897 0
897 897 897
897 897 1606
897 897 2099
897 897 2449
897 897 2706
897 897 2901
897 897 3053
897 897 3174
897 897 3273
897 897 3354
897 897 3423
897 897 3481
897 897 3530
897 897 3573
897 897 3611
897 897 3644
897 1606 0
897 1606 897
897 1606 1606
897 1606 2099
897 1606 2449
897 1606 2706
897 1606 2901
897 1606 3053
897 1606 3174
897 1606 3273
897 1606 3354
897 1606 3423
897 1606 3481
897 1606 3530
897 1606 3573
897 1606 3611
897 1606 3644
897 2099 0
897 2099 897
897 2099 1606
897 2099 2099
897 2099 2449
897 2099 2706
897 2099 2901
897 2099 3053
897 2099 3174
897 2099 3273
897 2099 3354
897 2099 3423
897 2099 3481
897 2099 3530
897 2099 3573
897 2099 3611
897 2099 3644
897 2449 0
897 2449 897
897 2449 1606
897 2449 2099
897 2449 2449
897 2449 2706
897 2449 2901
897 2449 3053
897 2449 3174
897 2449 3273
897 2449 3354
897 2449 3423
897 2449 3481
897 2449 3530
897 2449 3573
897 2449 3611
897 2449 3644
897 2706 0
897 2706 897
897 2706 1606
897 2706 2099
897 2706 2449
897 2706 2706
897 2706 2901
897 2706 3053
897 2706 3174
897 2706 3273
897 2706 3354
897 2706 3423
897 2706 3481
897 2706 3530
897 2706 3573
897 2706 3611
897 2706 3644
897 2901 0
897 2901 897
897 2901 1606
897 2901 2099
897 2901 2449
897 2901 2706
897 2901 2901
897 2901 3053
897 2901 3174
897 2901 3273
897 2901 3354
897 2901 3423
897 2901 3481
897 2901 3530
897 2901 3573
897 2901 3611
897 2901 3644
897 3053 0
897 3053 897
897 3053 1606
897 3053 2099
897 3053 2449
897 3053 2706
897 3053 2901
897 3053 3053
897 3053 3174
897 3053 3273
897 3053 3354
897 3053 3423
897 3053 3481
897 3053 3530
897 3053 3573
897 3053 3611
897 3053 3644
897 3174 0
897 3174 897
897 3174 1606
897 3174 2099
897 3174 2449
897 3174 2706
897 3174 2901
897 3174 3053
897 3174 3174
897 3174 3273
897 3174 3354
897 3174 3423
897 3174 3481
897 3174 3530
897 3174 3573
897 3174 3611
897 3174 3644
897 3273 0
897 3273 897
897 3273 1606
897 3273 2099
897 3273 2449
897 3273 2706
897 3273 2901
897 3273 3053
897 3273 3174
897 3273 3273
897 3273 3354
897 3273 3423
897 3273 3481
897 3273 3530
897 3273 3573
897 3273 3611
897 3273 3644
897 3354 0
897 3354 897
897 3354 1606
897 3354 2099
897 3354 2449
897 3354 2706
897 3354 2901
897 3354 3053
897 3354 3174
897 3354 3273
897 3354 3354
897 3354 3423
897 3354 3481
897 3354 3530
897 3354 3573
897 3354 3611
897 3354 3644
897 3423 0
897 3423 897
897 3423 1606
897 3423 2099
897 3423 2449
897 3423 2706
897 3423 2901
897 3423 3053
897 3423 3174
897 3423 3273
897 3423 3354
897 3423 3423
897 3423 3481
897 3423 3530
897 3423 3573
897 3423 3611
897 3423 3644
897 3481 0
897 3481 897
897 3481 1606
897 3481 2099
897 3481 2449
897 3481 2706
897 3481 2901
897 3481 3053
897 3481 3174
897 3481 3273
897 3481 3354
897 3481 3423
897 3481 3481
897 3481 3530
897 3481 3573
897 3481 3611
897 3481 3644
897 3530 0
897 3530 897
897 3530 1606
897 3530 2099
897 3530 2449
897 3530 2706
897 3530 2901
897 3530 3053
897 3530 3174
897 3530 3273
897 3530 3354
897 3530 3423
897 3530 3481
897 3530 3530
897 3530 3573
897 3530 3611
897 3530 3644
897 3573 0
897 3573 897
897 3573 1606
897 3573 2099
897 3573 2449
897 3573 2706
897 3573 2901
897 3573 3053
897 3573 3174
897 3573 3273
897 3573 3354
897 3573 3423
897 3573 3481
897 3573 3530
897 3573 3573
897 3573 3611
897 3573 3644
897 3611 0
897 3611 897
897 3611 1606
897 3611 2099
897 3611 2449
897 3611 2706
897 3611 2901
897 3611 3053
897 3611 3174
897 3611 3273
897 3611 3354
897 3611 3423
897 3611 3481
897 3611 3530
897 3611 3573
897 3611 3611
897 3611 3644
897 3644 0
897 3644 897
897 3644 1606
897 3644 2099
897 3644 2449
897 3644 2706
897 3644 2901
897 3644 3053
897 3644 3174
897 3644 3273
897 3644 3354
897 3644 3423
897 3644 3481
897 3644 3530
897 3644 3573
897 3644 3611
897 3644 3644
1606 0 0
1606 0 897
1606 0 1606
1606 0 2099
1606 0 2449
1606 0 2706
1606 0 2901
1606 0 3053
1606 0 3174
1606 0 3273
1606 0 3354
1606 0 3423
1606 0 3481
1606 0 3530
1606 0 3573
1606 0 3611
1606 0 3644
1606 897 0
1606 897 897
1606 897 1606
1606 897 2099
1606 897 2449
1606 897 2706
1606 897 2901
1606 897 3053
1606 897 3174
1606 897 3273
1606 897 3354
1606 897 3423
1606 897 3481
1606 897 3530
1606 897 3573
1606 897 3611
1606 897 3644
1606 1606 0
1606 1606 897
1606 1606 1606
1606 1606 2099
1606 1606 2449
1606 1606 2706
1606 1606 2901
1606 1606 3053
1606 1606 3174
1606 1606 3273
1606 1606 3354
1606 1606 3423
1606 1606 3481
1606 1606 3530
1606 1606 3573
1606 1606 3611
1606 1606 3644
1606 2099 0
1606 2099 897
1606 2099 1606
1606 2099 2099
1606 2099 2449
1606 2099 2706
1606 2099 2901
1606 2099 3053
1606 2099 3174
1606 2099 3273
1606 2099 3354
1606 2099 3423
1606 2099 3481
1606 2099 3530
1606 2099 3573
1606 2099 3611
1606 2099 3644
1606 2449 0
1606 2449 897
1606 2449 1606
1606 2449 2099
1606 2449 2449
1606 2449 2706
1606 2449 2901
1606 2449 3053
1606 2449 3174
1606 2449 3273
1606 2449 3354
1606 2449 3423
1606 2449 3481
1606 2449 3530
1606 2449 3573
1606 2449 3611
1606 2449 3644
1606 2706 0
1606 2706 897
1606 2706 1606
1606 2706 2099
1606 2706 2449
1606 2706 2706
1606 2706 2901
1606 2706 3053
1606 2706 3174
1606 2706 3273
1606 2706 3354
1606 2706 3423
1606 2706 3481
1606 2706 3530
1606 2706 3573
1606 2706 3611
1606 2706 3644
1606 2901 0
1606 2901 897
1606 2901 1606
1606 2901 2099
1606 2901 2449
1606 2901 2706
1606 2901 2901
1606 2901 3053
1606 2901 3174
1606 2901 3273
1606 2901 3354
1606 2901 3423
1606 2901 3481
1606 2901 3530
1606 2901 3573
1606 2901 3611
1606 2901 3644
1606 3053 0
1606 3053 897
1606 3053 1606
1606 3053 2099
1606 3053 2449
1606 3053 2706
1606 3053 2901
1606 3053 3053
1606 3053 3174
1606 3053 3273
1606 3053 3354
1606 3053 3423
1606 3053 3481
1606 3053 3530
1606 3053 3573
1606 3053 3611
1606 3053 3644
1606 3174 0
1606 3174 897
1606 3174 1606
1606 3174 2099
1606 3174 2449
1606 3174 2706
1606 3174 2901
1606 3174 3053
1606 3174 3174
1606 3174 3273
1606 3174 3354
1606 3174 3423
1606 3174 3481
1606 3174 3530
1606 3174 3573
1606 3174 3611
1606 3174 3644
1606 3273 0
1606 3273 897
1606 3273 1606
1606 3273 2099
1606 3273 2449
1606 3273 2706
1606 3273 2901
1606 3273 3053
1606 3273 3174
1606 3273 3273
1606 3273 3354
1606 3273 3423
1606 3273 3481
1606 3273 3530
1606 3273 3573
1606 3273 3611
1606 3273 3644
1606 3354 0
1606 3354 897
1606 3354 1606
1606 3354 2099
1606 3354 2449
1606 3354 2706
1606 3354 2901
1606 3354 3053
1606 3354 3174
1606 3354 3273
1606 3354 3354
1606 3354 3423
1606 3354 3481
1606 3354 3530
1606 3354 3573
1606 3354 3611
1606 3354 3644
1606 3423 0
1606 3423 897
1606 3423 1606
1606 3423 2099
1606 3423 2449
1606 3423 2706
1606 3423 2901
1606 3423 3053
1606 3423 3174
1606 3423 3273
1606 3423 3354
1606 3423 3423
1606 3423 3481
1606 3423 3530
1606 3423 3573
1606 3423 3611
1606 3423 3644
1606 3481 0
1606 3481 897
1606 3481 1606
1606 3481 2099
1606 3481 2449
1606 3481 2706
1606 3481 2901
1606 3481 3053
1606 3481 3174
1606 3481 3273
1606 3481 3354
1606 3481 3423
1606 3481 3481
1606 3481 3530
1606 3481 3573
1606 3481 3611
1606 3481 3644
1606 3530 0
1606 3530 897
1606 3530 1606
1606 3530 2099
1606 3530 2449
1606 3530 2706
1606 3530 2901
1606 3530 3053
1606 3530 3174
1606 3530 3273
1606 3530 3354
1606 3530 3423
1606 3530 3481
1606 3530 3530
1606 3530 3573
1606 3530 3611
1606 3530 3644
1606 3573 0
1606 3573 897
1606 3573 1606
1606 3573 2099
1606 3573 2449
1606 3573 2706
1606 3573 2901
1606 3573 3053
1606 3573 3174
1606 3573 3273
1606 3573 3354
1606 3573 3423
1606 3573 3481
1606 3573 3530
1606 3573 3573
1606 3573 3611
1606 3573 3644
1606 3611 0
1606 3611 897
1606 3611 1606
1606 3611 2099
1606 3611 2449
1606 3611 2706
1606 3611 2901
1606 3611 3053
1606 3611 3174
1606 3611 3273
1606 3611 3354
1606 3611 3423
1606 3611 3481
1606 3611 3530
1606 3611 3573
1606 3611 3611
1606 3611 3644
1606 3644 0
1606 3644 897
1606 3644 1606
1606 3644 2099
1606 3644 2449
1606 3644 2706
1606 3644 2901
1606 3644 3053
1606 3644 3174
1606 3644 3273
1606 3644 3354
1606 3644 3423
1606 3644 3481
1606 3644 3530
1606 3644 3573
1606 3644 3611
1606 3644 3644
2099 0 0
2099 0 897
2099 0 1606
2099 0 2099
2099 0 2449
2099 0 2706
2099 0 2901
2099 0 3053
2099 0 3174
2099 0 3273
2099 0 3354
2099 0 3423
2099 0 3481
2099 0 3530
2099 0 3573
2099 0 3611
2099 0 3644
2099 897 0
2099 897 897
2099 897 1606
2099 897 2099
2099 897 2449
2099 897 2706
2099 897 2901
2099 897 3053
2099 897 3174
2099 897 3273
2099 897 3354
2099 897 3423
2099 897 3481
2099 897 3530
2099 897 3573
2099 897 3611
