src/resources/luts/linear_to_filmic-sRGB-MediumLow.3dl
0 256 512 767 1023
0 0 0
0 0 2280
0 0 2762
0 0 3025
0 0 3197
0 2280 0
0 2280 2280
0 2280 2762
0 2280 3025
0 2280 3197
0 2762 0
0 2762 2280
0 2762 2762
0 2762 3025
0 2762 3197
0 3025 0
0 3025 2280
0 3025 2762
0 3025 3025
0 3025 3197
0 3197 0
0 3197 2280
0 3197 2762
0 3197 3025
0 3197 3197
2280 0 0
2280 0 2280
2280 0 2762
2280 0 3025
2280 0 3197
2280 2280 0
2280 2280 2280
2280 2280 2762
2280 2280 3025
2280 2280 3197
2280 2762 0
2280 2762 2280
2280 2762 2762
2280 2762 3025
2280 2762 3197
2280 3025 0
2280 3025 2280
2280 3025 2762
2280 3025 3025
2280 3025 3197
2280 3197 0
2280 3197 2280
2280 3197 2762
2280 3197 3025
2280 3197 3197
2762 0 0
2762 0 2280
2762 0 2762
2762 0 3025
2762 0 3197
2762 2280 0
2762 2280 2280
2762 2280 2762
2762 2280 3025
2762 2280 3197
2762 2762 0
2762 2762 2280
2762 2762 2762
2762 2762 3025
2762 2762 3197
2762 3025 0
2762 3025 2280
2762 3025 2762
2762 3025 3025
2762 3025 3197
2762 3197 0
2762 3197 2280
2762 3197 2762
2762 3197 3025
2762 3197 3197
3025 0 0
3025 0 2280
3025 0 2762
3025 0 3025
3025 0 3197
3025 2280 0
3025 2280 2280
3025 2280 2762
3025 2280 3025
3025 2280 3197
3025 2762 0
3025 2762 2280
3025 2762 2762
3025 2762 3025
3025 2762 3197
3025 3025 0
3025 3025 2280
3025 3025 2762
3025 3025 3025
3025 3025 3197
3025 3197 0
3025 3197 2280
3025 3197 2762
3025 3197 3025
3025 3197 3197
3197 0 0
3197 0 2280
3197 0 2762
3197 0 3025
3197 0 3197
3197 2280 0
3197 2280 2280
3197 2280 2762
3197 2280 3025
3197 2280 3197
3197 2762 0
3197 2762 2280
3197 2762 2762
3197 2762 3025
3197 2762 3197
3197 3025 0
3197 3025 2280
3197 3025 2762
3197 3025 3025
3197 3025 3197
3197 3197 0
3197 3197 2280
3197 3197 2762
3197 3197 3025
3197 3197 3197
