src/resources/luts/linear_to_filmic-sRGB-Medium.3dl
0 128 256 384 512 639 767 895 1023
0 0 0
0 0 1760
0 0 2310
0 0 2630
0 0 2846
0 0 3005
0 0 3127
0 0 3225
0 0 3306
0 1760 0
0 1760 1760
0 1760 2310
0 1760 2630
0 1760 2846
0 1760 3005
0 1760 3127
0 1760 3225
0 1760 3306
0 2310 0
0 2310 1760
0 2310 2310
0 2310 2630
0 2310 2846
0 2310 3005
0 2310 3127
0 2310 3225
0 2310 3306
0 2630 0
0 2630 1760
0 2630 2310
0 2630 2630
0 2630 2846
0 2630 3005
0 2630 3127
0 2630 3225
0 2630 3306
0 2846 0
0 2846 1760
0 2846 2310
0 2846 2630
0 2846 2846
0 2846 3005
0 2846 3127
0 2846 3225
0 2846 3306
0 3005 0
0 3005 1760
0 3005 2310
0 3005 2630
0 3005 2846
0 3005 3005
0 3005 3127
0 3005 3225
0 3005 3306
0 3127 0
0 3127 1760
0 3127 2310
0 3127 2630
0 3127 2846
0 3127 3005
0 3127 3127
0 3127 3225
0 3127 3306
0 3225 0
0 3225 1760
0 3225 2310
0 3225 2630
0 3225 2846
0 3225 3005
0 3225 3127
0 3225 3225
0 3225 3306
0 3306 0
0 3306 1760
0 3306 2310
0 3306 2630
0 3306 2846
0 3306 3005
0 3306 3127
0 3306 3225
0 3306 3306
1760 0 0
1760 0 1760
1760 0 2310
1760 0 2630
1760 0 2846
1760 0 3005
1760 0 3127
1760 0 3225
1760 0 3306
1760 1760 0
1760 1760 1760
1760 1760 2310
1760 1760 2630
1760 1760 2846
1760 1760 3005
1760 1760 3127
1760 1760 3225
1760 1760 3306
1760 2310 0
1760 2310 1760
1760 2310 2310
1760 2310 2630
1760 2310 2846
1760 2310 3005
1760 2310 3127
1760 2310 3225
1760 2310 3306
1760 2630 0
1760 2630 1760
1760 2630 2310
1760 2630 2630
1760 2630 2846
1760 2630 3005
1760 2630 3127
1760 2630 3225
1760 2630 3306
1760 2846 0
1760 2846 1760
1760 2846 2310
1760 2846 2630
1760 2846 2846
1760 2846 3005
1760 2846 3127
1760 2846 3225
1760 2846 3306
1760 3005 0
1760 3005 1760
1760 3005 2310
1760 3005 2630
1760 3005 2846
1760 3005 3005
1760 3005 3127
1760 3005 3225
1760 3005 3306
1760 3127 0
1760 3127 1760
1760 3127 2310
1760 3127 2630
1760 3127 2846
1760 3127 3005
1760 3127 3127
1760 3127 3225
1760 3127 3306
1760 3225 0
1760 3225 1760
1760 3225 2310
1760 3225 2630
1760 3225 2846
1760 3225 3005
1760 3225 3127
1760 3225 3225
1760 3225 3306
1760 3306 0
1760 3306 1760
1760 3306 2310
1760 3306 2630
1760 3306 2846
1760 3306 3005
1760 3306 3127
1760 3306 3225
1760 3306 3306
2310 0 0
2310 0 1760
2310 0 2310
2310 0 2630
2310 0 2846
2310 0 3005
2310 0 3127
2310 0 3225
2310 0 3306
2310 1760 0
2310 1760 1760
2310 1760 2310
2310 1760 2630
2310 1760 2846
2310 1760 3005
2310 1760 3127
2310 1760 3225
2310 1760 3306
2310 2310 0
2310 2310 1760
2310 2310 2310
2310 2310 2630
2310 2310 2846
2310 2310 3005
2310 2310 3127
2310 2310 3225
2310 2310 3306
2310 2630 0
2310 2630 1760
2310 2630 2310
2310 2630 2630
2310 2630 2846
2310 2630 3005
2310 2630 3127
2310 2630 3225
2310 2630 3306
2310 2846 0
2310 2846 1760
2310 2846 2310
2310 2846 2630
2310 2846 2846
2310 2846 3005
2310 2846 3127
2310 2846 3225
2310 2846 3306
2310 3005 0
2310 3005 1760
2310 3005 2310
2310 3005 2630
2310 3005 2846
2310 3005 3005
2310 3005 3127
2310 3005 3225
2310 3005 3306
2310 3127 0
2310 3127 1760
2310 3127 2310
2310 3127 2630
2310 3127 2846
2310 3127 3005
2310 3127 3127
2310 3127 3225
2310 3127 3306
2310 3225 0
2310 3225 1760
2310 3225 2310
2310 3225 2630
2310 3225 2846
2310 3225 3005
2310 3225 3127
2310 3225 3225
2310 3225 3306
2310 3306 0
2310 3306 1760
2310 3306 2310
2310 3306 2630
2310 3306 2846
2310 3306 3005
2310 3306 3127
2310 3306 3225
2310 3306 3306
2630 0 0
2630 0 1760
2630 0 2310
2630 0 2630
2630 0 2846
2630 0 3005
2630 0 3127
2630 0 3225
2630 0 3306
2630 1760 0
2630 1760 1760
2630 1760 2310
2630 1760 2630
2630 1760 2846
2630 1760 3005
2630 1760 3127
2630 1760 3225
2630 1760 3306
2630 2310 0
2630 2310 1760
2630 2310 2310
2630 2310 2630
2630 2310 2846
2630 2310 3005
2630 2310 3127
2630 2310 3225
2630 2310 3306
2630 2630 0
2630 2630 1760
2630 2630 2310
2630 2630 2630
2630 2630 2846
2630 2630 3005
2630 2630 3127
2630 2630 3225
2630 2630 3306
2630 2846 0
2630 2846 1760
2630 2846 2310
2630 2846 2630
2630 2846 2846
2630 2846 3005
2630 2846 3127
2630 2846 3225
2630 2846 3306
2630 3005 0
2630 3005 1760
2630 3005 2310
2630 3005 2630
2630 3005 2846
2630 3005 3005
2630 3005 3127
2630 3005 3225
2630 3005 3306
2630 3127 0
2630 3127 1760
2630 3127 2310
2630 3127 2630
2630 3127 2846
2630 3127 3005
2630 3127 3127
2630 3127 3225
2630 3127 3306
2630 3225 0
2630 3225 1760
2630 3225 2310
2630 3225 2630
2630 3225 2846
2630 3225 3005
2630 3225 3127
2630 3225 3225
2630 3225 3306
2630 3306 0
2630 3306 1760
2630 3306 2310
2630 3306 2630
2630 3306 2846
2630 3306 3005
2630 3306 3127
2630 3306 3225
2630 3306 3306
2846 0 0
2846 0 1760
2846 0 2310
2846 0 2630
2846 0 2846
2846 0 3005
2846 0 3127
2846 0 3225
2846 0 3306
2846 1760 0
2846 1760 1760
2846 1760 2310
2846 1760 2630
2846 1760 2846
2846 1760 3005
2846 1760 3127
2846 1760 3225
2846 1760 3306
2846 2310 0
2846 2310 1760
2846 2310 2310
2846 2310 2630
2846 2310 2846
2846 2310 3005
2846 2310 3127
2846 2310 3225
2846 2310 3306
2846 2630 0
2846 2630 1760
2846 2630 2310
2846 2630 2630
2846 2630 2846
2846 2630 3005
2846 2630 3127
2846 2630 3225
2846 2630 3306
2846 2846 0
2846 2846 1760
2846 2846 2310
2846 2846 2630
2846 2846 2846
2846 2846 3005
2846 2846 3127
2846 2846 3225
2846 2846 3306
2846 3005 0
2846 3005 1760
2846 3005 2310
2846 3005 2630
2846 3005 2846
2846 3005 3005
2846 3005 3127
2846 3005 3225
2846 3005 3306
2846 3127 0
2846 3127 1760
2846 3127 2310
2846 3127 2630
2846 3127 2846
2846 3127 3005
2846 3127 3127
2846 3127 3225
2846 3127 3306
2846 3225 0
2846 3225 1760
2846 3225 2310
2846 3225 2630
2846 3225 2846
2846 3225 3005
2846 3225 3127
2846 3225 3225
2846 3225 3306
2846 3306 0
2846 3306 1760
2846 3306 2310
2846 3306 2630
2846 3306 2846
2846 3306 3005
2846 3306 3127
2846 3306 3225
2846 3306 3306
3005 0 0
3005 0 1760
3005 0 2310
3005 0 2630
3005 0 2846
3005 0 3005
3005 0 3127
3005 0 3225
3005 0 3306
3005 1760 0
3005 1760 1760
3005 1760 2310
3005 1760 2630
3005 1760 2846
3005 1760 3005
3005 1760 3127
3005 1760 3225
3005 1760 3306
3005 2310 0
3005 2310 1760
3005 2310 2310
3005 2310 2630
3005 2310 2846
3005 2310 3005
3005 2310 3127
3005 2310 3225
3005 2310 3306
3005 2630 0
3005 2630 1760
3005 2630 2310
3005 2630 2630
3005 2630 2846
3005 2630 3005
3005 2630 3127
3005 2630 3225
3005 2630 3306
3005 2846 0
3005 2846 1760
3005 2846 2310
3005 2846 2630
3005 2846 2846
3005 2846 3005
3005 2846 3127
3005 2846 3225
3005 2846 3306
3005 3005 0
3005 3005 1760
3005 3005 2310
3005 3005 2630
3005 3005 2846
3005 3005 3005
3005 3005 3127
3005 3005 3225
3005 3005 3306
3005 3127 0
3005 3127 1760
3005 3127 2310
3005 3127 2630
3005 3127 2846
3005 3127 3005
3005 3127 3127
3005 3127 3225
3005 3127 3306
3005 3225 0
3005 3225 1760
3005 3225 2310
3005 3225 2630
3005 3225 2846
3005 3225 3005
3005 3225 3127
3005 3225 3225
3005 3225 3306
3005 3306 0
3005 3306 1760
3005 3306 2310
3005 3306 2630
3005 3306 2846
3005 3306 3005
3005 3306 3127
3005 3306 3225
3005 3306 3306
3127 0 0
3127 0 1760
3127 0 2310
3127 0 2630
3127 0 2846
3127 0 3005
3127 0 3127
3127 0 3225
3127 0 3306
3127 1760 0
3127 1760 1760
3127 1760 2310
3127 1760 2630
3127 1760 2846
3127 1760 3005
3127 1760 3127
3127 1760 3225
3127 1760 3306
3127 2310 0
3127 2310 1760
3127 2310 2310
3127 2310 2630
3127 2310 2846
3127 2310 3005
3127 2310 3127
3127 2310 3225
3127 2310 3306
3127 2630 0
3127 2630 1760
3127 2630 2310
3127 2630 2630
3127 2630 2846
3127 2630 3005
3127 2630 3127
3127 2630 3225
3127 2630 3306
3127 2846 0
3127 2846 1760
3127 2846 2310
3127 2846 2630
3127 2846 2846
3127 2846 3005
3127 2846 3127
3127 2846 3225
3127 2846 3306
3127 3005 0
3127 3005 1760
3127 3005 2310
3127 3005 2630
3127 3005 2846
3127 3005 3005
3127 3005 3127
3127 3005 3225
3127 3005 3306
3127 3127 0
3127 3127 1760
3127 3127 2310
3127 3127 2630
3127 3127 2846
3127 3127 3005
3127 3127 3127
3127 3127 3225
3127 3127 3306
3127 3225 0
3127 3225 1760
3127 3225 2310
3127 3225 2630
3127 3225 2846
3127 3225 3005
3127 3225 3127
3127 3225 3225
3127 3225 3306
3127 3306 0
3127 3306 1760
3127 3306 2310
3127 3306 2630
3127 3306 2846
3127 3306 3005
3127 3306 3127
3127 3306 3225
3127 3306 3306
3225 0 0
3225 0 1760
3225 0 2310
3225 0 2630
3225 0 2846
3225 0 3005
3225 0 3127
3225 0 3225
3225 0 3306
3225 1760 0
3225 1760 1760
3225 1760 2310
3225 1760 2630
3225 1760 2846
3225 1760 3005
3225 1760 3127
3225 1760 3225
3225 1760 3306
3225 2310 0
3225 2310 1760
3225 2310 2310
3225 2310 2630
3225 2310 2846
3225 2310 3005
3225 2310 3127
3225 2310 3225
3225 2310 3306
3225 2630 0
3225 2630 1760
3225 2630 2310
3225 2630 2630
3225 2630 2846
3225 2630 3005
3225 2630 3127
3225 2630 3225
3225 2630 3306
3225 2846 0
3225 2846 1760
3225 2846 2310
3225 2846 2630
3225 2846 2846
3225 2846 3005
3225 2846 3127
3225 2846 3225
3225 2846 3306
3225 3005 0
3225 3005 1760
3225 3005 2310
3225 3005 2630
3225 3005 2846
3225 3005 3005
3225 3005 3127
3225 3005 3225
3225 3005 3306
3225 3127 0
3225 3127 1760
3225 3127 2310
3225 3127 2630
3225 3127 2846
3225 3127 3005
3225 3127 3127
3225 3127 3225
3225 3127 3306
3225 3225 0
3225 3225 1760
3225 3225 2310
3225 3225 2630
3225 3225 2846
3225 3225 3005
3225 3225 3127
3225 3225 3225
3225 3225 3306
3225 3306 0
3225 3306 1760
3225 3306 2310
3225 3306 2630
3225 3306 2846
3225 3306 3005
3225 3306 3127
3225 3306 3225
3225 3306 3306
3306 0 0
3306 0 1760
3306 0 2310
3306 0 2630
3306 0 2846
3306 0 3005
3306 0 3127
3306 0 3225
3306 0 3306
3306 1760 0
3306 1760 1760
3306 1760 2310
3306 1760 2630
3306 1760 2846
3306 1760 3005
3306 1760 3127
3306 1760 3225
3306 1760 3306
3306 2310 0
3306 2310 1760
3306 2310 2310
3306 2310 2630
3306 2310 2846
3306 2310 3005
3306 2310 3127
3306 2310 3225
3306 2310 3306
3306 2630 0
3306 2630 1760
3306 2630 2310
3306 2630 2630
3306 2630 2846
3306 2630 3005
3306 2630 3127
3306 2630 3225
3306 2630 3306
3306 2846 0
3306 2846 1760
3306 2846 2310
3306 2846 2630
3306 2846 2846
3306 2846 3005
3306 2846 3127
3306 2846 3225
3306 2846 3306
3306 3005 0
3306 3005 1760
3306 3005 2310
3306 3005 2630
3306 3005 2846
3306 3005 3005
3306 3005 3127
3306 3005 3225
3306 3005 3306
3306 3127 0
3306 3127 1760
3306 3127 2310
3306 3127 2630
3306 3127 2846
3306 3127 3005
3306 3127 3127
3306 3127 3225
3306 3127 3306
3306 3225 0
3306 3225 1760
3306 3225 2310
3306 3225 2630
3306 3225 2846
3306 3225 3005
3306 3225 3127
3306 3225 3225
3306 3225 3306
3306 3306 0
3306 3306 1760
3306 3306 2310
3306 3306 2630
3306 3306 2846
3306 3306 3005
3306 3306 3127
3306 3306 3225
3306 3306 3306
