src/resources/luts/linear_to_filmic-sRGB-Low.3dl
0 64 128 192 256 320 384 448 512 575 639 703 767 831 895 959 1023
0 0 0
0 0 1414
0 0 1818
0 0 2073
0 0 2250
0 0 2389
0 0 2503
0 0 2599
0 0 2681
0 0 2753
0 0 2817
0 0 2874
0 0 2926
0 0 2973
0 0 3016
0 0 3055
0 0 3092
0 1414 0
0 1414 1414
0 1414 1818
0 1414 2073
0 1414 2250
0 1414 2389
0 1414 2503
0 1414 2599
0 1414 2681
0 1414 2753
0 1414 2817
0 1414 2874
0 1414 2926
0 1414 2973
0 1414 3016
0 1414 3055
0 1414 3092
0 1818 0
0 1818 1414
0 1818 1818
0 1818 2073
0 1818 2250
0 1818 2389
0 1818 2503
0 1818 2599
0 1818 2681
0 1818 2753
0 1818 2817
0 1818 2874
0 1818 2926
0 1818 2973
0 1818 3016
0 1818 3055
0 1818 3092
0 2073 0
0 2073 1414
0 2073 1818
0 2073 2073
0 2073 2250
0 2073 2389
0 2073 2503
0 2073 2599
0 2073 2681
0 2073 2753
0 2073 2817
0 2073 2874
0 2073 2926
0 2073 2973
0 2073 3016
0 2073 3055
0 2073 3092
0 2250 0
0 2250 1414
0 2250 1818
0 2250 2073
0 2250 2250
0 2250 2389
0 2250 2503
0 2250 2599
0 2250 2681
0 2250 2753
0 2250 2817
0 2250 2874
0 2250 2926
0 2250 2973
0 2250 3016
0 2250 3055
0 2250 3092
0 2389 0
0 2389 1414
0 2389 1818
0 2389 2073
0 2389 2250
0 2389 2389
0 2389 2503
0 2389 2599
0 2389 2681
0 2389 2753
0 2389 2817
0 2389 2874
0 2389 2926
0 2389 2973
0 2389 3016
0 2389 3055
0 2389 3092
0 2503 0
0 2503 1414
0 2503 1818
0 2503 2073
0 2503 2250
0 2503 2389
0 2503 2503
0 2503 2599
0 2503 2681
0 2503 2753
0 2503 2817
0 2503 2874
0 2503 2926
0 2503 2973
0 2503 3016
0 2503 3055
0 2503 3092
0 2599 0
0 2599 1414
0 2599 1818
0 2599 2073
0 2599 2250
0 2599 2389
0 2599 2503
0 2599 2599
0 2599 2681
0 2599 2753
0 2599 2817
0 2599 2874
0 2599 2926
0 2599 2973
0 2599 3016
0 2599 3055
0 2599 3092
0 2681 0
0 2681 1414
0 2681 1818
0 2681 2073
0 2681 2250
0 2681 2389
0 2681 2503
0 2681 2599
0 2681 2681
0 2681 2753
0 2681 2817
0 2681 2874
0 2681 2926
0 2681 2973
0 2681 3016
0 2681 3055
0 2681 3092
0 2753 0
0 2753 1414
0 2753 1818
0 2753 2073
0 2753 2250
0 2753 2389
0 2753 2503
0 2753 2599
0 2753 2681
0 2753 2753
0 2753 2817
0 2753 2874
0 2753 2926
0 2753 2973
0 2753 3016
0 2753 3055
0 2753 3092
0 2817 0
0 2817 1414
0 2817 1818
0 2817 2073
0 2817 2250
0 2817 2389
0 2817 2503
0 2817 2599
0 2817 2681
0 2817 2753
0 2817 2817
0 2817 2874
0 2817 2926
0 2817 2973
0 2817 3016
0 2817 3055
0 2817 3092
0 2874 0
0 2874 1414
0 2874 1818
0 2874 2073
0 2874 2250
0 2874 2389
0 2874 2503
0 2874 2599
0 2874 2681
0 2874 2753
0 2874 2817
0 2874 2874
0 2874 2926
0 2874 2973
0 2874 3016
0 2874 3055
0 2874 3092
0 2926 0
0 2926 1414
0 2926 1818
0 2926 2073
0 2926 2250
0 2926 2389
0 2926 2503
0 2926 2599
0 2926 2681
0 2926 2753
0 2926 2817
0 2926 2874
0 2926 2926
0 2926 2973
0 2926 3016
0 2926 3055
0 2926 3092
0 2973 0
0 2973 1414
0 2973 1818
0 2973 2073
0 2973 2250
0 2973 2389
0 2973 2503
0 2973 2599
0 2973 2681
0 2973 2753
0 2973 2817
0 2973 2874
0 2973 2926
0 2973 2973
0 2973 3016
0 2973 3055
0 2973 3092
0 3016 0
0 3016 1414
0 3016 1818
0 3016 2073
0 3016 2250
0 3016 2389
0 3016 2503
0 3016 2599
0 3016 2681
0 3016 2753
0 3016 2817
0 3016 2874
0 3016 2926
0 3016 2973
0 3016 3016
0 3016 3055
0 3016 3092
0 3055 0
0 3055 1414
0 3055 1818
0 3055 2073
0 3055 2250
0 3055 2389
0 3055 2503
0 3055 2599
0 3055 2681
0 3055 2753
0 3055 2817
0 3055 2874
0 3055 2926
0 3055 2973
0 3055 3016
0 3055 3055
0 3055 3092
0 3092 0
0 3092 1414
0 3092 1818
0 3092 2073
0 3092 2250
0 3092 2389
0 3092 2503
0 3092 2599
0 3092 2681
0 3092 2753
0 3092 2817
0 3092 2874
0 3092 2926
0 3092 2973
0 3092 3016
0 3092 3055
0 3092 3092
1414 0 0
1414 0 1414
1414 0 1818
1414 0 2073
1414 0 2250
1414 0 2389
1414 0 2503
1414 0 2599
1414 0 2681
1414 0 2753
1414 0 2817
1414 0 2874
1414 0 2926
1414 0 2973
1414 0 3016
1414 0 3055
1414 0 3092
1414 1414 0
1414 1414 1414
1414 1414 1818
1414 1414 2073
1414 1414 2250
1414 1414 2389
1414 1414 2503
1414 1414 2599
1414 1414 2681
1414 1414 2753
1414 1414 2817
1414 1414 2874
1414 1414 2926
1414 1414 2973
1414 1414 3016
1414 1414 3055
1414 1414 3092
1414 1818 0
1414 1818 1414
1414 1818 1818
1414 1818 2073
1414 1818 2250
1414 1818 2389
1414 1818 2503
1414 1818 2599
1414 1818 2681
1414 1818 2753
1414 1818 2817
1414 1818 2874
1414 1818 2926
1414 1818 2973
1414 1818 3016
1414 1818 3055
1414 1818 3092
1414 2073 0
1414 2073 1414
1414 2073 1818
1414 2073 2073
1414 2073 2250
1414 2073 2389
1414 2073 2503
1414 2073 2599
1414 2073 2681
1414 2073 2753
1414 2073 2817
1414 2073 2874
1414 2073 2926
1414 2073 2973
1414 2073 3016
1414 2073 3055
1414 2073 3092
1414 2250 0
1414 2250 1414
1414 2250 1818
1414 2250 2073
1414 2250 2250
1414 2250 2389
1414 2250 2503
1414 2250 2599
1414 2250 2681
1414 2250 2753
1414 2250 2817
1414 2250 2874
1414 2250 2926
1414 2250 2973
1414 2250 3016
1414 2250 3055
1414 2250 3092
1414 2389 0
1414 2389 1414
1414 2389 1818
1414 2389 2073
1414 2389 2250
1414 2389 2389
1414 2389 2503
1414 2389 2599
1414 2389 2681
1414 2389 2753
1414 2389 2817
1414 2389 2874
1414 2389 2926
1414 2389 2973
1414 2389 3016
1414 2389 3055
1414 2389 3092
1414 2503 0
1414 2503 1414
1414 2503 1818
1414 2503 2073
1414 2503 2250
1414 2503 2389
1414 2503 2503
1414 2503 2599
1414 2503 2681
1414 2503 2753
1414 2503 2817
1414 2503 2874
1414 2503 2926
1414 2503 2973
1414 2503 3016
1414 2503 3055
1414 2503 3092
1414 2599 0
1414 2599 1414
1414 2599 1818
1414 2599 2073
1414 2599 2250
1414 2599 2389
1414 2599 2503
1414 2599 2599
1414 2599 2681
1414 2599 2753
1414 2599 2817
1414 2599 2874
1414 2599 2926
1414 2599 2973
1414 2599 3016
1414 2599 3055
1414 2599 3092
1414 2681 0
1414 2681 1414
1414 2681 1818
1414 2681 2073
1414 2681 2250
1414 2681 2389
1414 2681 2503
1414 2681 2599
1414 2681 2681
1414 2681 2753
1414 2681 2817
1414 2681 2874
1414 2681 2926
1414 2681 2973
1414 2681 3016
1414 2681 3055
1414 2681 3092
1414 2753 0
1414 2753 1414
1414 2753 1818
1414 2753 2073
1414 2753 2250
1414 2753 2389
1414 2753 2503
1414 2753 2599
1414 2753 2681
1414 2753 2753
1414 2753 2817
1414 2753 2874
1414 2753 2926
1414 2753 2973
1414 2753 3016
1414 2753 3055
1414 2753 3092
1414 2817 0
1414 2817 1414
1414 2817 1818
1414 2817 2073
1414 2817 2250
1414 2817 2389
1414 2817 2503
1414 2817 2599
1414 2817 2681
1414 2817 2753
1414 2817 2817
1414 2817 2874
1414 2817 2926
1414 2817 2973
1414 2817 3016
1414 2817 3055
1414 2817 3092
1414 2874 0
1414 2874 1414
1414 2874 1818
1414 2874 2073
1414 2874 2250
1414 2874 2389
1414 2874 2503
1414 2874 2599
1414 2874 2681
1414 2874 2753
1414 2874 2817
1414 2874 2874
1414 2874 2926
1414 2874 2973
1414 2874 3016
1414 2874 3055
1414 2874 3092
1414 2926 0
1414 2926 1414
1414 2926 1818
1414 2926 2073
1414 2926 2250
1414 2926 2389
1414 2926 2503
1414 2926 2599
1414 2926 2681
1414 2926 2753
1414 2926 2817
1414 2926 2874
1414 2926 2926
1414 2926 2973
1414 2926 3016
1414 2926 3055
1414 2926 3092
1414 2973 0
1414 2973 1414
1414 2973 1818
1414 2973 2073
1414 2973 2250
1414 2973 2389
1414 2973 2503
1414 2973 2599
1414 2973 2681
1414 2973 2753
1414 2973 2817
1414 2973 2874
1414 2973 2926
1414 2973 2973
1414 2973 3016
1414 2973 3055
1414 2973 3092
1414 3016 0
1414 3016 1414
1414 3016 1818
1414 3016 2073
1414 3016 2250
1414 3016 2389
1414 3016 2503
1414 3016 2599
1414 3016 2681
1414 3016 2753
1414 3016 2817
1414 3016 2874
1414 3016 2926
1414 3016 2973
1414 3016 3016
1414 3016 3055
1414 3016 3092
1414 3055 0
1414 3055 1414
1414 3055 1818
1414 3055 2073
1414 3055 2250
1414 3055 2389
1414 3055 2503
1414 3055 2599
1414 3055 2681
1414 3055 2753
1414 3055 2817
1414 3055 2874
1414 3055 2926
1414 3055 2973
1414 3055 3016
1414 3055 3055
1414 3055 3092
1414 3092 0
1414 3092 1414
1414 3092 1818
1414 3092 2073
1414 3092 2250
1414 3092 2389
1414 3092 2503
1414 3092 2599
1414 3092 2681
1414 3092 2753
1414 3092 2817
1414 3092 2874
1414 3092 2926
1414 3092 2973
1414 3092 3016
1414 3092 3055
1414 3092 3092
1818 0 0
1818 0 1414
1818 0 1818
1818 0 2073
1818 0 2250
1818 0 2389
1818 0 2503
1818 0 2599
1818 0 2681
1818 0 2753
1818 0 2817
1818 0 2874
1818 0 2926
1818 0 2973
1818 0 3016
1818 0 3055
1818 0 3092
1818 1414 0
1818 1414 1414
1818 1414 1818
1818 1414 2073
1818 1414 2250
1818 1414 2389
1818 1414 2503
1818 1414 2599
1818 1414 2681
1818 1414 2753
1818 1414 2817
1818 1414 2874
1818 1414 2926
1818 1414 2973
1818 1414 3016
1818 1414 3055
1818 1414 3092
1818 1818 0
1818 1818 1414
1818 1818 1818
1818 1818 2073
1818 1818 2250
1818 1818 2389
1818 1818 2503
1818 1818 2599
1818 1818 2681
1818 1818 2753
1818 1818 2817
1818 1818 2874
1818 1818 2926
1818 1818 2973
1818 1818 3016
1818 1818 3055
1818 1818 3092
1818 2073 0
1818 2073 1414
1818 2073 1818
1818 2073 2073
1818 2073 2250
1818 2073 2389
1818 2073 2503
1818 2073 2599
1818 2073 2681
1818 2073 2753
1818 2073 2817
1818 2073 2874
1818 2073 2926
1818 2073 2973
1818 2073 3016
1818 2073 3055
1818 2073 3092
1818 2250 0
1818 2250 1414
1818 2250 1818
1818 2250 2073
1818 2250 2250
1818 2250 2389
1818 2250 2503
1818 2250 2599
1818 2250 2681
1818 2250 2753
1818 2250 2817
1818 2250 2874
1818 2250 2926
1818 2250 2973
1818 2250 3016
1818 2250 3055
1818 2250 3092
1818 2389 0
1818 2389 1414
1818 2389 1818
1818 2389 2073
1818 2389 2250
1818 2389 2389
1818 2389 2503
1818 2389 2599
1818 2389 2681
1818 2389 2753
1818 2389 2817
1818 2389 2874
1818 2389 2926
1818 2389 2973
1818 2389 3016
1818 2389 3055
1818 2389 3092
1818 2503 0
1818 2503 1414
1818 2503 1818
1818 2503 2073
1818 2503 2250
1818 2503 2389
1818 2503 2503
1818 2503 2599
1818 2503 2681
1818 2503 2753
1818 2503 2817
1818 2503 2874
1818 2503 2926
1818 2503 2973
1818 2503 3016
1818 2503 3055
1818 2503 3092
1818 2599 0
1818 2599 1414
1818 2599 1818
1818 2599 2073
1818 2599 2250
1818 2599 2389
1818 2599 2503
1818 2599 2599
1818 2599 2681
1818 2599 2753
1818 2599 2817
1818 2599 2874
1818 2599 2926
1818 2599 2973
1818 2599 3016
1818 2599 3055
1818 2599 3092
1818 2681 0
1818 2681 1414
1818 2681 1818
1818 2681 2073
1818 2681 2250
1818 2681 2389
1818 2681 2503
1818 2681 2599
1818 2681 2681
1818 2681 2753
1818 2681 2817
1818 2681 2874
1818 2681 2926
1818 2681 2973
1818 2681 3016
1818 2681 3055
1818 2681 3092
1818 2753 0
1818 2753 1414
1818 2753 1818
1818 2753 2073
1818 2753 2250
1818 2753 2389
1818 2753 2503
1818 2753 2599
1818 2753 2681
1818 2753 2753
1818 2753 2817
1818 2753 2874
1818 2753 2926
1818 2753 2973
1818 2753 3016
1818 2753 3055
1818 2753 3092
1818 2817 0
1818 2817 1414
1818 2817 1818
1818 2817 2073
1818 2817 2250
1818 2817 2389
1818 2817 2503
1818 2817 2599
1818 2817 2681
1818 2817 2753
1818 2817 2817
1818 2817 2874
1818 2817 2926
1818 2817 2973
1818 2817 3016
1818 2817 3055
1818 2817 3092
1818 2874 0
1818 2874 1414
1818 2874 1818
1818 2874 2073
1818 2874 2250
1818 2874 2389
1818 2874 2503
1818 2874 2599
1818 2874 2681
1818 2874 2753
1818 2874 2817
1818 2874 2874
1818 2874 2926
1818 2874 2973
1818 2874 3016
1818 2874 3055
1818 2874 3092
1818 2926 0
1818 2926 1414
1818 2926 1818
1818 2926 2073
1818 2926 2250
1818 2926 2389
1818 2926 2503
1818 2926 2599
1818 2926 2681
1818 2926 2753
1818 2926 2817
1818 2926 2874
1818 2926 2926
1818 2926 2973
1818 2926 3016
1818 2926 3055
1818 2926 3092
1818 2973 0
1818 2973 1414
1818 2973 1818
1818 2973 2073
1818 2973 2250
1818 2973 2389
1818 2973 2503
1818 2973 2599
1818 2973 2681
1818 2973 2753
1818 2973 2817
1818 2973 2874
1818 2973 2926
1818 2973 2973
1818 2973 3016
1818 2973 3055
1818 2973 3092
1818 3016 0
1818 3016 1414
1818 3016 1818
1818 3016 2073
1818 3016 2250
1818 3016 2389
1818 3016 2503
1818 3016 2599
1818 3016 2681
1818 3016 2753
1818 3016 2817
1818 3016 2874
1818 3016 2926
1818 3016 2973
1818 3016 3016
1818 3016 3055
1818 3016 3092
1818 3055 0
1818 3055 1414
1818 3055 1818
1818 3055 2073
1818 3055 2250
1818 3055 2389
1818 3055 2503
1818 3055 2599
1818 3055 2681
1818 3055 2753
1818 3055 2817
1818 3055 2874
1818 3055 2926
1818 3055 2973
1818 3055 3016
1818 3055 3055
1818 3055 3092
1818 3092 0
1818 3092 1414
1818 3092 1818
1818 3092 2073
1818 3092 2250
1818 3092 2389
1818 3092 2503
1818 3092 2599
1818 3092 2681
1818 3092 2753
1818 3092 2817
1818 3092 2874
1818 3092 2926
1818 3092 2973
1818 3092 3016
1818 3092 3055
1818 3092 3092
2073 0 0
2073 0 1414
2073 0 1818
2073 0 2073
2073 0 2250
2073 0 2389
2073 0 2503
2073 0 2599
2073 0 2681
2073 0 2753
2073 0 2817
2073 0 2874
2073 0 2926
2073 0 2973
2073 0 3016
2073 0 3055
2073 0 3092
2073 1414 0
2073 1414 1414
2073 1414 1818
2073 1414 2073
2073 1414 2250
2073 1414 2389
2073 1414 2503
2073 1414 2599
2073 1414 2681
2073 1414 2753
2073 1414 2817
2073 1414 2874
2073 1414 2926
2073 1414 2973
2073 1414 3016
2073 1414 3055
