src/resources/luts/linear_to_filmic-sRGB-MediumHigh.3dl
0 64 128 192 256 320 384 448 512 575 639 703 767 831 895 959 1023
0 0 0
0 0 1153
0 0 1718
0 0 2086
0 0 2349
0 0 2549
0 0 2708
0 0 2836
0 0 2943
0 0 3033
0 0 3111
0 0 3178
0 0 3237
0 0 3289
0 0 3335
0 0 3377
0 0 3415
0 1153 0
0 1153 1153
0 1153 1718
0 1153 2086
0 1153 2349
0 1153 2549
0 1153 2708
0 1153 2836
0 1153 2943
0 1153 3033
0 1153 3111
0 1153 3178
0 1153 3237
0 1153 3289
0 1153 3335
0 1153 3377
0 1153 3415
0 1718 0
0 1718 1153
0 1718 1718
0 1718 2086
0 1718 2349
0 1718 2549
0 1718 2708
0 1718 2836
0 1718 2943
0 1718 3033
0 1718 3111
0 1718 3178
0 1718 3237
0 1718 3289
0 1718 3335
0 1718 3377
0 1718 3415
0 2086 0
0 2086 1153
0 2086 1718
0 2086 2086
0 2086 2349
0 2086 2549
0 2086 2708
0 2086 2836
0 2086 2943
0 2086 3033
0 2086 3111
0 2086 3178
0 2086 3237
0 2086 3289
0 2086 3335
0 2086 3377
0 2086 3415
0 2349 0
0 2349 1153
0 2349 1718
0 2349 2086
0 2349 2349
0 2349 2549
0 2349 2708
0 2349 2836
0 2349 2943
0 2349 3033
0 2349 3111
0 2349 3178
0 2349 3237
0 2349 3289
0 2349 3335
0 2349 3377
0 2349 3415
0 2549 0
0 2549 1153
0 2549 1718
0 2549 2086
0 2549 2349
0 2549 2549
0 2549 2708
0 2549 2836
0 2549 2943
0 2549 3033
0 2549 3111
0 2549 3178
0 2549 3237
0 2549 3289
0 2549 3335
0 2549 3377
0 2549 3415
0 2708 0
0 2708 1153
0 2708 1718
0 2708 2086
0 2708 2349
0 2708 2549
0 2708 2708
0 2708 2836
0 2708 2943
0 2708 3033
0 2708 3111
0 2708 3178
0 2708 3237
0 2708 3289
0 2708 3335
0 2708 3377
0 2708 3415
0 2836 0
0 2836 1153
0 2836 1718
0 2836 2086
0 2836 2349
0 2836 2549
0 2836 2708
0 2836 2836
0 2836 2943
0 2836 3033
0 2836 3111
0 2836 3178
0 2836 3237
0 2836 3289
0 2836 3335
0 2836 3377
0 2836 3415
0 2943 0
0 2943 1153
0 2943 1718
0 2943 2086
0 2943 2349
0 2943 2549
0 2943 2708
0 2943 2836
0 2943 2943
0 2943 3033
0 2943 3111
0 2943 3178
0 2943 3237
0 2943 3289
0 2943 3335
0 2943 3377
0 2943 3415
0 3033 0
0 3033 1153
0 3033 1718
0 3033 2086
0 3033 2349
0 3033 2549
0 3033 2708
0 3033 2836
0 3033 2943
0 3033 3033
0 3033 3111
0 3033 3178
0 3033 3237
0 3033 3289
0 3033 3335
0 3033 3377
0 3033 3415
0 3111 0
0 3111 1153
0 3111 1718
0 3111 2086
0 3111 2349
0 3111 2549
0 3111 2708
0 3111 2836
0 3111 2943
0 3111 3033
0 3111 3111
0 3111 3178
0 3111 3237
0 3111 3289
0 3111 3335
0 3111 3377
0 3111 3415
0 3178 0
0 3178 1153
0 3178 1718
0 3178 2086
0 3178 2349
0 3178 2549
0 3178 2708
0 3178 2836
0 3178 2943
0 3178 3033
0 3178 3111
0 3178 3178
0 3178 3237
0 3178 3289
0 3178 3335
0 3178 3377
0 3178 3415
0 3237 0
0 3237 1153
0 3237 1718
0 3237 2086
0 3237 2349
0 3237 2549
0 3237 2708
0 3237 2836
0 3237 2943
0 3237 3033
0 3237 3111
0 3237 3178
0 3237 3237
0 3237 3289
0 3237 3335
0 3237 3377
0 3237 3415
0 3289 0
0 3289 1153
0 3289 1718
0 3289 2086
0 3289 2349
0 3289 2549
0 3289 2708
0 3289 2836
0 3289 2943
0 3289 3033
0 3289 3111
0 3289 3178
0 3289 3237
0 3289 3289
0 3289 3335
0 3289 3377
0 3289 3415
0 3335 0
0 3335 1153
0 3335 1718
0 3335 2086
0 3335 2349
0 3335 2549
0 3335 2708
0 3335 2836
0 3335 2943
0 3335 3033
0 3335 3111
0 3335 3178
0 3335 3237
0 3335 3289
0 3335 3335
0 3335 3377
0 3335 3415
0 3377 0
0 3377 1153
0 3377 1718
0 3377 2086
0 3377 2349
0 3377 2549
0 3377 2708
0 3377 2836
0 3377 2943
0 3377 3033
0 3377 3111
0 3377 3178
0 3377 3237
0 3377 3289
0 3377 3335
0 3377 3377
0 3377 3415
0 3415 0
0 3415 1153
0 3415 1718
0 3415 2086
0 3415 2349
0 3415 2549
0 3415 2708
0 3415 2836
0 3415 2943
0 3415 3033
0 3415 3111
0 3415 3178
0 3415 3237
0 3415 3289
0 3415 3335
0 3415 3377
0 3415 3415
1153 0 0
1153 0 1153
1153 0 1718
1153 0 2086
1153 0 2349
1153 0 2549
1153 0 2708
1153 0 2836
1153 0 2943
1153 0 3033
1153 0 3111
1153 0 3178
1153 0 3237
1153 0 3289
1153 0 3335
1153 0 3377
1153 0 3415
1153 1153 0
1153 1153 1153
1153 1153 1718
1153 1153 2086
1153 1153 2349
1153 1153 2549
1153 1153 2708
1153 1153 2836
1153 1153 2943
1153 1153 3033
1153 1153 3111
1153 1153 3178
1153 1153 3237
1153 1153 3289
1153 1153 3335
1153 1153 3377
1153 1153 3415
1153 1718 0
1153 1718 1153
1153 1718 1718
1153 1718 2086
1153 1718 2349
1153 1718 2549
1153 1718 2708
1153 1718 2836
1153 1718 2943
1153 1718 3033
1153 1718 3111
1153 1718 3178
1153 1718 3237
1153 1718 3289
1153 1718 3335
1153 1718 3377
1153 1718 3415
1153 2086 0
1153 2086 1153
1153 2086 1718
1153 2086 2086
1153 2086 2349
1153 2086 2549
1153 2086 2708
1153 2086 2836
1153 2086 2943
1153 2086 3033
1153 2086 3111
1153 2086 3178
1153 2086 3237
1153 2086 3289
1153 2086 3335
1153 2086 3377
1153 2086 3415
1153 2349 0
1153 2349 1153
1153 2349 1718
1153 2349 2086
1153 2349 2349
1153 2349 2549
1153 2349 2708
1153 2349 2836
1153 2349 2943
1153 2349 3033
1153 2349 3111
1153 2349 3178
1153 2349 3237
1153 2349 3289
1153 2349 3335
1153 2349 3377
1153 2349 3415
1153 2549 0
1153 2549 1153
1153 2549 1718
1153 2549 2086
1153 2549 2349
1153 2549 2549
1153 2549 2708
1153 2549 2836
1153 2549 2943
1153 2549 3033
1153 2549 3111
1153 2549 3178
1153 2549 3237
1153 2549 3289
1153 2549 3335
1153 2549 3377
1153 2549 3415
1153 2708 0
1153 2708 1153
1153 2708 1718
1153 2708 2086
1153 2708 2349
1153 2708 2549
1153 2708 2708
1153 2708 2836
1153 2708 2943
1153 2708 3033
1153 2708 3111
1153 2708 3178
1153 2708 3237
1153 2708 3289
1153 2708 3335
1153 2708 3377
1153 2708 3415
1153 2836 0
1153 2836 1153
1153 2836 1718
1153 2836 2086
1153 2836 2349
1153 2836 2549
1153 2836 2708
1153 2836 2836
1153 2836 2943
1153 2836 3033
1153 2836 3111
1153 2836 3178
1153 2836 3237
1153 2836 3289
1153 2836 3335
1153 2836 3377
1153 2836 3415
1153 2943 0
1153 2943 1153
1153 2943 1718
1153 2943 2086
1153 2943 2349
1153 2943 2549
1153 2943 2708
1153 2943 2836
1153 2943 2943
1153 2943 3033
1153 2943 3111
1153 2943 3178
1153 2943 3237
1153 2943 3289
1153 2943 3335
1153 2943 3377
1153 2943 3415
1153 3033 0
1153 3033 1153
1153 3033 1718
1153 3033 2086
1153 3033 2349
1153 3033 2549
1153 3033 2708
1153 3033 2836
1153 3033 2943
1153 3033 3033
1153 3033 3111
1153 3033 3178
1153 3033 3237
1153 3033 3289
1153 3033 3335
1153 3033 3377
1153 3033 3415
1153 3111 0
1153 3111 1153
1153 3111 1718
1153 3111 2086
1153 3111 2349
1153 3111 2549
1153 3111 2708
1153 3111 2836
1153 3111 2943
1153 3111 3033
1153 3111 3111
1153 3111 3178
1153 3111 3237
1153 3111 3289
1153 3111 3335
1153 3111 3377
1153 3111 3415
1153 3178 0
1153 3178 1153
1153 3178 1718
1153 3178 2086
1153 3178 2349
1153 3178 2549
1153 3178 2708
1153 3178 2836
1153 3178 2943
1153 3178 3033
1153 3178 3111
1153 3178 3178
1153 3178 3237
1153 3178 3289
1153 3178 3335
1153 3178 3377
1153 3178 3415
1153 3237 0
1153 3237 1153
1153 3237 1718
1153 3237 2086
1153 3237 2349
1153 3237 2549
1153 3237 2708
1153 3237 2836
1153 3237 2943
1153 3237 3033
1153 3237 3111
1153 3237 3178
1153 3237 3237
1153 3237 3289
1153 3237 3335
1153 3237 3377
1153 3237 3415
1153 3289 0
1153 3289 1153
1153 3289 1718
1153 3289 2086
1153 3289 2349
1153 3289 2549
1153 3289 2708
1153 3289 2836
1153 3289 2943
1153 3289 3033
1153 3289 3111
1153 3289 3178
1153 3289 3237
1153 3289 3289
1153 3289 3335
1153 3289 3377
1153 3289 3415
1153 3335 0
1153 3335 1153
1153 3335 1718
1153 3335 2086
1153 3335 2349
1153 3335 2549
1153 3335 2708
1153 3335 2836
1153 3335 2943
1153 3335 3033
1153 3335 3111
1153 3335 3178
1153 3335 3237
1153 3335 3289
1153 3335 3335
1153 3335 3377
1153 3335 3415
1153 3377 0
1153 3377 1153
1153 3377 1718
1153 3377 2086
1153 3377 2349
1153 3377 2549
1153 3377 2708
1153 3377 2836
1153 3377 2943
1153 3377 3033
1153 3377 3111
1153 3377 3178
1153 3377 3237
1153 3377 3289
1153 3377 3335
1153 3377 3377
1153 3377 3415
1153 3415 0
1153 3415 1153
1153 3415 1718
1153 3415 2086
1153 3415 2349
1153 3415 2549
1153 3415 2708
1153 3415 2836
1153 3415 2943
1153 3415 3033
1153 3415 3111
1153 3415 3178
1153 3415 3237
1153 3415 3289
1153 3415 3335
1153 3415 3377
1153 3415 3415
1718 0 0
1718 0 1153
1718 0 1718
1718 0 2086
1718 0 2349
1718 0 2549
1718 0 2708
1718 0 2836
1718 0 2943
1718 0 3033
1718 0 3111
1718 0 3178
1718 0 3237
1718 0 3289
1718 0 3335
1718 0 3377
1718 0 3415
1718 1153 0
1718 1153 1153
1718 1153 1718
1718 1153 2086
1718 1153 2349
1718 1153 2549
1718 1153 2708
1718 1153 2836
1718 1153 2943
1718 1153 3033
1718 1153 3111
1718 1153 3178
1718 1153 3237
1718 1153 3289
1718 1153 3335
1718 1153 3377
1718 1153 3415
1718 1718 0
1718 1718 1153
1718 1718 1718
1718 1718 2086
1718 1718 2349
1718 1718 2549
1718 1718 2708
1718 1718 2836
1718 1718 2943
1718 1718 3033
1718 1718 3111
1718 1718 3178
1718 1718 3237
1718 1718 3289
1718 1718 3335
1718 1718 3377
1718 1718 3415
1718 2086 0
1718 2086 1153
1718 2086 1718
1718 2086 2086
1718 2086 2349
1718 2086 2549
1718 2086 2708
1718 2086 2836
1718 2086 2943
1718 2086 3033
1718 2086 3111
1718 2086 3178
1718 2086 3237
1718 2086 3289
1718 2086 3335
1718 2086 3377
1718 2086 3415
1718 2349 0
1718 2349 1153
1718 2349 1718
1718 2349 2086
1718 2349 2349
1718 2349 2549
1718 2349 2708
1718 2349 2836
1718 2349 2943
1718 2349 3033
1718 2349 3111
1718 2349 3178
1718 2349 3237
1718 2349 3289
1718 2349 3335
1718 2349 3377
1718 2349 3415
1718 2549 0
1718 2549 1153
1718 2549 1718
1718 2549 2086
1718 2549 2349
1718 2549 2549
1718 2549 2708
1718 2549 2836
1718 2549 2943
1718 2549 3033
1718 2549 3111
1718 2549 3178
1718 2549 3237
1718 2549 3289
1718 2549 3335
1718 2549 3377
1718 2549 3415
1718 2708 0
1718 2708 1153
1718 2708 1718
1718 2708 2086
1718 2708 2349
1718 2708 2549
1718 2708 2708
1718 2708 2836
1718 2708 2943
1718 2708 3033
1718 2708 3111
1718 2708 3178
1718 2708 3237
1718 2708 3289
1718 2708 3335
1718 2708 3377
1718 2708 3415
1718 2836 0
1718 2836 1153
1718 2836 1718
1718 2836 2086
1718 2836 2349
1718 2836 2549
1718 2836 2708
1718 2836 2836
1718 2836 2943
1718 2836 3033
1718 2836 3111
1718 2836 3178
1718 2836 3237
1718 2836 3289
1718 2836 3335
1718 2836 3377
1718 2836 3415
1718 2943 0
1718 2943 1153
1718 2943 1718
1718 2943 2086
1718 2943 2349
1718 2943 2549
1718 2943 2708
1718 2943 2836
1718 2943 2943
1718 2943 3033
1718 2943 3111
1718 2943 3178
1718 2943 3237
1718 2943 3289
1718 2943 3335
1718 2943 3377
1718 2943 3415
1718 3033 0
1718 3033 1153
1718 3033 1718
1718 3033 2086
1718 3033 2349
1718 3033 2549
1718 3033 2708
1718 3033 2836
1718 3033 2943
1718 3033 3033
1718 3033 3111
1718 3033 3178
1718 3033 3237
1718 3033 3289
1718 3033 3335
1718 3033 3377
1718 3033 3415
1718 3111 0
1718 3111 1153
1718 3111 1718
1718 3111 2086
1718 3111 2349
1718 3111 2549
1718 3111 2708
1718 3111 2836
1718 3111 2943
1718 3111 3033
1718 3111 3111
1718 3111 3178
1718 3111 3237
1718 3111 3289
1718 3111 3335
1718 3111 3377
1718 3111 3415
1718 3178 0
1718 3178 1153
1718 3178 1718
1718 3178 2086
1718 3178 2349
1718 3178 2549
1718 3178 2708
1718 3178 2836
1718 3178 2943
1718 3178 3033
1718 3178 3111
1718 3178 3178
1718 3178 3237
1718 3178 3289
1718 3178 3335
1718 3178 3377
1718 3178 3415
1718 3237 0
1718 3237 1153
1718 3237 1718
1718 3237 2086
1718 3237 2349
1718 3237 2549
1718 3237 2708
1718 3237 2836
1718 3237 2943
1718 3237 3033
1718 3237 3111
1718 3237 3178
1718 3237 3237
1718 3237 3289
1718 3237 3335
1718 3237 3377
1718 3237 3415
1718 3289 0
1718 3289 1153
1718 3289 1718
1718 3289 2086
1718 3289 2349
1718 3289 2549
1718 3289 2708
1718 3289 2836
1718 3289 2943
1718 3289 3033
1718 3289 3111
1718 3289 3178
1718 3289 3237
1718 3289 3289
1718 3289 3335
1718 3289 3377
1718 3289 3415
1718 3335 0
1718 3335 1153
1718 3335 1718
1718 3335 2086
1718 3335 2349
1718 3335 2549
1718 3335 2708
1718 3335 2836
1718 3335 2943
1718 3335 3033
1718 3335 3111
1718 3335 3178
1718 3335 3237
1718 3335 3289
1718 3335 3335
1718 3335 3377
1718 3335 3415
1718 3377 0
1718 3377 1153
1718 3377 1718
1718 3377 2086
1718 3377 2349
1718 3377 2549
1718 3377 2708
1718 3377 2836
1718 3377 2943
1718 3377 3033
1718 3377 3111
1718 3377 3178
1718 3377 3237
1718 3377 3289
1718 3377 3335
1718 3377 3377
1718 3377 3415
1718 3415 0
1718 3415 1153
1718 3415 1718
1718 3415 2086
1718 3415 2349
1718 3415 2549
1718 3415 2708
1718 3415 2836
1718 3415 2943
1718 3415 3033
1718 3415 3111
1718 3415 3178
1718 3415 3237
1718 3415 3289
1718 3415 3335
1718 3415 3377
1718 3415 3415
2086 0 0
2086 0 1153
2086 0 1718
2086 0 2086
2086 0 2349
2086 0 2549
2086 0 2708
2086 0 2836
2086 0 2943
2086 0 3033
2086 0 3111
2086 0 3178
2086 0 3237
2086 0 3289
2086 0 3335
2086 0 3377
2086 0 3415
2086 1153 0
2086 1153 1153
2086 1153 1718
2086 1153 2086
2086 1153 2349
2086 1153 2549
2086 1153 2708
2086 1153 2836
2086 1153 2943
2086 1153 3033
2086 1153 3111
2086 1153 3178
2086 1153 3237
2086 1153 3289
2086 1153 3335
2086 1153 3377
