src/resources/luts/linear_to_filmic-sRGB-VeryHigh.3dl
0 256 512 767 1023
0 0 0
0 0 2449
0 0 3174
0 0 3481
0 0 3644
0 2449 0
0 2449 2449
0 2449 3174
0 2449 3481
0 2449 3644
0 3174 0
0 3174 2449
0 3174 3174
0 3174 3481
0 3174 3644
0 3481 0
0 3481 2449
0 3481 3174
0 3481 3481
0 3481 3644
0 3644 0
0 3644 2449
0 3644 3174
0 3644 3481
0 3644 3644
2449 0 0
2449 0 2449
2449 0 3174
2449 0 3481
2449 0 3644
2449 2449 0
2449 2449 2449
2449 2449 3174
2449 2449 3481
2449 2449 3644
2449 3174 0
2449 3174 2449
2449 3174 3174
2449 3174 3481
2449 3174 3644
2449 3481 0
2449 3481 2449
2449 3481 3174
2449 3481 3481
2449 3481 3644
2449 3644 0
2449 3644 2449
2449 3644 3174
2449 3644 3481
2449 3644 3644
3174 0 0
3174 0 2449
3174 0 3174
3174 0 3481
3174 0 3644
3174 2449 0
3174 2449 2449
3174 2449 3174
3174 2449 3481
3174 2449 3644
3174 3174 0
3174 3174 2449
3174 3174 3174
3174 3174 3481
3174 3174 3644
3174 3481 0
3174 3481 2449
3174 3481 3174
3174 3481 3481
3174 3481 3644
3174 3644 0
3174 3644 2449
3174 3644 3174
3174 3644 3481
3174 3644 3644
3481 0 0
3481 0 2449
3481 0 3174
3481 0 3481
3481 0 3644
3481 2449 0
3481 2449 2449
3481 2449 3174
3481 2449 3481
3481 2449 3644
3481 3174 0
3481 3174 2449
3481 3174 3174
3481 3174 3481
3481 3174 3644
3481 3481 0
3481 3481 2449
3481 3481 3174
3481 3481 3481
3481 3481 3644
3481 3644 0
3481 3644 2449
3481 3644 3174
3481 3644 3481
3481 3644 3644
3644 0 0
3644 0 2449
3644 0 3174
3644 0 3481
3644 0 3644
3644 2449 0
3644 2449 2449
3644 2449 3174
3644 2449 3481
3644 2449 3644
3644 3174 0
3644 3174 2449
3644 3174 3174
3644 3174 3481
3644 3174 3644
3644 3481 0
3644 3481 2449
3644 3481 3174
3644 3481 3481
3644 3481 3644
3644 3644 0
3644 3644 2449
3644 3644 3174
3644 3644 3481
3644 3644 3644
