src/resources/luts/linear-RGB_to_linear-ACES.3dl
0 256 512 767 1023
0 0 0
181 98 895
361 196 1789
542 294 2684
723 392 3578
393 834 111
574 932 1006
754 1030 1901
935 1128 2795
1116 1226 3690
786 1668 223
967 1766 1117
1147 1864 2012
1328 1962 2906
1509 2060 3801
1179 2502 334
1360 2600 1229
1541 2698 2123
1721 2796 3018
1902 2894 3912
1572 3336 445
1753 3434 1340
1934 3532 2234
2114 3630 3129
2295 3728 4024
450 92 18
631 190 912
811 288 1807
992 386 2702
1173 484 3596
843 926 129
1024 1024 1024
1204 1122 1918
1385 1220 2813
1566 1318 3708
1236 1760 240
1417 1858 1135
1597 1956 2030
1778 2054 2924
1959 2152 3819
1629 2594 352
1810 2692 1246
1991 2790 2141
2171 2888 3036
2352 2986 3930
2022 3428 463
2203 3526 1358
2384 3624 2252
2564 3722 3147
2745 3820 4042
900 183 36
1081 281 930
1261 379 1825
1442 477 2719
1623 575 3614
1293 1018 147
1474 1115 1042
1654 1213 1936
1835 1311 2831
2016 1409 3725
1686 1852 258
1867 1950 1153
2048 2047 2048
2228 2145 2942
2409 2243 3837
2079 2686 370
2260 2784 1264
2441 2882 2159
2621 2980 3053
2802 3077 3948
2472 3520 481
2653 3618 1376
2834 3716 2270
3014 3814 3165
3195 3912 4059
1350 275 53
1531 373 948
1711 471 1843
1892 569 2737
2073 667 3632
1743 1109 165
1924 1207 1059
2104 1305 1954
2285 1403 2849
2466 1501 3743
2136 1943 276
2317 2041 1171
2498 2139 2065
2678 2237 2960
2859 2335 3855
2529 2777 387
2710 2875 1282
2891 2973 2177
3071 3071 3071
3252 3169 3966
2922 3611 499
3103 3709 1393
3284 3807 2288
3464 3905 3183
3645 4003 4077
1800 367 71
1981 465 966
2161 563 1861
2342 661 2755
2523 759 3650
2193 1201 183
2374 1299 1077
2555 1397 1972
2735 1495 2866
2916 1593 3761
2586 2035 294
2767 2133 1189
2948 2231 2083
3128 2329 2978
3309 2427 3872
2979 2869 405
3160 2967 1300
3341 3065 2194
3521 3163 3089
3702 3261 3984
3372 3703 517
3553 3801 1411
3734 3899 2306
3914 3997 3200
4095 4095 4095
