src/resources/luts/linear_to_filmic-sRGB-Low.3dl
0 128 256 384 512 639 767 895 1023
0 0 0
0 0 1818
0 0 2250
0 0 2503
0 0 2681
0 0 2817
0 0 2926
0 0 3016
0 0 3092
0 1818 0
0 1818 1818
0 1818 2250
0 1818 2503
0 1818 2681
0 1818 2817
0 1818 2926
0 1818 3016
0 1818 3092
0 2250 0
0 2250 1818
0 2250 2250
0 2250 2503
0 2250 2681
0 2250 2817
0 2250 2926
0 2250 3016
0 2250 3092
0 2503 0
0 2503 1818
0 2503 2250
0 2503 2503
0 2503 2681
0 2503 2817
0 2503 2926
0 2503 3016
0 2503 3092
0 2681 0
0 2681 1818
0 2681 2250
0 2681 2503
0 2681 2681
0 2681 2817
0 2681 2926
0 2681 3016
0 2681 3092
0 2817 0
0 2817 1818
0 2817 2250
0 2817 2503
0 2817 2681
0 2817 2817
0 2817 2926
0 2817 3016
0 2817 3092
0 2926 0
0 2926 1818
0 2926 2250
0 2926 2503
0 2926 2681
0 2926 2817
0 2926 2926
0 2926 3016
0 2926 3092
0 3016 0
0 3016 1818
0 3016 2250
0 3016 2503
0 3016 2681
0 3016 2817
0 3016 2926
0 3016 3016
0 3016 3092
0 3092 0
0 3092 1818
0 3092 2250
0 3092 2503
0 3092 2681
0 3092 2817
0 3092 2926
0 3092 3016
0 3092 3092
1818 0 0
1818 0 1818
1818 0 2250
1818 0 2503
1818 0 2681
1818 0 2817
1818 0 2926
1818 0 3016
1818 0 3092
1818 1818 0
1818 1818 1818
1818 1818 2250
1818 1818 2503
1818 1818 2681
1818 1818 2817
1818 1818 2926
1818 1818 3016
1818 1818 3092
1818 2250 0
1818 2250 1818
1818 2250 2250
1818 2250 2503
1818 2250 2681
1818 2250 2817
1818 2250 2926
1818 2250 3016
1818 2250 3092
1818 2503 0
1818 2503 1818
1818 2503 2250
1818 2503 2503
1818 2503 2681
1818 2503 2817
1818 2503 2926
1818 2503 3016
1818 2503 3092
1818 2681 0
1818 2681 1818
1818 2681 2250
1818 2681 2503
1818 2681 2681
1818 2681 2817
1818 2681 2926
1818 2681 3016
1818 2681 3092
1818 2817 0
1818 2817 1818
1818 2817 2250
1818 2817 2503
1818 2817 2681
1818 2817 2817
1818 2817 2926
1818 2817 3016
1818 2817 3092
1818 2926 0
1818 2926 1818
1818 2926 2250
1818 2926 2503
1818 2926 2681
1818 2926 2817
1818 2926 2926
1818 2926 3016
1818 2926 3092
1818 3016 0
1818 3016 1818
1818 3016 2250
1818 3016 2503
1818 3016 2681
1818 3016 2817
1818 3016 2926
1818 3016 3016
1818 3016 3092
1818 3092 0
1818 3092 1818
1818 3092 2250
1818 3092 2503
1818 3092 2681
1818 3092 2817
1818 3092 2926
1818 3092 3016
1818 3092 3092
2250 0 0
2250 0 1818
2250 0 2250
2250 0 2503
2250 0 2681
2250 0 2817
2250 0 2926
2250 0 3016
2250 0 3092
2250 1818 0
2250 1818 1818
2250 1818 2250
2250 1818 2503
2250 1818 2681
2250 1818 2817
2250 1818 2926
2250 1818 3016
2250 1818 3092
2250 2250 0
2250 2250 1818
2250 2250 2250
2250 2250 2503
2250 2250 2681
2250 2250 2817
2250 2250 2926
2250 2250 3016
2250 2250 3092
2250 2503 0
2250 2503 1818
2250 2503 2250
2250 2503 2503
2250 2503 2681
2250 2503 2817
2250 2503 2926
2250 2503 3016
2250 2503 3092
2250 2681 0
2250 2681 1818
2250 2681 2250
2250 2681 2503
2250 2681 2681
2250 2681 2817
2250 2681 2926
2250 2681 3016
2250 2681 3092
2250 2817 0
2250 2817 1818
2250 2817 2250
2250 2817 2503
2250 2817 2681
2250 2817 2817
2250 2817 2926
2250 2817 3016
2250 2817 3092
2250 2926 0
2250 2926 1818
2250 2926 2250
2250 2926 2503
2250 2926 2681
2250 2926 2817
2250 2926 2926
2250 2926 3016
2250 2926 3092
2250 3016 0
2250 3016 1818
2250 3016 2250
2250 3016 2503
2250 3016 2681
2250 3016 2817
2250 3016 2926
2250 3016 3016
2250 3016 3092
2250 3092 0
2250 3092 1818
2250 3092 2250
2250 3092 2503
2250 3092 2681
2250 3092 2817
2250 3092 2926
2250 3092 3016
2250 3092 3092
2503 0 0
2503 0 1818
2503 0 2250
2503 0 2503
2503 0 2681
2503 0 2817
2503 0 2926
2503 0 3016
2503 0 3092
2503 1818 0
2503 1818 1818
2503 1818 2250
2503 1818 2503
2503 1818 2681
2503 1818 2817
2503 1818 2926
2503 1818 3016
2503 1818 3092
2503 2250 0
2503 2250 1818
2503 2250 2250
2503 2250 2503
2503 2250 2681
2503 2250 2817
2503 2250 2926
2503 2250 3016
2503 2250 3092
2503 2503 0
2503 2503 1818
2503 2503 2250
2503 2503 2503
2503 2503 2681
2503 2503 2817
2503 2503 2926
2503 2503 3016
2503 2503 3092
2503 2681 0
2503 2681 1818
2503 2681 2250
2503 2681 2503
2503 2681 2681
2503 2681 2817
2503 2681 2926
2503 2681 3016
2503 2681 3092
2503 2817 0
2503 2817 1818
2503 2817 2250
2503 2817 2503
2503 2817 2681
2503 2817 2817
2503 2817 2926
2503 2817 3016
2503 2817 3092
2503 2926 0
2503 2926 1818
2503 2926 2250
2503 2926 2503
2503 2926 2681
2503 2926 2817
2503 2926 2926
2503 2926 3016
2503 2926 3092
2503 3016 0
2503 3016 1818
2503 3016 2250
2503 3016 2503
2503 3016 2681
2503 3016 2817
2503 3016 2926
2503 3016 3016
2503 3016 3092
2503 3092 0
2503 3092 1818
2503 3092 2250
2503 3092 2503
2503 3092 2681
2503 3092 2817
2503 3092 2926
2503 3092 3016
2503 3092 3092
2681 0 0
2681 0 1818
2681 0 2250
2681 0 2503
2681 0 2681
2681 0 2817
2681 0 2926
2681 0 3016
2681 0 3092
2681 1818 0
2681 1818 1818
2681 1818 2250
2681 1818 2503
2681 1818 2681
2681 1818 2817
2681 1818 2926
2681 1818 3016
2681 1818 3092
2681 2250 0
2681 2250 1818
2681 2250 2250
2681 2250 2503
2681 2250 2681
2681 2250 2817
2681 2250 2926
2681 2250 3016
2681 2250 3092
2681 2503 0
2681 2503 1818
2681 2503 2250
2681 2503 2503
2681 2503 2681
2681 2503 2817
2681 2503 2926
2681 2503 3016
2681 2503 3092
2681 2681 0
2681 2681 1818
2681 2681 2250
2681 2681 2503
2681 2681 2681
2681 2681 2817
2681 2681 2926
2681 2681 3016
2681 2681 3092
2681 2817 0
2681 2817 1818
2681 2817 2250
2681 2817 2503
2681 2817 2681
2681 2817 2817
2681 2817 2926
2681 2817 3016
2681 2817 3092
2681 2926 0
2681 2926 1818
2681 2926 2250
2681 2926 2503
2681 2926 2681
2681 2926 2817
2681 2926 2926
2681 2926 3016
2681 2926 3092
2681 3016 0
2681 3016 1818
2681 3016 2250
2681 3016 2503
2681 3016 2681
2681 3016 2817
2681 3016 2926
2681 3016 3016
2681 3016 3092
2681 3092 0
2681 3092 1818
2681 3092 2250
2681 3092 2503
2681 3092 2681
2681 3092 2817
2681 3092 2926
2681 3092 3016
2681 3092 3092
2817 0 0
2817 0 1818
2817 0 2250
2817 0 2503
2817 0 2681
2817 0 2817
2817 0 2926
2817 0 3016
2817 0 3092
2817 1818 0
2817 1818 1818
2817 1818 2250
2817 1818 2503
2817 1818 2681
2817 1818 2817
2817 1818 2926
2817 1818 3016
2817 1818 3092
2817 2250 0
2817 2250 1818
2817 2250 2250
2817 2250 2503
2817 2250 2681
2817 2250 2817
2817 2250 2926
2817 2250 3016
2817 2250 3092
2817 2503 0
2817 2503 1818
2817 2503 2250
2817 2503 2503
2817 2503 2681
2817 2503 2817
2817 2503 2926
2817 2503 3016
2817 2503 3092
2817 2681 0
2817 2681 1818
2817 2681 2250
2817 2681 2503
2817 2681 2681
2817 2681 2817
2817 2681 2926
2817 2681 3016
2817 2681 3092
2817 2817 0
2817 2817 1818
2817 2817 2250
2817 2817 2503
2817 2817 2681
2817 2817 2817
2817 2817 2926
2817 2817 3016
2817 2817 3092
2817 2926 0
2817 2926 1818
2817 2926 2250
2817 2926 2503
2817 2926 2681
2817 2926 2817
2817 2926 2926
2817 2926 3016
2817 2926 3092
2817 3016 0
2817 3016 1818
2817 3016 2250
2817 3016 2503
2817 3016 2681
2817 3016 2817
2817 3016 2926
2817 3016 3016
2817 3016 3092
2817 3092 0
2817 3092 1818
2817 3092 2250
2817 3092 2503
2817 3092 2681
2817 3092 2817
2817 3092 2926
2817 3092 3016
2817 3092 3092
2926 0 0
2926 0 1818
2926 0 2250
2926 0 2503
2926 0 2681
2926 0 2817
2926 0 2926
2926 0 3016
2926 0 3092
2926 1818 0
2926 1818 1818
2926 1818 2250
2926 1818 2503
2926 1818 2681
2926 1818 2817
2926 1818 2926
2926 1818 3016
2926 1818 3092
2926 2250 0
2926 2250 1818
2926 2250 2250
2926 2250 2503
2926 2250 2681
2926 2250 2817
2926 2250 2926
2926 2250 3016
2926 2250 3092
2926 2503 0
2926 2503 1818
2926 2503 2250
2926 2503 2503
2926 2503 2681
2926 2503 2817
2926 2503 2926
2926 2503 3016
2926 2503 3092
2926 2681 0
2926 2681 1818
2926 2681 2250
2926 2681 2503
2926 2681 2681
2926 2681 2817
2926 2681 2926
2926 2681 3016
2926 2681 3092
2926 2817 0
2926 2817 1818
2926 2817 2250
2926 2817 2503
2926 2817 2681
2926 2817 2817
2926 2817 2926
2926 2817 3016
2926 2817 3092
2926 2926 0
2926 2926 1818
2926 2926 2250
2926 2926 2503
2926 2926 2681
2926 2926 2817
2926 2926 2926
2926 2926 3016
2926 2926 3092
2926 3016 0
2926 3016 1818
2926 3016 2250
2926 3016 2503
2926 3016 2681
2926 3016 2817
2926 3016 2926
2926 3016 3016
2926 3016 3092
2926 3092 0
2926 3092 1818
2926 3092 2250
2926 3092 2503
2926 3092 2681
2926 3092 2817
2926 3092 2926
2926 3092 3016
2926 3092 3092
3016 0 0
3016 0 1818
3016 0 2250
3016 0 2503
3016 0 2681
3016 0 2817
3016 0 2926
3016 0 3016
3016 0 3092
3016 1818 0
3016 1818 1818
3016 1818 2250
3016 1818 2503
3016 1818 2681
3016 1818 2817
3016 1818 2926
3016 1818 3016
3016 1818 3092
3016 2250 0
3016 2250 1818
3016 2250 2250
3016 2250 2503
3016 2250 2681
3016 2250 2817
3016 2250 2926
3016 2250 3016
3016 2250 3092
3016 2503 0
3016 2503 1818
3016 2503 2250
3016 2503 2503
3016 2503 2681
3016 2503 2817
3016 2503 2926
3016 2503 3016
3016 2503 3092
3016 2681 0
3016 2681 1818
3016 2681 2250
3016 2681 2503
3016 2681 2681
3016 2681 2817
3016 2681 2926
3016 2681 3016
3016 2681 3092
3016 2817 0
3016 2817 1818
3016 2817 2250
3016 2817 2503
3016 2817 2681
3016 2817 2817
3016 2817 2926
3016 2817 3016
3016 2817 3092
3016 2926 0
3016 2926 1818
3016 2926 2250
3016 2926 2503
3016 2926 2681
3016 2926 2817
3016 2926 2926
3016 2926 3016
3016 2926 3092
3016 3016 0
3016 3016 1818
3016 3016 2250
3016 3016 2503
3016 3016 2681
3016 3016 2817
3016 3016 2926
3016 3016 3016
3016 3016 3092
3016 3092 0
3016 3092 1818
3016 3092 2250
3016 3092 2503
3016 3092 2681
3016 3092 2817
3016 3092 2926
3016 3092 3016
3016 3092 3092
3092 0 0
3092 0 1818
3092 0 2250
3092 0 2503
3092 0 2681
3092 0 2817
3092 0 2926
3092 0 3016
3092 0 3092
3092 1818 0
3092 1818 1818
3092 1818 2250
3092 1818 2503
3092 1818 2681
3092 1818 2817
3092 1818 2926
3092 1818 3016
3092 1818 3092
3092 2250 0
3092 2250 1818
3092 2250 2250
3092 2250 2503
3092 2250 2681
3092 2250 2817
3092 2250 2926
3092 2250 3016
3092 2250 3092
3092 2503 0
3092 2503 1818
3092 2503 2250
3092 2503 2503
3092 2503 2681
3092 2503 2817
3092 2503 2926
3092 2503 3016
3092 2503 3092
3092 2681 0
3092 2681 1818
3092 2681 2250
3092 2681 2503
3092 2681 2681
3092 2681 2817
3092 2681 2926
3092 2681 3016
3092 2681 3092
3092 2817 0
3092 2817 1818
3092 2817 2250
3092 2817 2503
3092 2817 2681
3092 2817 2817
3092 2817 2926
3092 2817 3016
3092 2817 3092
3092 2926 0
3092 2926 1818
3092 2926 2250
3092 2926 2503
3092 2926 2681
3092 2926 2817
3092 2926 2926
3092 2926 3016
3092 2926 3092
3092 3016 0
3092 3016 1818
3092 3016 2250
3092 3016 2503
3092 3016 2681
3092 3016 2817
3092 3016 2926
3092 3016 3016
3092 3016 3092
3092 3092 0
3092 3092 1818
3092 3092 2250
3092 3092 2503
3092 3092 2681
3092 3092 2817
3092 3092 2926
3092 3092 3016
3092 3092 3092
