src/resources/luts/linear-RGB_to_linear-ACES.3dl
0 128 256 384 512 639 767 895 1023
0 0 0
90 49 447
181 98 895
271 147 1342
361 196 1789
452 245 2237
542 294 2684
632 343 3131
723 392 3578
197 417 56
287 466 503
377 515 950
468 564 1398
558 613 1845
648 662 2292
739 711 2739
829 760 3187
919 809 3634
393 834 111
483 883 559
574 932 1006
664 981 1453
754 1030 1901
845 1079 2348
935 1128 2795
1025 1177 3242
1116 1226 3690
590 1251 167
680 1300 614
770 1349 1062
861 1398 1509
951 1447 1956
1041 1496 2403
1132 1545 2851
1222 1594 3298
1312 1643 3745
786 1668 223
876 1717 670
967 1766 1117
1057 1815 1565
1147 1864 2012
1238 1913 2459
1328 1962 2906
1419 2011 3354
1509 2060 3801
983 2085 278
1073 2134 726
1163 2183 1173
1254 2232 1620
1344 2281 2068
1434 2330 2515
1525 2379 2962
1615 2428 3409
1705 2477 3857
1179 2502 334
1269 2551 781
1360 2600 1229
1450 2649 1676
1541 2698 2123
1631 2747 2570
1721 2796 3018
1812 2845 3465
1902 2894 3912
1376 2919 390
1466 2968 837
1556 3017 1284
1647 3066 1732
1737 3115 2179
1827 3164 2626
1918 3213 3073
2008 3262 3521
2098 3311 3968
1572 3336 445
1662 3385 893
1753 3434 1340
1843 3483 1787
1934 3532 2234
2024 3581 2682
2114 3630 3129
2205 3679 3576
2295 3728 4024
225 46 9
315 95 456
406 144 904
496 193 1351
586 242 1798
677 291 2245
767 340 2693
857 389 3140
948 438 3587
422 463 65
512 512 512
602 561 959
693 610 1406
783 659 1854
873 708 2301
964 757 2748
1054 806 3196
1144 855 3643
618 880 120
708 929 568
799 978 1015
889 1027 1462
979 1076 1909
1070 1125 2357
1160 1174 2804
1251 1223 3251
1341 1272 3699
815 1297 176
905 1346 623
995 1395 1071
1086 1444 1518
1176 1493 1965
1266 1542 2412
1357 1591 2860
1447 1640 3307
1537 1689 3754
1011 1714 232
1101 1763 679
1192 1812 1126
1282 1861 1573
1372 1910 2021
1463 1959 2468
1553 2008 2915
1644 2057 3363
1734 2106 3810
1208 2131 287
1298 2180 735
1388 2229 1182
1479 2278 1629
1569 2327 2076
1659 2376 2524
1750 2425 2971
1840 2474 3418
1930 2523 3866
1404 2548 343
1494 2597 790
1585 2646 1237
1675 2695 1685
1766 2744 2132
1856 2793 2579
1946 2842 3027
2037 2891 3474
2127 2940 3921
1601 2965 399
1691 3014 846
1781 3063 1293
1872 3112 1740
1962 3161 2188
2052 3210 2635
2143 3259 3082
2233 3308 3530
2323 3357 3977
1797 3382 454
1887 3431 901
1978 3480 1349
2068 3529 1796
2159 3578 2243
2249 3627 2691
2339 3676 3138
2430 3725 3585
2520 3774 4033
450 92 18
540 141 465
631 190 912
721 239 1360
811 288 1807
902 337 2254
992 386 2702
1082 435 3149
1173 484 3596
647 509 73
737 558 521
827 607 968
918 656 1415
1008 705 1863
1098 754 2310
1189 803 2757
1279 852 3205
1369 901 3652
843 926 129
933 975 576
1024 1024 1024
1114 1073 1471
1204 1122 1918
1295 1171 2366
1385 1220 2813
1476 1269 3260
1566 1318 3708
1040 1343 185
1130 1392 632
1220 1441 1079
1311 1490 1527
1401 1539 1974
1491 1588 2421
1582 1637 2869
1672 1686 3316
1762 1735 3763
1236 1760 240
1326 1809 688
1417 1858 1135
1507 1907 1582
1597 1956 2030
1688 2005 2477
1778 2054 2924
1869 2103 3372
1959 2152 3819
1433 2177 296
1523 2226 743
1613 2275 1191
1704 2324 1638
1794 2373 2085
1884 2422 2533
1975 2471 2980
2065 2520 3427
2155 2569 3875
1629 2594 352
1719 2643 799
1810 2692 1246
1900 2741 1694
1991 2790 2141
2081 2839 2588
2171 2888 3036
2262 2937 3483
2352 2986 3930
1826 3011 407
1916 3060 855
2006 3109 1302
2097 3158 1749
2187 3207 2197
2277 3256 2644
2368 3305 3091
2458 3354 3539
2548 3403 3986
2022 3428 463
2112 3477 910
2203 3526 1358
2293 3575 1805
2384 3624 2252
2474 3673 2700
2564 3722 3147
2655 3771 3594
2745 3820 4042
675 138 27
765 187 474
856 236 921
946 285 1369
1036 334 1816
1127 382 2263
1217 431 2711
1307 480 3158
1398 529 3605
872 555 82
962 604 530
1052 653 977
1143 702 1424
1233 751 1872
1323 800 2319
1414 849 2766
1504 897 3214
1594 946 3661
1068 972 138
1158 1021 585
1249 1070 1033
1339 1119 1480
1429 1168 1927
1520 1217 2375
1610 1266 2822
1701 1315 3269
1791 1363 3716
1265 1389 194
1355 1438 641
1445 1487 1088
1536 1536 1536
1626 1585 1983
1716 1634 2430
1807 1683 2878
1897 1732 3325
1987 1781 3772
1461 1806 249
1551 1855 697
1642 1904 1144
1732 1953 1591
1822 2002 2039
1913 2051 2486
2003 2100 2933
2094 2149 3381
2184 2198 3828
1658 2223 305
1748 2272 752
1838 2321 1200
1929 2370 1647
2019 2419 2094
2109 2468 2542
2200 2517 2989
2290 2566 3436
2380 2615 3883
1854 2640 361
1944 2689 808
2035 2738 1255
2125 2787 1703
2216 2836 2150
2306 2885 2597
2396 2934 3045
2487 2983 3492
2577 3032 3939
2051 3057 416
2141 3106 864
2231 3155 1311
2322 3204 1758
2412 3253 2206
2502 3302 2653
2593 3351 3100
2683 3400 3547
2773 3449 3995
2247 3474 472
2338 3523 919
2428 3572 1367
2518 3621 1814
2609 3670 2261
2699 3719 2709
2789 3768 3156
2880 3817 3603
2970 3866 4050
900 183 36
990 232 483
1081 281 930
1171 330 1378
1261 379 1825
1352 428 2272
1442 477 2719
1532 526 3167
1623 575 3614
1097 600 91
1187 649 539
1277 698 986
1368 747 1433
1458 796 1881
1548 845 2328
1639 894 2775
1729 943 3222
1819 992 3670
1293 1018 147
1383 1066 594
1474 1115 1042
1564 1164 1489
1654 1213 1936
1745 1262 2383
1835 1311 2831
1926 1360 3278
2016 1409 3725
1490 1435 203
1580 1484 650
1670 1533 1097
1761 1581 1545
1851 1630 1992
1941 1679 2439
2032 1728 2886
2122 1777 3334
2212 1826 3781
1686 1852 258
1776 1901 706
1867 1950 1153
1957 1999 1600
2048 2047 2048
2138 2096 2495
2228 2145 2942
2319 2194 3389
2409 2243 3837
1883 2269 314
1973 2318 761
2063 2367 1209
2154 2416 1656
2244 2465 2103
2334 2514 2550
2425 2562 2998
2515 2611 3445
2605 2660 3892
2079 2686 370
2169 2735 817
2260 2784 1264
2350 2833 1712
2441 2882 2159
2531 2931 2606
2621 2980 3053
2712 3028 3501
2802 3077 3948
2276 3103 425
2366 3152 873
2456 3201 1320
2547 3250 1767
2637 3299 2214
2727 3348 2662
2818 3397 3109
2908 3446 3556
2998 3495 4004
2472 3520 481
2563 3569 928
2653 3618 1376
2743 3667 1823
2834 3716 2270
2924 3765 2717
3014 3814 3165
3105 3863 3612
3195 3912 4059
1125 229 45
1215 278 492
1306 327 939
1396 376 1386
1486 425 1834
1577 474 2281
1667 523 2728
1758 572 3176
1848 621 3623
1322 646 100
1412 695 548
1502 744 995
1593 793 1442
1683 842 1889
1773 891 2337
1864 940 2784
1954 989 3231
2044 1038 3679
1518 1063 156
1608 1112 603
1699 1161 1051
1789 1210 1498
1879 1259 1945
1970 1308 2392
2060 1357 2840
2151 1406 3287
2241 1455 3734
1715 1480 212
1805 1529 659
1895 1578 1106
1986 1627 1553
2076 1676 2001
2166 1725 2448
2257 1774 2895
2347 1823 3343
2437 1872 3790
1911 1897 267
2001 1946 715
2092 1995 1162
2182 2044 1609
2273 2093 2056
2363 2142 2504
2453 2191 2951
2544 2240 3398
2634 2289 3846
2108 2314 323
2198 2363 770
2288 2412 1217
2379 2461 1665
2469 2510 2112
2559 2559 2559
2650 2608 3007
2740 2657 3454
2830 2706 3901
2304 2731 379
2394 2780 826
2485 2829 1273
2575 2878 1720
2666 2927 2168
2756 2976 2615
2846 3025 3062
2937 3074 3510
3027 3123 3957
2501 3149 434
2591 3198 882
2681 3246 1329
2772 3295 1776
2862 3344 2223
2952 3393 2671
3043 3442 3118
3133 3491 3565
3223 3540 4013
2697 3566 490
2788 3615 937
2878 3664 1384
2968 3713 1832
3059 3761 2279
3149 3810 2726
3239 3859 3174
3330 3908 3621
3420 3957 4068
1350 275 53
1440 324 501
1531 373 948
1621 422 1395
1711 471 1843
1802 520 2290
1892 569 2737
1983 618 3185
2073 667 3632
1547 692 109
1637 741 556
1727 790 1004
1818 839 1451
1908 888 1898
1998 937 2346
2089 986 2793
2179 1035 3240
2269 1084 3688
1743 1109 165
1833 1158 612
1924 1207 1059
2014 1256 1507
2104 1305 1954
2195 1354 2401
2285 1403 2849
2376 1452 3296
2466 1501 3743
1940 1526 220
2030 1575 668
2120 1624 1115
2211 1673 1562
2301 1722 2010
2391 1771 2457
2482 1820 2904
2572 1869 3352
2662 1918 3799
2136 1943 276
2226 1992 723
2317 2041 1171
2407 2090 1618
2498 2139 2065
2588 2188 2513
2678 2237 2960
2769 2286 3407
2859 2335 3855
2333 2360 332
2423 2409 779
2513 2458 1226
2604 2507 1674
2694 2556 2121
2784 2605 2568
2875 2654 3016
2965 2703 3463
3055 2752 3910
2529 2777 387
2620 2826 835
2710 2875 1282
2800 2924 1729
2891 2973 2177
2981 3022 2624
3071 3071 3071
3162 3120 3519
3252 3169 3966
2726 3194 443
2816 3243 890
2906 3292 1338
2997 3341 1785
3087 3390 2232
3177 3439 2680
3268 3488 3127
3358 3537 3574
3448 3586 4022
2922 3611 499
3013 3660 946
3103 3709 1393
3193 3758 1841
3284 3807 2288
3374 3856 2735
3464 3905 3183
3555 3954 3630
3645 4003 4077
1575 321 62
1665 370 510
1756 419 957
1846 468 1404
1936 517 1852
2027 566 2299
2117 615 2746
2208 664 3194
2298 713 3641
1772 738 118
1862 787 565
1952 836 1013
2043 885 1460
2133 934 1907
2223 983 2355
2314 1032 2802
2404 1081 3249
2494 1130 3696
1968 1155 174
2058 1204 621
2149 1253 1068
2239 1302 1516
2329 1351 1963
2420 1400 2410
2510 1449 2858
2601 1498 3305
2691 1547 3752
2165 1572 229
2255 1621 677
2345 1670 1124
2436 1719 1571
2526 1768 2019
2616 1817 2466
2707 1866 2913
2797 1915 3361
2887 1964 3808
2361 1989 285
2451 2038 732
2542 2087 1180
2632 2136 1627
2723 2185 2074
2813 2234 2522
2903 2283 2969
2994 2332 3416
3084 2381 3863
2558 2406 341
2648 2455 788
2738 2504 1235
2829 2553 1683
2919 2602 2130
3009 2651 2577
3100 2700 3025
3190 2749 3472
3280 2798 3919
2754 2823 396
2845 2872 844
2935 2921 1291
3025 2970 1738
3116 3019 2186
3206 3068 2633
3296 3117 3080
3387 3166 3527
3477 3215 3975
2951 3240 452
3041 3289 899
3131 3338 1347
3222 3387 1794
3312 3436 2241
3402 3485 2689
3493 3534 3136
3583 3583 3583
3673 3632 4030
3147 3657 508
3238 3706 955
3328 3755 1402
3418 3804 1850
3509 3853 2297
3599 3902 2744
3689 3951 3192
3780 4000 3639
3870 4049 4086
1800 367 71
1890 416 519
1981 465 966
2071 514 1413
2161 563 1861
2252 612 2308
2342 661 2755
2433 710 3202
2523 759 3650
1997 784 127
2087 833 574
2177 882 1022
2268 931 1469
2358 980 1916
2448 1029 2363
2539 1078 2811
2629 1127 3258
2719 1176 3705
2193 1201 183
2283 1250 630
2374 1299 1077
2464 1348 1525
2555 1397 1972
2645 1446 2419
2735 1495 2866
2826 1544 3314
2916 1593 3761
2390 1618 238
2480 1667 686
2570 1716 1133
2661 1765 1580
2751 1814 2028
2841 1863 2475
2932 1912 2922
3022 1961 3369
3112 2010 3817
2586 2035 294
2676 2084 741
2767 2133 1189
2857 2182 1636
2948 2231 2083
3038 2280 2530
3128 2329 2978
3219 2378 3425
3309 2427 3872
2783 2452 350
2873 2501 797
2963 2550 1244
3054 2599 1692
3144 2648 2139
3234 2697 2586
3325 2746 3033
3415 2795 3481
3505 2844 3928
2979 2869 405
3070 2918 853
3160 2967 1300
3250 3016 1747
3341 3065 2194
3431 3114 2642
3521 3163 3089
3612 3212 3536
3702 3261 3984
3176 3286 461
3266 3335 908
3356 3384 1356
3447 3433 1803
3537 3482 2250
3627 3531 2697
3718 3580 3145
3808 3629 3592
3898 3678 4039
3372 3703 517
3463 3752 964
3553 3801 1411
3643 3850 1859
3734 3899 2306
3824 3948 2753
3914 3997 3200
4005 4046 3648
4095 4095 4095
