src/resources/luts/linear_to_filmic-sRGB-Medium.3dl
0 64 128 192 256 320 384 448 512 575 639 703 767 831 895 959 1023
0 0 0
0 0 1260
0 0 1760
0 0 2081
0 0 2310
0 0 2488
0 0 2630
0 0 2747
0 0 2846
0 0 2931
0 0 3005
0 0 3069
0 0 3127
0 0 3179
0 0 3225
0 0 3267
0 0 3306
0 1260 0
0 1260 1260
0 1260 1760
0 1260 2081
0 1260 2310
0 1260 2488
0 1260 2630
0 1260 2747
0 1260 2846
0 1260 2931
0 1260 3005
0 1260 3069
0 1260 3127
0 1260 3179
0 1260 3225
0 1260 3267
0 1260 3306
0 1760 0
0 1760 1260
0 1760 1760
0 1760 2081
0 1760 2310
0 1760 2488
0 1760 2630
0 1760 2747
0 1760 2846
0 1760 2931
0 1760 3005
0 1760 3069
0 1760 3127
0 1760 3179
0 1760 3225
0 1760 3267
0 1760 3306
0 2081 0
0 2081 1260
0 2081 1760
0 2081 2081
0 2081 2310
0 2081 2488
0 2081 2630
0 2081 2747
0 2081 2846
0 2081 2931
0 2081 3005
0 2081 3069
0 2081 3127
0 2081 3179
0 2081 3225
0 2081 3267
0 2081 3306
0 2310 0
0 2310 1260
0 2310 1760
0 2310 2081
0 2310 2310
0 2310 2488
0 2310 2630
0 2310 2747
0 2310 2846
0 2310 2931
0 2310 3005
0 2310 3069
0 2310 3127
0 2310 3179
0 2310 3225
0 2310 3267
0 2310 3306
0 2488 0
0 2488 1260
0 2488 1760
0 2488 2081
0 2488 2310
0 2488 2488
0 2488 2630
0 2488 2747
0 2488 2846
0 2488 2931
0 2488 3005
0 2488 3069
0 2488 3127
0 2488 3179
0 2488 3225
0 2488 3267
0 2488 3306
0 2630 0
0 2630 1260
0 2630 1760
0 2630 2081
0 2630 2310
0 2630 2488
0 2630 2630
0 2630 2747
0 2630 2846
0 2630 2931
0 2630 3005
0 2630 3069
0 2630 3127
0 2630 3179
0 2630 3225
0 2630 3267
0 2630 3306
0 2747 0
0 2747 1260
0 2747 1760
0 2747 2081
0 2747 2310
0 2747 2488
0 2747 2630
0 2747 2747
0 2747 2846
0 2747 2931
0 2747 3005
0 2747 3069
0 2747 3127
0 2747 3179
0 2747 3225
0 2747 3267
0 2747 3306
0 2846 0
0 2846 1260
0 2846 1760
0 2846 2081
0 2846 2310
0 2846 2488
0 2846 2630
0 2846 2747
0 2846 2846
0 2846 2931
0 2846 3005
0 2846 3069
0 2846 3127
0 2846 3179
0 2846 3225
0 2846 3267
0 2846 3306
0 2931 0
0 2931 1260
0 2931 1760
0 2931 2081
0 2931 2310
0 2931 2488
0 2931 2630
0 2931 2747
0 2931 2846
0 2931 2931
0 2931 3005
0 2931 3069
0 2931 3127
0 2931 3179
0 2931 3225
0 2931 3267
0 2931 3306
0 3005 0
0 3005 1260
0 3005 1760
0 3005 2081
0 3005 2310
0 3005 2488
0 3005 2630
0 3005 2747
0 3005 2846
0 3005 2931
0 3005 3005
0 3005 3069
0 3005 3127
0 3005 3179
0 3005 3225
0 3005 3267
0 3005 3306
0 3069 0
0 3069 1260
0 3069 1760
0 3069 2081
0 3069 2310
0 3069 2488
0 3069 2630
0 3069 2747
0 3069 2846
0 3069 2931
0 3069 3005
0 3069 3069
0 3069 3127
0 3069 3179
0 3069 3225
0 3069 3267
0 3069 3306
0 3127 0
0 3127 1260
0 3127 1760
0 3127 2081
0 3127 2310
0 3127 2488
0 3127 2630
0 3127 2747
0 3127 2846
0 3127 2931
0 3127 3005
0 3127 3069
0 3127 3127
0 3127 3179
0 3127 3225
0 3127 3267
0 3127 3306
0 3179 0
0 3179 1260
0 3179 1760
0 3179 2081
0 3179 2310
0 3179 2488
0 3179 2630
0 3179 2747
0 3179 2846
0 3179 2931
0 3179 3005
0 3179 3069
0 3179 3127
0 3179 3179
0 3179 3225
0 3179 3267
0 3179 3306
0 3225 0
0 3225 1260
0 3225 1760
0 3225 2081
0 3225 2310
0 3225 2488
0 3225 2630
0 3225 2747
0 3225 2846
0 3225 2931
0 3225 3005
0 3225 3069
0 3225 3127
0 3225 3179
0 3225 3225
0 3225 3267
0 3225 3306
0 3267 0
0 3267 1260
0 3267 1760
0 3267 2081
0 3267 2310
0 3267 2488
0 3267 2630
0 3267 2747
0 3267 2846
0 3267 2931
0 3267 3005
0 3267 3069
0 3267 3127
0 3267 3179
0 3267 3225
0 3267 3267
0 3267 3306
0 3306 0
0 3306 1260
0 3306 1760
0 3306 2081
0 3306 2310
0 3306 2488
0 3306 2630
0 3306 2747
0 3306 2846
0 3306 2931
0 3306 3005
0 3306 3069
0 3306 3127
0 3306 3179
0 3306 3225
0 3306 3267
0 3306 3306
1260 0 0
1260 0 1260
1260 0 1760
1260 0 2081
1260 0 2310
1260 0 2488
1260 0 2630
1260 0 2747
1260 0 2846
1260 0 2931
1260 0 3005
1260 0 3069
1260 0 3127
1260 0 3179
1260 0 3225
1260 0 3267
1260 0 3306
1260 1260 0
1260 1260 1260
1260 1260 1760
1260 1260 2081
1260 1260 2310
1260 1260 2488
1260 1260 2630
1260 1260 2747
1260 1260 2846
1260 1260 2931
1260 1260 3005
1260 1260 3069
1260 1260 3127
1260 1260 3179
1260 1260 3225
1260 1260 3267
1260 1260 3306
1260 1760 0
1260 1760 1260
1260 1760 1760
1260 1760 2081
1260 1760 2310
1260 1760 2488
1260 1760 2630
1260 1760 2747
1260 1760 2846
1260 1760 2931
1260 1760 3005
1260 1760 3069
1260 1760 3127
1260 1760 3179
1260 1760 3225
1260 1760 3267
1260 1760 3306
1260 2081 0
1260 2081 1260
1260 2081 1760
1260 2081 2081
1260 2081 2310
1260 2081 2488
1260 2081 2630
1260 2081 2747
1260 2081 2846
1260 2081 2931
1260 2081 3005
1260 2081 3069
1260 2081 3127
1260 2081 3179
1260 2081 3225
1260 2081 3267
1260 2081 3306
1260 2310 0
1260 2310 1260
1260 2310 1760
1260 2310 2081
1260 2310 2310
1260 2310 2488
1260 2310 2630
1260 2310 2747
1260 2310 2846
1260 2310 2931
1260 2310 3005
1260 2310 3069
1260 2310 3127
1260 2310 3179
1260 2310 3225
1260 2310 3267
1260 2310 3306
1260 2488 0
1260 2488 1260
1260 2488 1760
1260 2488 2081
1260 2488 2310
1260 2488 2488
1260 2488 2630
1260 2488 2747
1260 2488 2846
1260 2488 2931
1260 2488 3005
1260 2488 3069
1260 2488 3127
1260 2488 3179
1260 2488 3225
1260 2488 3267
1260 2488 3306
1260 2630 0
1260 2630 1260
1260 2630 1760
1260 2630 2081
1260 2630 2310
1260 2630 2488
1260 2630 2630
1260 2630 2747
1260 2630 2846
1260 2630 2931
1260 2630 3005
1260 2630 3069
1260 2630 3127
1260 2630 3179
1260 2630 3225
1260 2630 3267
1260 2630 3306
1260 2747 0
1260 2747 1260
1260 2747 1760
1260 2747 2081
1260 2747 2310
1260 2747 2488
1260 2747 2630
1260 2747 2747
1260 2747 2846
1260 2747 2931
1260 2747 3005
1260 2747 3069
1260 2747 3127
1260 2747 3179
1260 2747 3225
1260 2747 3267
1260 2747 3306
1260 2846 0
1260 2846 1260
1260 2846 1760
1260 2846 2081
1260 2846 2310
1260 2846 2488
1260 2846 2630
1260 2846 2747
1260 2846 2846
1260 2846 2931
1260 2846 3005
1260 2846 3069
1260 2846 3127
1260 2846 3179
1260 2846 3225
1260 2846 3267
1260 2846 3306
1260 2931 0
1260 2931 1260
1260 2931 1760
1260 2931 2081
1260 2931 2310
1260 2931 2488
1260 2931 2630
1260 2931 2747
1260 2931 2846
1260 2931 2931
1260 2931 3005
1260 2931 3069
1260 2931 3127
1260 2931 3179
1260 2931 3225
1260 2931 3267
1260 2931 3306
1260 3005 0
1260 3005 1260
1260 3005 1760
1260 3005 2081
1260 3005 2310
1260 3005 2488
1260 3005 2630
1260 3005 2747
1260 3005 2846
1260 3005 2931
1260 3005 3005
1260 3005 3069
1260 3005 3127
1260 3005 3179
1260 3005 3225
1260 3005 3267
1260 3005 3306
1260 3069 0
1260 3069 1260
1260 3069 1760
1260 3069 2081
1260 3069 2310
1260 3069 2488
1260 3069 2630
1260 3069 2747
1260 3069 2846
1260 3069 2931
1260 3069 3005
1260 3069 3069
1260 3069 3127
1260 3069 3179
1260 3069 3225
1260 3069 3267
1260 3069 3306
1260 3127 0
1260 3127 1260
1260 3127 1760
1260 3127 2081
1260 3127 2310
1260 3127 2488
1260 3127 2630
1260 3127 2747
1260 3127 2846
1260 3127 2931
1260 3127 3005
1260 3127 3069
1260 3127 3127
1260 3127 3179
1260 3127 3225
1260 3127 3267
1260 3127 3306
1260 3179 0
1260 3179 1260
1260 3179 1760
1260 3179 2081
1260 3179 2310
1260 3179 2488
1260 3179 2630
1260 3179 2747
1260 3179 2846
1260 3179 2931
1260 3179 3005
1260 3179 3069
1260 3179 3127
1260 3179 3179
1260 3179 3225
1260 3179 3267
1260 3179 3306
1260 3225 0
1260 3225 1260
1260 3225 1760
1260 3225 2081
1260 3225 2310
1260 3225 2488
1260 3225 2630
1260 3225 2747
1260 3225 2846
1260 3225 2931
1260 3225 3005
1260 3225 3069
1260 3225 3127
1260 3225 3179
1260 3225 3225
1260 3225 3267
1260 3225 3306
1260 3267 0
1260 3267 1260
1260 3267 1760
1260 3267 2081
1260 3267 2310
1260 3267 2488
1260 3267 2630
1260 3267 2747
1260 3267 2846
1260 3267 2931
1260 3267 3005
1260 3267 3069
1260 3267 3127
1260 3267 3179
1260 3267 3225
1260 3267 3267
1260 3267 3306
1260 3306 0
1260 3306 1260
1260 3306 1760
1260 3306 2081
1260 3306 2310
1260 3306 2488
1260 3306 2630
1260 3306 2747
1260 3306 2846
1260 3306 2931
1260 3306 3005
1260 3306 3069
1260 3306 3127
1260 3306 3179
1260 3306 3225
1260 3306 3267
1260 3306 3306
1760 0 0
1760 0 1260
1760 0 1760
1760 0 2081
1760 0 2310
1760 0 2488
1760 0 2630
1760 0 2747
1760 0 2846
1760 0 2931
1760 0 3005
1760 0 3069
1760 0 3127
1760 0 3179
1760 0 3225
1760 0 3267
1760 0 3306
1760 1260 0
1760 1260 1260
1760 1260 1760
1760 1260 2081
1760 1260 2310
1760 1260 2488
1760 1260 2630
1760 1260 2747
1760 1260 2846
1760 1260 2931
1760 1260 3005
1760 1260 3069
1760 1260 3127
1760 1260 3179
1760 1260 3225
1760 1260 3267
1760 1260 3306
1760 1760 0
1760 1760 1260
1760 1760 1760
1760 1760 2081
1760 1760 2310
1760 1760 2488
1760 1760 2630
1760 1760 2747
1760 1760 2846
1760 1760 2931
1760 1760 3005
1760 1760 3069
1760 1760 3127
1760 1760 3179
1760 1760 3225
1760 1760 3267
1760 1760 3306
1760 2081 0
1760 2081 1260
1760 2081 1760
1760 2081 2081
1760 2081 2310
1760 2081 2488
1760 2081 2630
1760 2081 2747
1760 2081 2846
1760 2081 2931
1760 2081 3005
1760 2081 3069
1760 2081 3127
1760 2081 3179
1760 2081 3225
1760 2081 3267
1760 2081 3306
1760 2310 0
1760 2310 1260
1760 2310 1760
1760 2310 2081
1760 2310 2310
1760 2310 2488
1760 2310 2630
1760 2310 2747
1760 2310 2846
1760 2310 2931
1760 2310 3005
1760 2310 3069
1760 2310 3127
1760 2310 3179
1760 2310 3225
1760 2310 3267
1760 2310 3306
1760 2488 0
1760 2488 1260
1760 2488 1760
1760 2488 2081
1760 2488 2310
1760 2488 2488
1760 2488 2630
1760 2488 2747
1760 2488 2846
1760 2488 2931
1760 2488 3005
1760 2488 3069
1760 2488 3127
1760 2488 3179
1760 2488 3225
1760 2488 3267
1760 2488 3306
1760 2630 0
1760 2630 1260
1760 2630 1760
1760 2630 2081
1760 2630 2310
1760 2630 2488
1760 2630 2630
1760 2630 2747
1760 2630 2846
1760 2630 2931
1760 2630 3005
1760 2630 3069
1760 2630 3127
1760 2630 3179
1760 2630 3225
1760 2630 3267
1760 2630 3306
1760 2747 0
1760 2747 1260
1760 2747 1760
1760 2747 2081
1760 2747 2310
1760 2747 2488
1760 2747 2630
1760 2747 2747
1760 2747 2846
1760 2747 2931
1760 2747 3005
1760 2747 3069
1760 2747 3127
1760 2747 3179
1760 2747 3225
1760 2747 3267
1760 2747 3306
1760 2846 0
1760 2846 1260
1760 2846 1760
1760 2846 2081
1760 2846 2310
1760 2846 2488
1760 2846 2630
1760 2846 2747
1760 2846 2846
1760 2846 2931
1760 2846 3005
1760 2846 3069
1760 2846 3127
1760 2846 3179
1760 2846 3225
1760 2846 3267
1760 2846 3306
1760 2931 0
1760 2931 1260
1760 2931 1760
1760 2931 2081
1760 2931 2310
1760 2931 2488
1760 2931 2630
1760 2931 2747
1760 2931 2846
1760 2931 2931
1760 2931 3005
1760 2931 3069
1760 2931 3127
1760 2931 3179
1760 2931 3225
1760 2931 3267
1760 2931 3306
1760 3005 0
1760 3005 1260
1760 3005 1760
1760 3005 2081
1760 3005 2310
1760 3005 2488
1760 3005 2630
1760 3005 2747
1760 3005 2846
1760 3005 2931
1760 3005 3005
1760 3005 3069
1760 3005 3127
1760 3005 3179
1760 3005 3225
1760 3005 3267
1760 3005 3306
1760 3069 0
1760 3069 1260
1760 3069 1760
1760 3069 2081
1760 3069 2310
1760 3069 2488
1760 3069 2630
1760 3069 2747
1760 3069 2846
1760 3069 2931
1760 3069 3005
1760 3069 3069
1760 3069 3127
1760 3069 3179
1760 3069 3225
1760 3069 3267
1760 3069 3306
1760 3127 0
1760 3127 1260
1760 3127 1760
1760 3127 2081
1760 3127 2310
1760 3127 2488
1760 3127 2630
1760 3127 2747
1760 3127 2846
1760 3127 2931
1760 3127 3005
1760 3127 3069
1760 3127 3127
1760 3127 3179
1760 3127 3225
1760 3127 3267
1760 3127 3306
1760 3179 0
1760 3179 1260
1760 3179 1760
1760 3179 2081
1760 3179 2310
1760 3179 2488
1760 3179 2630
1760 3179 2747
1760 3179 2846
1760 3179 2931
1760 3179 3005
1760 3179 3069
1760 3179 3127
1760 3179 3179
1760 3179 3225
1760 3179 3267
1760 3179 3306
1760 3225 0
1760 3225 1260
1760 3225 1760
1760 3225 2081
1760 3225 2310
1760 3225 2488
1760 3225 2630
1760 3225 2747
1760 3225 2846
1760 3225 2931
1760 3225 3005
1760 3225 3069
1760 3225 3127
1760 3225 3179
1760 3225 3225
1760 3225 3267
1760 3225 3306
1760 3267 0
1760 3267 1260
1760 3267 1760
1760 3267 2081
1760 3267 2310
1760 3267 2488
1760 3267 2630
1760 3267 2747
1760 3267 2846
1760 3267 2931
1760 3267 3005
1760 3267 3069
1760 3267 3127
1760 3267 3179
1760 3267 3225
1760 3267 3267
1760 3267 3306
1760 3306 0
1760 3306 1260
1760 3306 1760
1760 3306 2081
1760 3306 2310
1760 3306 2488
1760 3306 2630
1760 3306 2747
1760 3306 2846
1760 3306 2931
1760 3306 3005
1760 3306 3069
1760 3306 3127
1760 3306 3179
1760 3306 3225
1760 3306 3267
1760 3306 3306
2081 0 0
2081 0 1260
2081 0 1760
2081 0 2081
2081 0 2310
2081 0 2488
2081 0 2630
2081 0 2747
2081 0 2846
2081 0 2931
2081 0 3005
2081 0 3069
2081 0 3127
2081 0 3179
2081 0 3225
2081 0 3267
2081 0 3306
2081 1260 0
2081 1260 1260
2081 1260 1760
2081 1260 2081
2081 1260 2310
2081 1260 2488
2081 1260 2630
2081 1260 2747
2081 1260 2846
2081 1260 2931
2081 1260 3005
2081 1260 3069
2081 1260 3127
2081 1260 3179
2081 1260 3225
2081 1260 3267
