src/resources/luts/linear_to_filmic-sRGB-VeryLow.3dl
0 64 128 192 256 320 384 448 512 575 639 703 767 831 895 959 1023
0 0 0
0 0 1474
0 0 1839
0 0 2069
0 0 2222
0 0 2344
0 0 2444
0 0 2530
0 0 2605
0 0 2671
0 0 2730
0 0 2783
0 0 2831
0 0 2876
0 0 2917
0 0 2955
0 0 2990
0 1474 0
0 1474 1474
0 1474 1839
0 1474 2069
0 1474 2222
0 1474 2344
0 1474 2444
0 1474 2530
0 1474 2605
0 1474 2671
0 1474 2730
0 1474 2783
0 1474 2831
0 1474 2876
0 1474 2917
0 1474 2955
0 1474 2990
0 1839 0
0 1839 1474
0 1839 1839
0 1839 2069
0 1839 2222
0 1839 2344
0 1839 2444
0 1839 2530
0 1839 2605
0 1839 2671
0 1839 2730
0 1839 2783
0 1839 2831
0 1839 2876
0 1839 2917
0 1839 2955
0 1839 2990
0 2069 0
0 2069 1474
0 2069 1839
0 2069 2069
0 2069 2222
0 2069 2344
0 2069 2444
0 2069 2530
0 2069 2605
0 2069 2671
0 2069 2730
0 2069 2783
0 2069 2831
0 2069 2876
0 2069 2917
0 2069 2955
0 2069 2990
0 2222 0
0 2222 1474
0 2222 1839
0 2222 2069
0 2222 2222
0 2222 2344
0 2222 2444
0 2222 2530
0 2222 2605
0 2222 2671
0 2222 2730
0 2222 2783
0 2222 2831
0 2222 2876
0 2222 2917
0 2222 2955
0 2222 2990
0 2344 0
0 2344 1474
0 2344 1839
0 2344 2069
0 2344 2222
0 2344 2344
0 2344 2444
0 2344 2530
0 2344 2605
0 2344 2671
0 2344 2730
0 2344 2783
0 2344 2831
0 2344 2876
0 2344 2917
0 2344 2955
0 2344 2990
0 2444 0
0 2444 1474
0 2444 1839
0 2444 2069
0 2444 2222
0 2444 2344
0 2444 2444
0 2444 2530
0 2444 2605
0 2444 2671
0 2444 2730
0 2444 2783
0 2444 2831
0 2444 2876
0 2444 2917
0 2444 2955
0 2444 2990
0 2530 0
0 2530 1474
0 2530 1839
0 2530 2069
0 2530 2222
0 2530 2344
0 2530 2444
0 2530 2530
0 2530 2605
0 2530 2671
0 2530 2730
0 2530 2783
0 2530 2831
0 2530 2876
0 2530 2917
0 2530 2955
0 2530 2990
0 2605 0
0 2605 1474
0 2605 1839
0 2605 2069
0 2605 2222
0 2605 2344
0 2605 2444
0 2605 2530
0 2605 2605
0 2605 2671
0 2605 2730
0 2605 2783
0 2605 2831
0 2605 2876
0 2605 2917
0 2605 2955
0 2605 2990
0 2671 0
0 2671 1474
0 2671 1839
0 2671 2069
0 2671 2222
0 2671 2344
0 2671 2444
0 2671 2530
0 2671 2605
0 2671 2671
0 2671 2730
0 2671 2783
0 2671 2831
0 2671 2876
0 2671 2917
0 2671 2955
0 2671 2990
0 2730 0
0 2730 1474
0 2730 1839
0 2730 2069
0 2730 2222
0 2730 2344
0 2730 2444
0 2730 2530
0 2730 2605
0 2730 2671
0 2730 2730
0 2730 2783
0 2730 2831
0 2730 2876
0 2730 2917
0 2730 2955
0 2730 2990
0 2783 0
0 2783 1474
0 2783 1839
0 2783 2069
0 2783 2222
0 2783 2344
0 2783 2444
0 2783 2530
0 2783 2605
0 2783 2671
0 2783 2730
0 2783 2783
0 2783 2831
0 2783 2876
0 2783 2917
0 2783 2955
0 2783 2990
0 2831 0
0 2831 1474
0 2831 1839
0 2831 2069
0 2831 2222
0 2831 2344
0 2831 2444
0 2831 2530
0 2831 2605
0 2831 2671
0 2831 2730
0 2831 2783
0 2831 2831
0 2831 2876
0 2831 2917
0 2831 2955
0 2831 2990
0 2876 0
0 2876 1474
0 2876 1839
0 2876 2069
0 2876 2222
0 2876 2344
0 2876 2444
0 2876 2530
0 2876 2605
0 2876 2671
0 2876 2730
0 2876 2783
0 2876 2831
0 2876 2876
0 2876 2917
0 2876 2955
0 2876 2990
0 2917 0
0 2917 1474
0 2917 1839
0 2917 2069
0 2917 2222
0 2917 2344
0 2917 2444
0 2917 2530
0 2917 2605
0 2917 2671
0 2917 2730
0 2917 2783
0 2917 2831
0 2917 2876
0 2917 2917
0 2917 2955
0 2917 2990
0 2955 0
0 2955 1474
0 2955 1839
0 2955 2069
0 2955 2222
0 2955 2344
0 2955 2444
0 2955 2530
0 2955 2605
0 2955 2671
0 2955 2730
0 2955 2783
0 2955 2831
0 2955 2876
0 2955 2917
0 2955 2955
0 2955 2990
0 2990 0
0 2990 1474
0 2990 1839
0 2990 2069
0 2990 2222
0 2990 2344
0 2990 2444
0 2990 2530
0 2990 2605
0 2990 2671
0 2990 2730
0 2990 2783
0 2990 2831
0 2990 2876
0 2990 2917
0 2990 2955
0 2990 2990
1474 0 0
1474 0 1474
1474 0 1839
1474 0 2069
1474 0 2222
1474 0 2344
1474 0 2444
1474 0 2530
1474 0 2605
1474 0 2671
1474 0 2730
1474 0 2783
1474 0 2831
1474 0 2876
1474 0 2917
1474 0 2955
1474 0 2990
1474 1474 0
1474 1474 1474
1474 1474 1839
1474 1474 2069
1474 1474 2222
1474 1474 2344
1474 1474 2444
1474 1474 2530
1474 1474 2605
1474 1474 2671
1474 1474 2730
1474 1474 2783
1474 1474 2831
1474 1474 2876
1474 1474 2917
1474 1474 2955
1474 1474 2990
1474 1839 0
1474 1839 1474
1474 1839 1839
1474 1839 2069
1474 1839 2222
1474 1839 2344
1474 1839 2444
1474 1839 2530
1474 1839 2605
1474 1839 2671
1474 1839 2730
1474 1839 2783
1474 1839 2831
1474 1839 2876
1474 1839 2917
1474 1839 2955
1474 1839 2990
1474 2069 0
1474 2069 1474
1474 2069 1839
1474 2069 2069
1474 2069 2222
1474 2069 2344
1474 2069 2444
1474 2069 2530
1474 2069 2605
1474 2069 2671
1474 2069 2730
1474 2069 2783
1474 2069 2831
1474 2069 2876
1474 2069 2917
1474 2069 2955
1474 2069 2990
1474 2222 0
1474 2222 1474
1474 2222 1839
1474 2222 2069
1474 2222 2222
1474 2222 2344
1474 2222 2444
1474 2222 2530
1474 2222 2605
1474 2222 2671
1474 2222 2730
1474 2222 2783
1474 2222 2831
1474 2222 2876
1474 2222 2917
1474 2222 2955
1474 2222 2990
1474 2344 0
1474 2344 1474
1474 2344 1839
1474 2344 2069
1474 2344 2222
1474 2344 2344
1474 2344 2444
1474 2344 2530
1474 2344 2605
1474 2344 2671
1474 2344 2730
1474 2344 2783
1474 2344 2831
1474 2344 2876
1474 2344 2917
1474 2344 2955
1474 2344 2990
1474 2444 0
1474 2444 1474
1474 2444 1839
1474 2444 2069
1474 2444 2222
1474 2444 2344
1474 2444 2444
1474 2444 2530
1474 2444 2605
1474 2444 2671
1474 2444 2730
1474 2444 2783
1474 2444 2831
1474 2444 2876
1474 2444 2917
1474 2444 2955
1474 2444 2990
1474 2530 0
1474 2530 1474
1474 2530 1839
1474 2530 2069
1474 2530 2222
1474 2530 2344
1474 2530 2444
1474 2530 2530
1474 2530 2605
1474 2530 2671
1474 2530 2730
1474 2530 2783
1474 2530 2831
1474 2530 2876
1474 2530 2917
1474 2530 2955
1474 2530 2990
1474 2605 0
1474 2605 1474
1474 2605 1839
1474 2605 2069
1474 2605 2222
1474 2605 2344
1474 2605 2444
1474 2605 2530
1474 2605 2605
1474 2605 2671
1474 2605 2730
1474 2605 2783
1474 2605 2831
1474 2605 2876
1474 2605 2917
1474 2605 2955
1474 2605 2990
1474 2671 0
1474 2671 1474
1474 2671 1839
1474 2671 2069
1474 2671 2222
1474 2671 2344
1474 2671 2444
1474 2671 2530
1474 2671 2605
1474 2671 2671
1474 2671 2730
1474 2671 2783
1474 2671 2831
1474 2671 2876
1474 2671 2917
1474 2671 2955
1474 2671 2990
1474 2730 0
1474 2730 1474
1474 2730 1839
1474 2730 2069
1474 2730 2222
1474 2730 2344
1474 2730 2444
1474 2730 2530
1474 2730 2605
1474 2730 2671
1474 2730 2730
1474 2730 2783
1474 2730 2831
1474 2730 2876
1474 2730 2917
1474 2730 2955
1474 2730 2990
1474 2783 0
1474 2783 1474
1474 2783 1839
1474 2783 2069
1474 2783 2222
1474 2783 2344
1474 2783 2444
1474 2783 2530
1474 2783 2605
1474 2783 2671
1474 2783 2730
1474 2783 2783
1474 2783 2831
1474 2783 2876
1474 2783 2917
1474 2783 2955
1474 2783 2990
1474 2831 0
1474 2831 1474
1474 2831 1839
1474 2831 2069
1474 2831 2222
1474 2831 2344
1474 2831 2444
1474 2831 2530
1474 2831 2605
1474 2831 2671
1474 2831 2730
1474 2831 2783
1474 2831 2831
1474 2831 2876
1474 2831 2917
1474 2831 2955
1474 2831 2990
1474 2876 0
1474 2876 1474
1474 2876 1839
1474 2876 2069
1474 2876 2222
1474 2876 2344
1474 2876 2444
1474 2876 2530
1474 2876 2605
1474 2876 2671
1474 2876 2730
1474 2876 2783
1474 2876 2831
1474 2876 2876
1474 2876 2917
1474 2876 2955
1474 2876 2990
1474 2917 0
1474 2917 1474
1474 2917 1839
1474 2917 2069
1474 2917 2222
1474 2917 2344
1474 2917 2444
1474 2917 2530
1474 2917 2605
1474 2917 2671
1474 2917 2730
1474 2917 2783
1474 2917 2831
1474 2917 2876
1474 2917 2917
1474 2917 2955
1474 2917 2990
1474 2955 0
1474 2955 1474
1474 2955 1839
1474 2955 2069
1474 2955 2222
1474 2955 2344
1474 2955 2444
1474 2955 2530
1474 2955 2605
1474 2955 2671
1474 2955 2730
1474 2955 2783
1474 2955 2831
1474 2955 2876
1474 2955 2917
1474 2955 2955
1474 2955 2990
1474 2990 0
1474 2990 1474
1474 2990 1839
1474 2990 2069
1474 2990 2222
1474 2990 2344
1474 2990 2444
1474 2990 2530
1474 2990 2605
1474 2990 2671
1474 2990 2730
1474 2990 2783
1474 2990 2831
1474 2990 2876
1474 2990 2917
1474 2990 2955
1474 2990 2990
1839 0 0
1839 0 1474
1839 0 1839
1839 0 2069
1839 0 2222
1839 0 2344
1839 0 2444
1839 0 2530
1839 0 2605
1839 0 2671
1839 0 2730
1839 0 2783
1839 0 2831
1839 0 2876
1839 0 2917
1839 0 2955
1839 0 2990
1839 1474 0
1839 1474 1474
1839 1474 1839
1839 1474 2069
1839 1474 2222
1839 1474 2344
1839 1474 2444
1839 1474 2530
1839 1474 2605
1839 1474 2671
1839 1474 2730
1839 1474 2783
1839 1474 2831
1839 1474 2876
1839 1474 2917
1839 1474 2955
1839 1474 2990
1839 1839 0
1839 1839 1474
1839 1839 1839
1839 1839 2069
1839 1839 2222
1839 1839 2344
1839 1839 2444
1839 1839 2530
1839 1839 2605
1839 1839 2671
1839 1839 2730
1839 1839 2783
1839 1839 2831
1839 1839 2876
1839 1839 2917
1839 1839 2955
1839 1839 2990
1839 2069 0
1839 2069 1474
1839 2069 1839
1839 2069 2069
1839 2069 2222
1839 2069 2344
1839 2069 2444
1839 2069 2530
1839 2069 2605
1839 2069 2671
1839 2069 2730
1839 2069 2783
1839 2069 2831
1839 2069 2876
1839 2069 2917
1839 2069 2955
1839 2069 2990
1839 2222 0
1839 2222 1474
1839 2222 1839
1839 2222 2069
1839 2222 2222
1839 2222 2344
1839 2222 2444
1839 2222 2530
1839 2222 2605
1839 2222 2671
1839 2222 2730
1839 2222 2783
1839 2222 2831
1839 2222 2876
1839 2222 2917
1839 2222 2955
1839 2222 2990
1839 2344 0
1839 2344 1474
1839 2344 1839
1839 2344 2069
1839 2344 2222
1839 2344 2344
1839 2344 2444
1839 2344 2530
1839 2344 2605
1839 2344 2671
1839 2344 2730
1839 2344 2783
1839 2344 2831
1839 2344 2876
1839 2344 2917
1839 2344 2955
1839 2344 2990
1839 2444 0
1839 2444 1474
1839 2444 1839
1839 2444 2069
1839 2444 2222
1839 2444 2344
1839 2444 2444
1839 2444 2530
1839 2444 2605
1839 2444 2671
1839 2444 2730
1839 2444 2783
1839 2444 2831
1839 2444 2876
1839 2444 2917
1839 2444 2955
1839 2444 2990
1839 2530 0
1839 2530 1474
1839 2530 1839
1839 2530 2069
1839 2530 2222
1839 2530 2344
1839 2530 2444
1839 2530 2530
1839 2530 2605
1839 2530 2671
1839 2530 2730
1839 2530 2783
1839 2530 2831
1839 2530 2876
1839 2530 2917
1839 2530 2955
1839 2530 2990
1839 2605 0
1839 2605 1474
1839 2605 1839
1839 2605 2069
1839 2605 2222
1839 2605 2344
1839 2605 2444
1839 2605 2530
1839 2605 2605
1839 2605 2671
1839 2605 2730
1839 2605 2783
1839 2605 2831
1839 2605 2876
1839 2605 2917
1839 2605 2955
1839 2605 2990
1839 2671 0
1839 2671 1474
1839 2671 1839
1839 2671 2069
1839 2671 2222
1839 2671 2344
1839 2671 2444
1839 2671 2530
1839 2671 2605
1839 2671 2671
1839 2671 2730
1839 2671 2783
1839 2671 2831
1839 2671 2876
1839 2671 2917
1839 2671 2955
1839 2671 2990
1839 2730 0
1839 2730 1474
1839 2730 1839
1839 2730 2069
1839 2730 2222
1839 2730 2344
1839 2730 2444
1839 2730 2530
1839 2730 2605
1839 2730 2671
1839 2730 2730
1839 2730 2783
1839 2730 2831
1839 2730 2876
1839 2730 2917
1839 2730 2955
1839 2730 2990
1839 2783 0
1839 2783 1474
1839 2783 1839
1839 2783 2069
1839 2783 2222
1839 2783 2344
1839 2783 2444
1839 2783 2530
1839 2783 2605
1839 2783 2671
1839 2783 2730
1839 2783 2783
1839 2783 2831
1839 2783 2876
1839 2783 2917
1839 2783 2955
1839 2783 2990
1839 2831 0
1839 2831 1474
1839 2831 1839
1839 2831 2069
1839 2831 2222
1839 2831 2344
1839 2831 2444
1839 2831 2530
1839 2831 2605
1839 2831 2671
1839 2831 2730
1839 2831 2783
1839 2831 2831
1839 2831 2876
1839 2831 2917
1839 2831 2955
1839 2831 2990
1839 2876 0
1839 2876 1474
1839 2876 1839
1839 2876 2069
1839 2876 2222
1839 2876 2344
1839 2876 2444
1839 2876 2530
1839 2876 2605
1839 2876 2671
1839 2876 2730
1839 2876 2783
1839 2876 2831
1839 2876 2876
1839 2876 2917
1839 2876 2955
1839 2876 2990
1839 2917 0
1839 2917 1474
1839 2917 1839
1839 2917 2069
1839 2917 2222
1839 2917 2344
1839 2917 2444
1839 2917 2530
1839 2917 2605
1839 2917 2671
1839 2917 2730
1839 2917 2783
1839 2917 2831
1839 2917 2876
1839 2917 2917
1839 2917 2955
1839 2917 2990
1839 2955 0
1839 2955 1474
1839 2955 1839
1839 2955 2069
1839 2955 2222
1839 2955 2344
1839 2955 2444
1839 2955 2530
1839 2955 2605
1839 2955 2671
1839 2955 2730
1839 2955 2783
1839 2955 2831
1839 2955 2876
1839 2955 2917
1839 2955 2955
1839 2955 2990
1839 2990 0
1839 2990 1474
1839 2990 1839
1839 2990 2069
1839 2990 2222
1839 2990 2344
1839 2990 2444
1839 2990 2530
1839 2990 2605
1839 2990 2671
1839 2990 2730
1839 2990 2783
1839 2990 2831
1839 2990 2876
1839 2990 2917
1839 2990 2955
1839 2990 2990
2069 0 0
2069 0 1474
2069 0 1839
2069 0 2069
2069 0 2222
2069 0 2344
2069 0 2444
2069 0 2530
2069 0 2605
2069 0 2671
2069 0 2730
2069 0 2783
2069 0 2831
2069 0 2876
2069 0 2917
2069 0 2955
2069 0 2990
2069 1474 0
2069 1474 1474
2069 1474 1839
2069 1474 2069
2069 1474 2222
2069 1474 2344
2069 1474 2444
2069 1474 2530
2069 1474 2605
2069 1474 2671
2069 1474 2730
2069 1474 2783
2069 1474 2831
2069 1474 2876
2069 1474 2917
2069 1474 2955
