src/resources/luts/linear_to_filmic-sRGB-VeryHigh.3dl
0 128 256 384 512 639 767 895 1023
0 0 0
0 0 1606
0 0 2449
0 0 2901
0 0 3174
0 0 3354
0 0 3481
0 0 3573
0 0 3644
0 1606 0
0 1606 1606
0 1606 2449
0 1606 2901
0 1606 3174
0 1606 3354
0 1606 3481
0 1606 3573
0 1606 3644
0 2449 0
0 2449 1606
0 2449 2449
0 2449 2901
0 2449 3174
0 2449 3354
0 2449 3481
0 2449 3573
0 2449 3644
0 2901 0
0 2901 1606
0 2901 2449
0 2901 2901
0 2901 3174
0 2901 3354
0 2901 3481
0 2901 3573
0 2901 3644
0 3174 0
0 3174 1606
0 3174 2449
0 3174 2901
0 3174 3174
0 3174 3354
0 3174 3481
0 3174 3573
0 3174 3644
0 3354 0
0 3354 1606
0 3354 2449
0 3354 2901
0 3354 3174
0 3354 3354
0 3354 3481
0 3354 3573
0 3354 3644
0 3481 0
0 3481 1606
0 3481 2449
0 3481 2901
0 3481 3174
0 3481 3354
0 3481 3481
0 3481 3573
0 3481 3644
0 3573 0
0 3573 1606
0 3573 2449
0 3573 2901
0 3573 3174
0 3573 3354
0 3573 3481
0 3573 3573
0 3573 3644
0 3644 0
0 3644 1606
0 3644 2449
0 3644 2901
0 3644 3174
0 3644 3354
0 3644 3481
0 3644 3573
0 3644 3644
1606 0 0
1606 0 1606
1606 0 2449
1606 0 2901
1606 0 3174
1606 0 3354
1606 0 3481
1606 0 3573
1606 0 3644
1606 1606 0
1606 1606 1606
1606 1606 2449
1606 1606 2901
1606 1606 3174
1606 1606 3354
1606 1606 3481
1606 1606 3573
1606 1606 3644
1606 2449 0
1606 2449 1606
1606 2449 2449
1606 2449 2901
1606 2449 3174
1606 2449 3354
1606 2449 3481
1606 2449 3573
1606 2449 3644
1606 2901 0
1606 2901 1606
1606 2901 2449
1606 2901 2901
1606 2901 3174
1606 2901 3354
1606 2901 3481
1606 2901 3573
1606 2901 3644
1606 3174 0
1606 3174 1606
1606 3174 2449
1606 3174 2901
1606 3174 3174
1606 3174 3354
1606 3174 3481
1606 3174 3573
1606 3174 3644
1606 3354 0
1606 3354 1606
1606 3354 2449
1606 3354 2901
1606 3354 3174
1606 3354 3354
1606 3354 3481
1606 3354 3573
1606 3354 3644
1606 3481 0
1606 3481 1606
1606 3481 2449
1606 3481 2901
1606 3481 3174
1606 3481 3354
1606 3481 3481
1606 3481 3573
1606 3481 3644
1606 3573 0
1606 3573 1606
1606 3573 2449
1606 3573 2901
1606 3573 3174
1606 3573 3354
1606 3573 3481
1606 3573 3573
1606 3573 3644
1606 3644 0
1606 3644 1606
1606 3644 2449
1606 3644 2901
1606 3644 3174
1606 3644 3354
1606 3644 3481
1606 3644 3573
1606 3644 3644
2449 0 0
2449 0 1606
2449 0 2449
2449 0 2901
2449 0 3174
2449 0 3354
2449 0 3481
2449 0 3573
2449 0 3644
2449 1606 0
2449 1606 1606
2449 1606 2449
2449 1606 2901
2449 1606 3174
2449 1606 3354
2449 1606 3481
2449 1606 3573
2449 1606 3644
2449 2449 0
2449 2449 1606
2449 2449 2449
2449 2449 2901
2449 2449 3174
2449 2449 3354
2449 2449 3481
2449 2449 3573
2449 2449 3644
2449 2901 0
2449 2901 1606
2449 2901 2449
2449 2901 2901
2449 2901 3174
2449 2901 3354
2449 2901 3481
2449 2901 3573
2449 2901 3644
2449 3174 0
2449 3174 1606
2449 3174 2449
2449 3174 2901
2449 3174 3174
2449 3174 3354
2449 3174 3481
2449 3174 3573
2449 3174 3644
2449 3354 0
2449 3354 1606
2449 3354 2449
2449 3354 2901
2449 3354 3174
2449 3354 3354
2449 3354 3481
2449 3354 3573
2449 3354 3644
2449 3481 0
2449 3481 1606
2449 3481 2449
2449 3481 2901
2449 3481 3174
2449 3481 3354
2449 3481 3481
2449 3481 3573
2449 3481 3644
2449 3573 0
2449 3573 1606
2449 3573 2449
2449 3573 2901
2449 3573 3174
2449 3573 3354
2449 3573 3481
2449 3573 3573
2449 3573 3644
2449 3644 0
2449 3644 1606
2449 3644 2449
2449 3644 2901
2449 3644 3174
2449 3644 3354
2449 3644 3481
2449 3644 3573
2449 3644 3644
2901 0 0
2901 0 1606
2901 0 2449
2901 0 2901
2901 0 3174
2901 0 3354
2901 0 3481
2901 0 3573
2901 0 3644
2901 1606 0
2901 1606 1606
2901 1606 2449
2901 1606 2901
2901 1606 3174
2901 1606 3354
2901 1606 3481
2901 1606 3573
2901 1606 3644
2901 2449 0
2901 2449 1606
2901 2449 2449
2901 2449 2901
2901 2449 3174
2901 2449 3354
2901 2449 3481
2901 2449 3573
2901 2449 3644
2901 2901 0
2901 2901 1606
2901 2901 2449
2901 2901 2901
2901 2901 3174
2901 2901 3354
2901 2901 3481
2901 2901 3573
2901 2901 3644
2901 3174 0
2901 3174 1606
2901 3174 2449
2901 3174 2901
2901 3174 3174
2901 3174 3354
2901 3174 3481
2901 3174 3573
2901 3174 3644
2901 3354 0
2901 3354 1606
2901 3354 2449
2901 3354 2901
2901 3354 3174
2901 3354 3354
2901 3354 3481
2901 3354 3573
2901 3354 3644
2901 3481 0
2901 3481 1606
2901 3481 2449
2901 3481 2901
2901 3481 3174
2901 3481 3354
2901 3481 3481
2901 3481 3573
2901 3481 3644
2901 3573 0
2901 3573 1606
2901 3573 2449
2901 3573 2901
2901 3573 3174
2901 3573 3354
2901 3573 3481
2901 3573 3573
2901 3573 3644
2901 3644 0
2901 3644 1606
2901 3644 2449
2901 3644 2901
2901 3644 3174
2901 3644 3354
2901 3644 3481
2901 3644 3573
2901 3644 3644
3174 0 0
3174 0 1606
3174 0 2449
3174 0 2901
3174 0 3174
3174 0 3354
3174 0 3481
3174 0 3573
3174 0 3644
3174 1606 0
3174 1606 1606
3174 1606 2449
3174 1606 2901
3174 1606 3174
3174 1606 3354
3174 1606 3481
3174 1606 3573
3174 1606 3644
3174 2449 0
3174 2449 1606
3174 2449 2449
3174 2449 2901
3174 2449 3174
3174 2449 3354
3174 2449 3481
3174 2449 3573
3174 2449 3644
3174 2901 0
3174 2901 1606
3174 2901 2449
3174 2901 2901
3174 2901 3174
3174 2901 3354
3174 2901 3481
3174 2901 3573
3174 2901 3644
3174 3174 0
3174 3174 1606
3174 3174 2449
3174 3174 2901
3174 3174 3174
3174 3174 3354
3174 3174 3481
3174 3174 3573
3174 3174 3644
3174 3354 0
3174 3354 1606
3174 3354 2449
3174 3354 2901
3174 3354 3174
3174 3354 3354
3174 3354 3481
3174 3354 3573
3174 3354 3644
3174 3481 0
3174 3481 1606
3174 3481 2449
3174 3481 2901
3174 3481 3174
3174 3481 3354
3174 3481 3481
3174 3481 3573
3174 3481 3644
3174 3573 0
3174 3573 1606
3174 3573 2449
3174 3573 2901
3174 3573 3174
3174 3573 3354
3174 3573 3481
3174 3573 3573
3174 3573 3644
3174 3644 0
3174 3644 1606
3174 3644 2449
3174 3644 2901
3174 3644 3174
3174 3644 3354
3174 3644 3481
3174 3644 3573
3174 3644 3644
3354 0 0
3354 0 1606
3354 0 2449
3354 0 2901
3354 0 3174
3354 0 3354
3354 0 3481
3354 0 3573
3354 0 3644
3354 1606 0
3354 1606 1606
3354 1606 2449
3354 1606 2901
3354 1606 3174
3354 1606 3354
3354 1606 3481
3354 1606 3573
3354 1606 3644
3354 2449 0
3354 2449 1606
3354 2449 2449
3354 2449 2901
3354 2449 3174
3354 2449 3354
3354 2449 3481
3354 2449 3573
3354 2449 3644
3354 2901 0
3354 2901 1606
3354 2901 2449
3354 2901 2901
3354 2901 3174
3354 2901 3354
3354 2901 3481
3354 2901 3573
3354 2901 3644
3354 3174 0
3354 3174 1606
3354 3174 2449
3354 3174 2901
3354 3174 3174
3354 3174 3354
3354 3174 3481
3354 3174 3573
3354 3174 3644
3354 3354 0
3354 3354 1606
3354 3354 2449
3354 3354 2901
3354 3354 3174
3354 3354 3354
3354 3354 3481
3354 3354 3573
3354 3354 3644
3354 3481 0
3354 3481 1606
3354 3481 2449
3354 3481 2901
3354 3481 3174
3354 3481 3354
3354 3481 3481
3354 3481 3573
3354 3481 3644
3354 3573 0
3354 3573 1606
3354 3573 2449
3354 3573 2901
3354 3573 3174
3354 3573 3354
3354 3573 3481
3354 3573 3573
3354 3573 3644
3354 3644 0
3354 3644 1606
3354 3644 2449
3354 3644 2901
3354 3644 3174
3354 3644 3354
3354 3644 3481
3354 3644 3573
3354 3644 3644
3481 0 0
3481 0 1606
3481 0 2449
3481 0 2901
3481 0 3174
3481 0 3354
3481 0 3481
3481 0 3573
3481 0 3644
3481 1606 0
3481 1606 1606
3481 1606 2449
3481 1606 2901
3481 1606 3174
3481 1606 3354
3481 1606 3481
3481 1606 3573
3481 1606 3644
3481 2449 0
3481 2449 1606
3481 2449 2449
3481 2449 2901
3481 2449 3174
3481 2449 3354
3481 2449 3481
3481 2449 3573
3481 2449 3644
3481 2901 0
3481 2901 1606
3481 2901 2449
3481 2901 2901
3481 2901 3174
3481 2901 3354
3481 2901 3481
3481 2901 3573
3481 2901 3644
3481 3174 0
3481 3174 1606
3481 3174 2449
3481 3174 2901
3481 3174 3174
3481 3174 3354
3481 3174 3481
3481 3174 3573
3481 3174 3644
3481 3354 0
3481 3354 1606
3481 3354 2449
3481 3354 2901
3481 3354 3174
3481 3354 3354
3481 3354 3481
3481 3354 3573
3481 3354 3644
3481 3481 0
3481 3481 1606
3481 3481 2449
3481 3481 2901
3481 3481 3174
3481 3481 3354
3481 3481 3481
3481 3481 3573
3481 3481 3644
3481 3573 0
3481 3573 1606
3481 3573 2449
3481 3573 2901
3481 3573 3174
3481 3573 3354
3481 3573 3481
3481 3573 3573
3481 3573 3644
3481 3644 0
3481 3644 1606
3481 3644 2449
3481 3644 2901
3481 3644 3174
3481 3644 3354
3481 3644 3481
3481 3644 3573
3481 3644 3644
3573 0 0
3573 0 1606
3573 0 2449
3573 0 2901
3573 0 3174
3573 0 3354
3573 0 3481
3573 0 3573
3573 0 3644
3573 1606 0
3573 1606 1606
3573 1606 2449
3573 1606 2901
3573 1606 3174
3573 1606 3354
3573 1606 3481
3573 1606 3573
3573 1606 3644
3573 2449 0
3573 2449 1606
3573 2449 2449
3573 2449 2901
3573 2449 3174
3573 2449 3354
3573 2449 3481
3573 2449 3573
3573 2449 3644
3573 2901 0
3573 2901 1606
3573 2901 2449
3573 2901 2901
3573 2901 3174
3573 2901 3354
3573 2901 3481
3573 2901 3573
3573 2901 3644
3573 3174 0
3573 3174 1606
3573 3174 2449
3573 3174 2901
3573 3174 3174
3573 3174 3354
3573 3174 3481
3573 3174 3573
3573 3174 3644
3573 3354 0
3573 3354 1606
3573 3354 2449
3573 3354 2901
3573 3354 3174
3573 3354 3354
3573 3354 3481
3573 3354 3573
3573 3354 3644
3573 3481 0
3573 3481 1606
3573 3481 2449
3573 3481 2901
3573 3481 3174
3573 3481 3354
3573 3481 3481
3573 3481 3573
3573 3481 3644
3573 3573 0
3573 3573 1606
3573 3573 2449
3573 3573 2901
3573 3573 3174
3573 3573 3354
3573 3573 3481
3573 3573 3573
3573 3573 3644
3573 3644 0
3573 3644 1606
3573 3644 2449
3573 3644 2901
3573 3644 3174
3573 3644 3354
3573 3644 3481
3573 3644 3573
3573 3644 3644
3644 0 0
3644 0 1606
3644 0 2449
3644 0 2901
3644 0 3174
3644 0 3354
3644 0 3481
3644 0 3573
3644 0 3644
3644 1606 0
3644 1606 1606
3644 1606 2449
3644 1606 2901
3644 1606 3174
3644 1606 3354
3644 1606 3481
3644 1606 3573
3644 1606 3644
3644 2449 0
3644 2449 1606
3644 2449 2449
3644 2449 2901
3644 2449 3174
3644 2449 3354
3644 2449 3481
3644 2449 3573
3644 2449 3644
3644 2901 0
3644 2901 1606
3644 2901 2449
3644 2901 2901
3644 2901 3174
3644 2901 3354
3644 2901 3481
3644 2901 3573
3644 2901 3644
3644 3174 0
3644 3174 1606
3644 3174 2449
3644 3174 2901
3644 3174 3174
3644 3174 3354
3644 3174 3481
3644 3174 3573
3644 3174 3644
3644 3354 0
3644 3354 1606
3644 3354 2449
3644 3354 2901
3644 3354 3174
3644 3354 3354
3644 3354 3481
3644 3354 3573
3644 3354 3644
3644 3481 0
3644 3481 1606
3644 3481 2449
3644 3481 2901
3644 3481 3174
3644 3481 3354
3644 3481 3481
3644 3481 3573
3644 3481 3644
3644 3573 0
3644 3573 1606
3644 3573 2449
3644 3573 2901
3644 3573 3174
3644 3573 3354
3644 3573 3481
3644 3573 3573
3644 3573 3644
3644 3644 0
3644 3644 1606
3644 3644 2449
3644 3644 2901
3644 3644 3174
3644 3644 3354
3644 3644 3481
3644 3644 3573
3644 3644 3644
