src/resources/luts/linear_to_filmic-sRGB-VeryLow.3dl
0 128 256 384 512 639 767 895 1023
0 0 0
0 0 1839
0 0 2222
0 0 2444
0 0 2605
0 0 2730
0 0 2831
0 0 2917
0 0 2990
0 1839 0
0 1839 1839
0 1839 2222
0 1839 2444
0 1839 2605
0 1839 2730
0 1839 2831
0 1839 2917
0 1839 2990
0 2222 0
0 2222 1839
0 2222 2222
0 2222 2444
0 2222 2605
0 2222 2730
0 2222 2831
0 2222 2917
0 2222 2990
0 2444 0
0 2444 1839
0 2444 2222
0 2444 2444
0 2444 2605
0 2444 2730
0 2444 2831
0 2444 2917
0 2444 2990
0 2605 0
0 2605 1839
0 2605 2222
0 2605 2444
0 2605 2605
0 2605 2730
0 2605 2831
0 2605 2917
0 2605 2990
0 2730 0
0 2730 1839
0 2730 2222
0 2730 2444
0 2730 2605
0 2730 2730
0 2730 2831
0 2730 2917
0 2730 2990
0 2831 0
0 2831 1839
0 2831 2222
0 2831 2444
0 2831 2605
0 2831 2730
0 2831 2831
0 2831 2917
0 2831 2990
0 2917 0
0 2917 1839
0 2917 2222
0 2917 2444
0 2917 2605
0 2917 2730
0 2917 2831
0 2917 2917
0 2917 2990
0 2990 0
0 2990 1839
0 2990 2222
0 2990 2444
0 2990 2605
0 2990 2730
0 2990 2831
0 2990 2917
0 2990 2990
1839 0 0
1839 0 1839
1839 0 2222
1839 0 2444
1839 0 2605
1839 0 2730
1839 0 2831
1839 0 2917
1839 0 2990
1839 1839 0
1839 1839 1839
1839 1839 2222
1839 1839 2444
1839 1839 2605
1839 1839 2730
1839 1839 2831
1839 1839 2917
1839 1839 2990
1839 2222 0
1839 2222 1839
1839 2222 2222
1839 2222 2444
1839 2222 2605
1839 2222 2730
1839 2222 2831
1839 2222 2917
1839 2222 2990
1839 2444 0
1839 2444 1839
1839 2444 2222
1839 2444 2444
1839 2444 2605
1839 2444 2730
1839 2444 2831
1839 2444 2917
1839 2444 2990
1839 2605 0
1839 2605 1839
1839 2605 2222
1839 2605 2444
1839 2605 2605
1839 2605 2730
1839 2605 2831
1839 2605 2917
1839 2605 2990
1839 2730 0
1839 2730 1839
1839 2730 2222
1839 2730 2444
1839 2730 2605
1839 2730 2730
1839 2730 2831
1839 2730 2917
1839 2730 2990
1839 2831 0
1839 2831 1839
1839 2831 2222
1839 2831 2444
1839 2831 2605
1839 2831 2730
1839 2831 2831
1839 2831 2917
1839 2831 2990
1839 2917 0
1839 2917 1839
1839 2917 2222
1839 2917 2444
1839 2917 2605
1839 2917 2730
1839 2917 2831
1839 2917 2917
1839 2917 2990
1839 2990 0
1839 2990 1839
1839 2990 2222
1839 2990 2444
1839 2990 2605
1839 2990 2730
1839 2990 2831
1839 2990 2917
1839 2990 2990
2222 0 0
2222 0 1839
2222 0 2222
2222 0 2444
2222 0 2605
2222 0 2730
2222 0 2831
2222 0 2917
2222 0 2990
2222 1839 0
2222 1839 1839
2222 1839 2222
2222 1839 2444
2222 1839 2605
2222 1839 2730
2222 1839 2831
2222 1839 2917
2222 1839 2990
2222 2222 0
2222 2222 1839
2222 2222 2222
2222 2222 2444
2222 2222 2605
2222 2222 2730
2222 2222 2831
2222 2222 2917
2222 2222 2990
2222 2444 0
2222 2444 1839
2222 2444 2222
2222 2444 2444
2222 2444 2605
2222 2444 2730
2222 2444 2831
2222 2444 2917
2222 2444 2990
2222 2605 0
2222 2605 1839
2222 2605 2222
2222 2605 2444
2222 2605 2605
2222 2605 2730
2222 2605 2831
2222 2605 2917
2222 2605 2990
2222 2730 0
2222 2730 1839
2222 2730 2222
2222 2730 2444
2222 2730 2605
2222 2730 2730
2222 2730 2831
2222 2730 2917
2222 2730 2990
2222 2831 0
2222 2831 1839
2222 2831 2222
2222 2831 2444
2222 2831 2605
2222 2831 2730
2222 2831 2831
2222 2831 2917
2222 2831 2990
2222 2917 0
2222 2917 1839
2222 2917 2222
2222 2917 2444
2222 2917 2605
2222 2917 2730
2222 2917 2831
2222 2917 2917
2222 2917 2990
2222 2990 0
2222 2990 1839
2222 2990 2222
2222 2990 2444
2222 2990 2605
2222 2990 2730
2222 2990 2831
2222 2990 2917
2222 2990 2990
2444 0 0
2444 0 1839
2444 0 2222
2444 0 2444
2444 0 2605
2444 0 2730
2444 0 2831
2444 0 2917
2444 0 2990
2444 1839 0
2444 1839 1839
2444 1839 2222
2444 1839 2444
2444 1839 2605
2444 1839 2730
2444 1839 2831
2444 1839 2917
2444 1839 2990
2444 2222 0
2444 2222 1839
2444 2222 2222
2444 2222 2444
2444 2222 2605
2444 2222 2730
2444 2222 2831
2444 2222 2917
2444 2222 2990
2444 2444 0
2444 2444 1839
2444 2444 2222
2444 2444 2444
2444 2444 2605
2444 2444 2730
2444 2444 2831
2444 2444 2917
2444 2444 2990
2444 2605 0
2444 2605 1839
2444 2605 2222
2444 2605 2444
2444 2605 2605
2444 2605 2730
2444 2605 2831
2444 2605 2917
2444 2605 2990
2444 2730 0
2444 2730 1839
2444 2730 2222
2444 2730 2444
2444 2730 2605
2444 2730 2730
2444 2730 2831
2444 2730 2917
2444 2730 2990
2444 2831 0
2444 2831 1839
2444 2831 2222
2444 2831 2444
2444 2831 2605
2444 2831 2730
2444 2831 2831
2444 2831 2917
2444 2831 2990
2444 2917 0
2444 2917 1839
2444 2917 2222
2444 2917 2444
2444 2917 2605
2444 2917 2730
2444 2917 2831
2444 2917 2917
2444 2917 2990
2444 2990 0
2444 2990 1839
2444 2990 2222
2444 2990 2444
2444 2990 2605
2444 2990 2730
2444 2990 2831
2444 2990 2917
2444 2990 2990
2605 0 0
2605 0 1839
2605 0 2222
2605 0 2444
2605 0 2605
2605 0 2730
2605 0 2831
2605 0 2917
2605 0 2990
2605 1839 0
2605 1839 1839
2605 1839 2222
2605 1839 2444
2605 1839 2605
2605 1839 2730
2605 1839 2831
2605 1839 2917
2605 1839 2990
2605 2222 0
2605 2222 1839
2605 2222 2222
2605 2222 2444
2605 2222 2605
2605 2222 2730
2605 2222 2831
2605 2222 2917
2605 2222 2990
2605 2444 0
2605 2444 1839
2605 2444 2222
2605 2444 2444
2605 2444 2605
2605 2444 2730
2605 2444 2831
2605 2444 2917
2605 2444 2990
2605 2605 0
2605 2605 1839
2605 2605 2222
2605 2605 2444
2605 2605 2605
2605 2605 2730
2605 2605 2831
2605 2605 2917
2605 2605 2990
2605 2730 0
2605 2730 1839
2605 2730 2222
2605 2730 2444
2605 2730 2605
2605 2730 2730
2605 2730 2831
2605 2730 2917
2605 2730 2990
2605 2831 0
2605 2831 1839
2605 2831 2222
2605 2831 2444
2605 2831 2605
2605 2831 2730
2605 2831 2831
2605 2831 2917
2605 2831 2990
2605 2917 0
2605 2917 1839
2605 2917 2222
2605 2917 2444
2605 2917 2605
2605 2917 2730
2605 2917 2831
2605 2917 2917
2605 2917 2990
2605 2990 0
2605 2990 1839
2605 2990 2222
2605 2990 2444
2605 2990 2605
2605 2990 2730
2605 2990 2831
2605 2990 2917
2605 2990 2990
2730 0 0
2730 0 1839
2730 0 2222
2730 0 2444
2730 0 2605
2730 0 2730
2730 0 2831
2730 0 2917
2730 0 2990
2730 1839 0
2730 1839 1839
2730 1839 2222
2730 1839 2444
2730 1839 2605
2730 1839 2730
2730 1839 2831
2730 1839 2917
2730 1839 2990
2730 2222 0
2730 2222 1839
2730 2222 2222
2730 2222 2444
2730 2222 2605
2730 2222 2730
2730 2222 2831
2730 2222 2917
2730 2222 2990
2730 2444 0
2730 2444 1839
2730 2444 2222
2730 2444 2444
2730 2444 2605
2730 2444 2730
2730 2444 2831
2730 2444 2917
2730 2444 2990
2730 2605 0
2730 2605 1839
2730 2605 2222
2730 2605 2444
2730 2605 2605
2730 2605 2730
2730 2605 2831
2730 2605 2917
2730 2605 2990
2730 2730 0
2730 2730 1839
2730 2730 2222
2730 2730 2444
2730 2730 2605
2730 2730 2730
2730 2730 2831
2730 2730 2917
2730 2730 2990
2730 2831 0
2730 2831 1839
2730 2831 2222
2730 2831 2444
2730 2831 2605
2730 2831 2730
2730 2831 2831
2730 2831 2917
2730 2831 2990
2730 2917 0
2730 2917 1839
2730 2917 2222
2730 2917 2444
2730 2917 2605
2730 2917 2730
2730 2917 2831
2730 2917 2917
2730 2917 2990
2730 2990 0
2730 2990 1839
2730 2990 2222
2730 2990 2444
2730 2990 2605
2730 2990 2730
2730 2990 2831
2730 2990 2917
2730 2990 2990
2831 0 0
2831 0 1839
2831 0 2222
2831 0 2444
2831 0 2605
2831 0 2730
2831 0 2831
2831 0 2917
2831 0 2990
2831 1839 0
2831 1839 1839
2831 1839 2222
2831 1839 2444
2831 1839 2605
2831 1839 2730
2831 1839 2831
2831 1839 2917
2831 1839 2990
2831 2222 0
2831 2222 1839
2831 2222 2222
2831 2222 2444
2831 2222 2605
2831 2222 2730
2831 2222 2831
2831 2222 2917
2831 2222 2990
2831 2444 0
2831 2444 1839
2831 2444 2222
2831 2444 2444
2831 2444 2605
2831 2444 2730
2831 2444 2831
2831 2444 2917
2831 2444 2990
2831 2605 0
2831 2605 1839
2831 2605 2222
2831 2605 2444
2831 2605 2605
2831 2605 2730
2831 2605 2831
2831 2605 2917
2831 2605 2990
2831 2730 0
2831 2730 1839
2831 2730 2222
2831 2730 2444
2831 2730 2605
2831 2730 2730
2831 2730 2831
2831 2730 2917
2831 2730 2990
2831 2831 0
2831 2831 1839
2831 2831 2222
2831 2831 2444
2831 2831 2605
2831 2831 2730
2831 2831 2831
2831 2831 2917
2831 2831 2990
2831 2917 0
2831 2917 1839
2831 2917 2222
2831 2917 2444
2831 2917 2605
2831 2917 2730
2831 2917 2831
2831 2917 2917
2831 2917 2990
2831 2990 0
2831 2990 1839
2831 2990 2222
2831 2990 2444
2831 2990 2605
2831 2990 2730
2831 2990 2831
2831 2990 2917
2831 2990 2990
2917 0 0
2917 0 1839
2917 0 2222
2917 0 2444
2917 0 2605
2917 0 2730
2917 0 2831
2917 0 2917
2917 0 2990
2917 1839 0
2917 1839 1839
2917 1839 2222
2917 1839 2444
2917 1839 2605
2917 1839 2730
2917 1839 2831
2917 1839 2917
2917 1839 2990
2917 2222 0
2917 2222 1839
2917 2222 2222
2917 2222 2444
2917 2222 2605
2917 2222 2730
2917 2222 2831
2917 2222 2917
2917 2222 2990
2917 2444 0
2917 2444 1839
2917 2444 2222
2917 2444 2444
2917 2444 2605
2917 2444 2730
2917 2444 2831
2917 2444 2917
2917 2444 2990
2917 2605 0
2917 2605 1839
2917 2605 2222
2917 2605 2444
2917 2605 2605
2917 2605 2730
2917 2605 2831
2917 2605 2917
2917 2605 2990
2917 2730 0
2917 2730 1839
2917 2730 2222
2917 2730 2444
2917 2730 2605
2917 2730 2730
2917 2730 2831
2917 2730 2917
2917 2730 2990
2917 2831 0
2917 2831 1839
2917 2831 2222
2917 2831 2444
2917 2831 2605
2917 2831 2730
2917 2831 2831
2917 2831 2917
2917 2831 2990
2917 2917 0
2917 2917 1839
2917 2917 2222
2917 2917 2444
2917 2917 2605
2917 2917 2730
2917 2917 2831
2917 2917 2917
2917 2917 2990
2917 2990 0
2917 2990 1839
2917 2990 2222
2917 2990 2444
2917 2990 2605
2917 2990 2730
2917 2990 2831
2917 2990 2917
2917 2990 2990
2990 0 0
2990 0 1839
2990 0 2222
2990 0 2444
2990 0 2605
2990 0 2730
2990 0 2831
2990 0 2917
2990 0 2990
2990 1839 0
2990 1839 1839
2990 1839 2222
2990 1839 2444
2990 1839 2605
2990 1839 2730
2990 1839 2831
2990 1839 2917
2990 1839 2990
2990 2222 0
2990 2222 1839
2990 2222 2222
2990 2222 2444
2990 2222 2605
2990 2222 2730
2990 2222 2831
2990 2222 2917
2990 2222 2990
2990 2444 0
2990 2444 1839
2990 2444 2222
2990 2444 2444
2990 2444 2605
2990 2444 2730
2990 2444 2831
2990 2444 2917
2990 2444 2990
2990 2605 0
2990 2605 1839
2990 2605 2222
2990 2605 2444
2990 2605 2605
2990 2605 2730
2990 2605 2831
2990 2605 2917
2990 2605 2990
2990 2730 0
2990 2730 1839
2990 2730 2222
2990 2730 2444
2990 2730 2605
2990 2730 2730
2990 2730 2831
2990 2730 2917
2990 2730 2990
2990 2831 0
2990 2831 1839
2990 2831 2222
2990 2831 2444
2990 2831 2605
2990 2831 2730
2990 2831 2831
2990 2831 2917
2990 2831 2990
2990 2917 0
2990 2917 1839
2990 2917 2222
2990 2917 2444
2990 2917 2605
2990 2917 2730
2990 2917 2831
2990 2917 2917
2990 2917 2990
2990 2990 0
2990 2990 1839
2990 2990 2222
2990 2990 2444
2990 2990 2605
2990 2990 2730
2990 2990 2831
2990 2990 2917
2990 2990 2990
