src/resources/luts/linear_to_filmic-sRGB-High.3dl
0 128 256 384 512 639 767 895 1023
0 0 0
0 0 1671
0 0 2393
0 0 2795
0 0 3051
0 0 3228
0 0 3357
0 0 3456
0 0 3534
0 1671 0
0 1671 1671
0 1671 2393
0 1671 2795
0 1671 3051
0 1671 3228
0 1671 3357
0 1671 3456
0 1671 3534
0 2393 0
0 2393 1671
0 2393 2393
0 2393 2795
0 2393 3051
0 2393 3228
0 2393 3357
0 2393 3456
0 2393 3534
0 2795 0
0 2795 1671
0 2795 2393
0 2795 2795
0 2795 3051
0 2795 3228
0 2795 3357
0 2795 3456
0 2795 3534
0 3051 0
0 3051 1671
0 3051 2393
0 3051 2795
0 3051 3051
0 3051 3228
0 3051 3357
0 3051 3456
0 3051 3534
0 3228 0
0 3228 1671
0 3228 2393
0 3228 2795
0 3228 3051
0 3228 3228
0 3228 3357
0 3228 3456
0 3228 3534
0 3357 0
0 3357 1671
0 3357 2393
0 3357 2795
0 3357 3051
0 3357 3228
0 3357 3357
0 3357 3456
0 3357 3534
0 3456 0
0 3456 1671
0 3456 2393
0 3456 2795
0 3456 3051
0 3456 3228
0 3456 3357
0 3456 3456
0 3456 3534
0 3534 0
0 3534 1671
0 3534 2393
0 3534 2795
0 3534 3051
0 3534 3228
0 3534 3357
0 3534 3456
0 3534 3534
1671 0 0
1671 0 1671
1671 0 2393
1671 0 2795
1671 0 3051
1671 0 3228
1671 0 3357
1671 0 3456
1671 0 3534
1671 1671 0
1671 1671 1671
1671 1671 2393
1671 1671 2795
1671 1671 3051
1671 1671 3228
1671 1671 3357
1671 1671 3456
1671 1671 3534
1671 2393 0
1671 2393 1671
1671 2393 2393
1671 2393 2795
1671 2393 3051
1671 2393 3228
1671 2393 3357
1671 2393 3456
1671 2393 3534
1671 2795 0
1671 2795 1671
1671 2795 2393
1671 2795 2795
1671 2795 3051
1671 2795 3228
1671 2795 3357
1671 2795 3456
1671 2795 3534
1671 3051 0
1671 3051 1671
1671 3051 2393
1671 3051 2795
1671 3051 3051
1671 3051 3228
1671 3051 3357
1671 3051 3456
1671 3051 3534
1671 3228 0
1671 3228 1671
1671 3228 2393
1671 3228 2795
1671 3228 3051
1671 3228 3228
1671 3228 3357
1671 3228 3456
1671 3228 3534
1671 3357 0
1671 3357 1671
1671 3357 2393
1671 3357 2795
1671 3357 3051
1671 3357 3228
1671 3357 3357
1671 3357 3456
1671 3357 3534
1671 3456 0
1671 3456 1671
1671 3456 2393
1671 3456 2795
1671 3456 3051
1671 3456 3228
1671 3456 3357
1671 3456 3456
1671 3456 3534
1671 3534 0
1671 3534 1671
1671 3534 2393
1671 3534 2795
1671 3534 3051
1671 3534 3228
1671 3534 3357
1671 3534 3456
1671 3534 3534
2393 0 0
2393 0 1671
2393 0 2393
2393 0 2795
2393 0 3051
2393 0 3228
2393 0 3357
2393 0 3456
2393 0 3534
2393 1671 0
2393 1671 1671
2393 1671 2393
2393 1671 2795
2393 1671 3051
2393 1671 3228
2393 1671 3357
2393 1671 3456
2393 1671 3534
2393 2393 0
2393 2393 1671
2393 2393 2393
2393 2393 2795
2393 2393 3051
2393 2393 3228
2393 2393 3357
2393 2393 3456
2393 2393 3534
2393 2795 0
2393 2795 1671
2393 2795 2393
2393 2795 2795
2393 2795 3051
2393 2795 3228
2393 2795 3357
2393 2795 3456
2393 2795 3534
2393 3051 0
2393 3051 1671
2393 3051 2393
2393 3051 2795
2393 3051 3051
2393 3051 3228
2393 3051 3357
2393 3051 3456
2393 3051 3534
2393 3228 0
2393 3228 1671
2393 3228 2393
2393 3228 2795
2393 3228 3051
2393 3228 3228
2393 3228 3357
2393 3228 3456
2393 3228 3534
2393 3357 0
2393 3357 1671
2393 3357 2393
2393 3357 2795
2393 3357 3051
2393 3357 3228
2393 3357 3357
2393 3357 3456
2393 3357 3534
2393 3456 0
2393 3456 1671
2393 3456 2393
2393 3456 2795
2393 3456 3051
2393 3456 3228
2393 3456 3357
2393 3456 3456
2393 3456 3534
2393 3534 0
2393 3534 1671
2393 3534 2393
2393 3534 2795
2393 3534 3051
2393 3534 3228
2393 3534 3357
2393 3534 3456
2393 3534 3534
2795 0 0
2795 0 1671
2795 0 2393
2795 0 2795
2795 0 3051
2795 0 3228
2795 0 3357
2795 0 3456
2795 0 3534
2795 1671 0
2795 1671 1671
2795 1671 2393
2795 1671 2795
2795 1671 3051
2795 1671 3228
2795 1671 3357
2795 1671 3456
2795 1671 3534
2795 2393 0
2795 2393 1671
2795 2393 2393
2795 2393 2795
2795 2393 3051
2795 2393 3228
2795 2393 3357
2795 2393 3456
2795 2393 3534
2795 2795 0
2795 2795 1671
2795 2795 2393
2795 2795 2795
2795 2795 3051
2795 2795 3228
2795 2795 3357
2795 2795 3456
2795 2795 3534
2795 3051 0
2795 3051 1671
2795 3051 2393
2795 3051 2795
2795 3051 3051
2795 3051 3228
2795 3051 3357
2795 3051 3456
2795 3051 3534
2795 3228 0
2795 3228 1671
2795 3228 2393
2795 3228 2795
2795 3228 3051
2795 3228 3228
2795 3228 3357
2795 3228 3456
2795 3228 3534
2795 3357 0
2795 3357 1671
2795 3357 2393
2795 3357 2795
2795 3357 3051
2795 3357 3228
2795 3357 3357
2795 3357 3456
2795 3357 3534
2795 3456 0
2795 3456 1671
2795 3456 2393
2795 3456 2795
2795 3456 3051
2795 3456 3228
2795 3456 3357
2795 3456 3456
2795 3456 3534
2795 3534 0
2795 3534 1671
2795 3534 2393
2795 3534 2795
2795 3534 3051
2795 3534 3228
2795 3534 3357
2795 3534 3456
2795 3534 3534
3051 0 0
3051 0 1671
3051 0 2393
3051 0 2795
3051 0 3051
3051 0 3228
3051 0 3357
3051 0 3456
3051 0 3534
3051 1671 0
3051 1671 1671
3051 1671 2393
3051 1671 2795
3051 1671 3051
3051 1671 3228
3051 1671 3357
3051 1671 3456
3051 1671 3534
3051 2393 0
3051 2393 1671
3051 2393 2393
3051 2393 2795
3051 2393 3051
3051 2393 3228
3051 2393 3357
3051 2393 3456
3051 2393 3534
3051 2795 0
3051 2795 1671
3051 2795 2393
3051 2795 2795
3051 2795 3051
3051 2795 3228
3051 2795 3357
3051 2795 3456
3051 2795 3534
3051 3051 0
3051 3051 1671
3051 3051 2393
3051 3051 2795
3051 3051 3051
3051 3051 3228
3051 3051 3357
3051 3051 3456
3051 3051 3534
3051 3228 0
3051 3228 1671
3051 3228 2393
3051 3228 2795
3051 3228 3051
3051 3228 3228
3051 3228 3357
3051 3228 3456
3051 3228 3534
3051 3357 0
3051 3357 1671
3051 3357 2393
3051 3357 2795
3051 3357 3051
3051 3357 3228
3051 3357 3357
3051 3357 3456
3051 3357 3534
3051 3456 0
3051 3456 1671
3051 3456 2393
3051 3456 2795
3051 3456 3051
3051 3456 3228
3051 3456 3357
3051 3456 3456
3051 3456 3534
3051 3534 0
3051 3534 1671
3051 3534 2393
3051 3534 2795
3051 3534 3051
3051 3534 3228
3051 3534 3357
3051 3534 3456
3051 3534 3534
3228 0 0
3228 0 1671
3228 0 2393
3228 0 2795
3228 0 3051
3228 0 3228
3228 0 3357
3228 0 3456
3228 0 3534
3228 1671 0
3228 1671 1671
3228 1671 2393
3228 1671 2795
3228 1671 3051
3228 1671 3228
3228 1671 3357
3228 1671 3456
3228 1671 3534
3228 2393 0
3228 2393 1671
3228 2393 2393
3228 2393 2795
3228 2393 3051
3228 2393 3228
3228 2393 3357
3228 2393 3456
3228 2393 3534
3228 2795 0
3228 2795 1671
3228 2795 2393
3228 2795 2795
3228 2795 3051
3228 2795 3228
3228 2795 3357
3228 2795 3456
3228 2795 3534
3228 3051 0
3228 3051 1671
3228 3051 2393
3228 3051 2795
3228 3051 3051
3228 3051 3228
3228 3051 3357
3228 3051 3456
3228 3051 3534
3228 3228 0
3228 3228 1671
3228 3228 2393
3228 3228 2795
3228 3228 3051
3228 3228 3228
3228 3228 3357
3228 3228 3456
3228 3228 3534
3228 3357 0
3228 3357 1671
3228 3357 2393
3228 3357 2795
3228 3357 3051
3228 3357 3228
3228 3357 3357
3228 3357 3456
3228 3357 3534
3228 3456 0
3228 3456 1671
3228 3456 2393
3228 3456 2795
3228 3456 3051
3228 3456 3228
3228 3456 3357
3228 3456 3456
3228 3456 3534
3228 3534 0
3228 3534 1671
3228 3534 2393
3228 3534 2795
3228 3534 3051
3228 3534 3228
3228 3534 3357
3228 3534 3456
3228 3534 3534
3357 0 0
3357 0 1671
3357 0 2393
3357 0 2795
3357 0 3051
3357 0 3228
3357 0 3357
3357 0 3456
3357 0 3534
3357 1671 0
3357 1671 1671
3357 1671 2393
3357 1671 2795
3357 1671 3051
3357 1671 3228
3357 1671 3357
3357 1671 3456
3357 1671 3534
3357 2393 0
3357 2393 1671
3357 2393 2393
3357 2393 2795
3357 2393 3051
3357 2393 3228
3357 2393 3357
3357 2393 3456
3357 2393 3534
3357 2795 0
3357 2795 1671
3357 2795 2393
3357 2795 2795
3357 2795 3051
3357 2795 3228
3357 2795 3357
3357 2795 3456
3357 2795 3534
3357 3051 0
3357 3051 1671
3357 3051 2393
3357 3051 2795
3357 3051 3051
3357 3051 3228
3357 3051 3357
3357 3051 3456
3357 3051 3534
3357 3228 0
3357 3228 1671
3357 3228 2393
3357 3228 2795
3357 3228 3051
3357 3228 3228
3357 3228 3357
3357 3228 3456
3357 3228 3534
3357 3357 0
3357 3357 1671
3357 3357 2393
3357 3357 2795
3357 3357 3051
3357 3357 3228
3357 3357 3357
3357 3357 3456
3357 3357 3534
3357 3456 0
3357 3456 1671
3357 3456 2393
3357 3456 2795
3357 3456 3051
3357 3456 3228
3357 3456 3357
3357 3456 3456
3357 3456 3534
3357 3534 0
3357 3534 1671
3357 3534 2393
3357 3534 2795
3357 3534 3051
3357 3534 3228
3357 3534 3357
3357 3534 3456
3357 3534 3534
3456 0 0
3456 0 1671
3456 0 2393
3456 0 2795
3456 0 3051
3456 0 3228
3456 0 3357
3456 0 3456
3456 0 3534
3456 1671 0
3456 1671 1671
3456 1671 2393
3456 1671 2795
3456 1671 3051
3456 1671 3228
3456 1671 3357
3456 1671 3456
3456 1671 3534
3456 2393 0
3456 2393 1671
3456 2393 2393
3456 2393 2795
3456 2393 3051
3456 2393 3228
3456 2393 3357
3456 2393 3456
3456 2393 3534
3456 2795 0
3456 2795 1671
3456 2795 2393
3456 2795 2795
3456 2795 3051
3456 2795 3228
3456 2795 3357
3456 2795 3456
3456 2795 3534
3456 3051 0
3456 3051 1671
3456 3051 2393
3456 3051 2795
3456 3051 3051
3456 3051 3228
3456 3051 3357
3456 3051 3456
3456 3051 3534
3456 3228 0
3456 3228 1671
3456 3228 2393
3456 3228 2795
3456 3228 3051
3456 3228 3228
3456 3228 3357
3456 3228 3456
3456 3228 3534
3456 3357 0
3456 3357 1671
3456 3357 2393
3456 3357 2795
3456 3357 3051
3456 3357 3228
3456 3357 3357
3456 3357 3456
3456 3357 3534
3456 3456 0
3456 3456 1671
3456 3456 2393
3456 3456 2795
3456 3456 3051
3456 3456 3228
3456 3456 3357
3456 3456 3456
3456 3456 3534
3456 3534 0
3456 3534 1671
3456 3534 2393
3456 3534 2795
3456 3534 3051
3456 3534 3228
3456 3534 3357
3456 3534 3456
3456 3534 3534
3534 0 0
3534 0 1671
3534 0 2393
3534 0 2795
3534 0 3051
3534 0 3228
3534 0 3357
3534 0 3456
3534 0 3534
3534 1671 0
3534 1671 1671
3534 1671 2393
3534 1671 2795
3534 1671 3051
3534 1671 3228
3534 1671 3357
3534 1671 3456
3534 1671 3534
3534 2393 0
3534 2393 1671
3534 2393 2393
3534 2393 2795
3534 2393 3051
3534 2393 3228
3534 2393 3357
3534 2393 3456
3534 2393 3534
3534 2795 0
3534 2795 1671
3534 2795 2393
3534 2795 2795
3534 2795 3051
3534 2795 3228
3534 2795 3357
3534 2795 3456
3534 2795 3534
3534 3051 0
3534 3051 1671
3534 3051 2393
3534 3051 2795
3534 3051 3051
3534 3051 3228
3534 3051 3357
3534 3051 3456
3534 3051 3534
3534 3228 0
3534 3228 1671
3534 3228 2393
3534 3228 2795
3534 3228 3051
3534 3228 3228
3534 3228 3357
3534 3228 3456
3534 3228 3534
3534 3357 0
3534 3357 1671
3534 3357 2393
3534 3357 2795
3534 3357 3051
3534 3357 3228
3534 3357 3357
3534 3357 3456
3534 3357 3534
3534 3456 0
3534 3456 1671
3534 3456 2393
3534 3456 2795
3534 3456 3051
3534 3456 3228
3534 3456 3357
3534 3456 3456
3534 3456 3534
3534 3534 0
3534 3534 1671
3534 3534 2393
3534 3534 2795
3534 3534 3051
3534 3534 3228
3534 3534 3357
3534 3534 3456
3534 3534 3534
