src/resources/luts/linear-RGB_to_linear-ACES.3dl
0 64 128 192 256 320 384 448 512 575 639 703 767 831 895 959 1023
0 0 0
45 24 224
90 49 447
136 73 671
181 98 895
226 122 1118
271 147 1342
316 171 1566
361 196 1789
407 220 2013
452 245 2237
497 269 2460
542 294 2684
587 318 2907
632 343 3131
678 367 3355
723 392 3578
98 209 28
143 233 251
189 257 475
234 282 699
279 306 922
324 331 1146
369 355 1370
414 380 1593
460 404 1817
505 429 2041
550 453 2264
595 478 2488
640 502 2712
686 527 2935
731 551 3159
776 576 3383
821 600 3606
197 417 56
242 442 279
287 466 503
332 491 727
377 515 950
422 539 1174
468 564 1398
513 588 1621
558 613 1845
603 637 2069
648 662 2292
693 686 2516
739 711 2739
784 735 2963
829 760 3187
874 784 3410
919 809 3634
295 626 83
340 650 307
385 675 531
430 699 754
475 724 978
521 748 1202
566 772 1425
611 797 1649
656 821 1873
701 846 2096
747 870 2320
792 895 2544
837 919 2767
882 944 2991
927 968 3215
972 993 3438
1018 1017 3662
393 834 111
438 859 335
483 883 559
529 908 782
574 932 1006
619 957 1230
664 981 1453
709 1005 1677
754 1030 1901
800 1054 2124
845 1079 2348
890 1103 2571
935 1128 2795
980 1152 3019
1025 1177 3242
1071 1201 3466
1116 1226 3690
491 1043 139
536 1067 363
582 1092 586
627 1116 810
672 1141 1034
717 1165 1257
762 1190 1481
808 1214 1705
853 1238 1928
898 1263 2152
943 1287 2376
988 1312 2599
1033 1336 2823
1079 1361 3047
1124 1385 3270
1169 1410 3494
1214 1434 3718
590 1251 167
635 1276 391
680 1300 614
725 1325 838
770 1349 1062
815 1374 1285
861 1398 1509
906 1423 1733
951 1447 1956
996 1472 2180
1041 1496 2403
1086 1520 2627
1132 1545 2851
1177 1569 3074
1222 1594 3298
1267 1618 3522
1312 1643 3745
688 1460 195
733 1484 418
778 1509 642
823 1533 866
869 1558 1089
914 1582 1313
959 1607 1537
1004 1631 1760
1049 1656 1984
1094 1680 2208
1140 1705 2431
1185 1729 2655
1230 1753 2879
1275 1778 3102
1320 1802 3326
1365 1827 3550
1411 1851 3773
786 1668 223
831 1693 446
876 1717 670
922 1742 894
967 1766 1117
1012 1791 1341
1057 1815 1565
1102 1840 1788
1147 1864 2012
1193 1889 2236
1238 1913 2459
1283 1938 2683
1328 1962 2906
1373 1986 3130
1419 2011 3354
1464 2035 3577
1509 2060 3801
884 1877 250
929 1901 474
975 1926 698
1020 1950 921
1065 1975 1145
1110 1999 1369
1155 2024 1592
1201 2048 1816
1246 2073 2040
1291 2097 2263
1336 2122 2487
1381 2146 2711
1426 2171 2934
1472 2195 3158
1517 2220 3382
1562 2244 3605
1607 2268 3829
983 2085 278
1028 2110 502
1073 2134 726
1118 2159 949
1163 2183 1173
1208 2208 1397
1254 2232 1620
1299 2257 1844
1344 2281 2068
1389 2306 2291
1434 2330 2515
1480 2355 2738
1525 2379 2962
1570 2404 3186
1615 2428 3409
1660 2453 3633
1705 2477 3857
1081 2294 306
1126 2318 530
1171 2343 753
1216 2367 977
1262 2392 1201
1307 2416 1424
1352 2441 1648
1397 2465 1872
1442 2490 2095
1487 2514 2319
1533 2539 2543
1578 2563 2766
1623 2588 2990
1668 2612 3214
1713 2637 3437
1758 2661 3661
1804 2686 3885
1179 2502 334
1224 2527 558
1269 2551 781
1315 2576 1005
1360 2600 1229
1405 2625 1452
1450 2649 1676
1495 2674 1900
1541 2698 2123
1586 2723 2347
1631 2747 2570
1676 2772 2794
1721 2796 3018
1766 2821 3241
1812 2845 3465
1857 2870 3689
1902 2894 3912
1277 2711 362
1323 2735 585
1368 2760 809
1413 2784 1033
1458 2809 1256
1503 2833 1480
1548 2858 1704
1594 2882 1927
1639 2907 2151
1684 2931 2375
1729 2956 2598
1774 2980 2822
1819 3005 3046
1865 3029 3269
1910 3054 3493
1955 3078 3717
2000 3103 3940
1376 2919 390
1421 2944 613
1466 2968 837
1511 2993 1061
1556 3017 1284
1601 3042 1508
1647 3066 1732
1692 3091 1955
1737 3115 2179
1782 3140 2402
1827 3164 2626
1873 3189 2850
1918 3213 3073
1963 3238 3297
2008 3262 3521
2053 3287 3744
2098 3311 3968
1474 3128 417
1519 3152 641
1564 3177 865
1609 3201 1088
1655 3226 1312
1700 3250 1536
1745 3275 1759
1790 3299 1983
1835 3324 2207
1880 3348 2430
1926 3373 2654
1971 3397 2878
2016 3422 3101
2061 3446 3325
2106 3471 3549
2152 3495 3772
2197 3520 3996
1572 3336 445
1617 3361 669
1662 3385 893
1708 3410 1116
1753 3434 1340
1798 3459 1564
1843 3483 1787
1888 3508 2011
1934 3532 2234
1979 3557 2458
2024 3581 2682
2069 3606 2905
2114 3630 3129
2159 3655 3353
2205 3679 3576
2250 3704 3800
2295 3728 4024
113 23 4
158 47 228
203 72 452
248 96 675
293 121 899
338 145 1123
384 170 1346
429 194 1570
474 219 1794
519 243 2017
564 268 2241
609 292 2465
655 317 2688
700 341 2912
745 366 3136
790 390 3359
835 415 3583
211 231 32
256 256 256
301 280 480
346 305 703
391 329 927
437 354 1151
482 378 1374
527 403 1598
572 427 1821
617 452 2045
663 476 2269
708 501 2492
753 525 2716
798 550 2940
843 574 3163
888 599 3387
934 623 3611
309 440 60
354 464 284
399 489 507
445 513 731
490 538 955
535 562 1178
580 587 1402
625 611 1626
670 636 1849
716 660 2073
761 685 2297
806 709 2520
851 734 2744
896 758 2968
941 783 3191
987 807 3415
1032 832 3639
407 648 88
452 673 312
498 697 535
543 722 759
588 746 983
633 771 1206
678 795 1430
724 820 1654
769 844 1877
814 869 2101
859 893 2324
904 918 2548
949 942 2772
995 967 2995
1040 991 3219
1085 1016 3443
1130 1040 3666
506 857 116
551 881 339
596 906 563
641 930 787
686 955 1010
731 979 1234
777 1004 1458
822 1028 1681
867 1053 1905
912 1077 2129
957 1102 2352
1002 1126 2576
1048 1151 2800
1093 1175 3023
1138 1200 3247
1183 1224 3471
1228 1249 3694
604 1066 144
649 1090 367
694 1114 591
739 1139 815
784 1163 1038
830 1188 1262
875 1212 1486
920 1237 1709
965 1261 1933
1010 1286 2156
1056 1310 2380
1101 1335 2604
1146 1359 2827
1191 1384 3051
1236 1408 3275
1281 1433 3498
1327 1457 3722
702 1274 171
747 1299 395
792 1323 619
838 1347 842
883 1372 1066
928 1396 1290
973 1421 1513
1018 1445 1737
1063 1470 1961
1109 1494 2184
1154 1519 2408
1199 1543 2632
1244 1568 2855
1289 1592 3079
1335 1617 3303
1380 1641 3526
1425 1666 3750
800 1483 199
845 1507 423
891 1532 647
936 1556 870
981 1581 1094
1026 1605 1318
1071 1629 1541
1117 1654 1765
1162 1678 1988
1207 1703 2212
1252 1727 2436
1297 1752 2659
1342 1776 2883
1388 1801 3107
1433 1825 3330
1478 1850 3554
1523 1874 3778
899 1691 227
944 1716 451
989 1740 674
1034 1765 898
1079 1789 1122
1124 1814 1345
1170 1838 1569
1215 1862 1793
1260 1887 2016
1305 1911 2240
1350 1936 2464
1396 1960 2687
1441 1985 2911
1486 2009 3135
1531 2034 3358
1576 2058 3582
1621 2083 3806
997 1900 255
1042 1924 479
1087 1949 702
1132 1973 926
1178 1998 1150
1223 2022 1373
1268 2047 1597
1313 2071 1820
1358 2095 2044
1403 2120 2268
1449 2144 2491
1494 2169 2715
1539 2193 2939
1584 2218 3162
1629 2242 3386
1674 2267 3610
1720 2291 3833
1095 2108 283
1140 2133 506
1185 2157 730
1231 2182 954
1276 2206 1177
1321 2231 1401
1366 2255 1625
1411 2280 1848
1456 2304 2072
1502 2328 2296
1547 2353 2519
1592 2377 2743
1637 2402 2967
1682 2426 3190
1728 2451 3414
1773 2475 3638
1818 2500 3861
1193 2317 311
1239 2341 534
1284 2366 758
1329 2390 982
1374 2415 1205
1419 2439 1429
1464 2464 1652
1510 2488 1876
1555 2513 2100
1600 2537 2323
1645 2562 2547
1690 2586 2771
1735 2610 2994
1781 2635 3218
1826 2659 3442
1871 2684 3665
1916 2708 3889
1292 2525 338
1337 2550 562
1382 2574 786
1427 2599 1009
1472 2623 1233
1517 2648 1457
1563 2672 1680
1608 2697 1904
1653 2721 2128
1698 2746 2351
1743 2770 2575
1789 2795 2799
1834 2819 3022
1879 2843 3246
1924 2868 3470
1969 2892 3693
2014 2917 3917
1390 2734 366
1435 2758 590
1480 2783 814
1525 2807 1037
1571 2832 1261
1616 2856 1485
1661 2881 1708
1706 2905 1932
1751 2930 2155
1796 2954 2379
1842 2979 2603
1887 3003 2826
1932 3028 3050
1977 3052 3274
2022 3076 3497
2067 3101 3721
2113 3125 3945
1488 2942 394
1533 2967 618
1578 2991 841
1624 3016 1065
1669 3040 1289
1714 3065 1512
1759 3089 1736
1804 3114 1960
1850 3138 2183
1895 3163 2407
1940 3187 2631
1985 3212 2854
2030 3236 3078
2075 3261 3302
2121 3285 3525
2166 3310 3749
2211 3334 3972
1586 3151 422
1632 3175 646
1677 3200 869
1722 3224 1093
1767 3249 1317
1812 3273 1540
1857 3298 1764
1903 3322 1987
1948 3347 2211
1993 3371 2435
2038 3396 2658
2083 3420 2882
2128 3445 3106
2174 3469 3329
2219 3494 3553
2264 3518 3777
2309 3543 4000
1685 3359 450
1730 3384 673
1775 3408 897
1820 3433 1121
1865 3457 1344
1911 3482 1568
1956 3506 1792
2001 3531 2015
2046 3555 2239
2091 3580 2463
2136 3604 2686
2182 3629 2910
2227 3653 3134
2272 3678 3357
2317 3702 3581
2362 3727 3805
2407 3751 4028
225 46 9
270 70 233
315 95 456
361 119 680
406 144 904
451 168 1127
496 193 1351
541 217 1574
586 242 1798
632 266 2022
677 291 2245
722 315 2469
767 340 2693
812 364 2916
857 389 3140
903 413 3364
948 438 3587
323 254 37
368 279 260
414 303 484
459 328 708
504 352 931
549 377 1155
594 401 1379
639 426 1602
685 450 1826
730 475 2050
775 499 2273
820 524 2497
865 548 2721
911 573 2944
956 597 3168
1001 622 3392
1046 646 3615
422 463 65
467 487 288
512 512 512
557 536 736
602 561 959
647 585 1183
693 610 1406
738 634 1630
783 659 1854
828 683 2077
873 708 2301
918 732 2525
964 757 2748
1009 781 2972
1054 806 3196
1099 830 3419
1144 855 3643
520 671 92
565 696 316
610 720 540
655 745 763
700 769 987
746 794 1211
791 818 1434
836 843 1658
881 867 1882
926 892 2105
972 916 2329
1017 941 2553
1062 965 2776
1107 990 3000
1152 1014 3224
1197 1039 3447
1243 1063 3671
618 880 120
663 904 344
708 929 568
754 953 791
799 978 1015
844 1002 1238
889 1027 1462
934 1051 1686
979 1076 1909
1025 1100 2133
1070 1125 2357
1115 1149 2580
1160 1174 2804
1205 1198 3028
1251 1223 3251
1296 1247 3475
1341 1272 3699
716 1088 148
761 1113 372
807 1137 595
852 1162 819
897 1186 1043
942 1211 1266
987 1235 1490
1033 1260 1714
1078 1284 1937
1123 1309 2161
1168 1333 2385
1213 1358 2608
1258 1382 2832
1304 1407 3056
1349 1431 3279
1394 1456 3503
1439 1480 3726
815 1297 176
860 1321 400
905 1346 623
950 1370 847
995 1395 1071
1040 1419 1294
1086 1444 1518
1131 1468 1741
1176 1493 1965
1221 1517 2189
1266 1542 2412
1311 1566 2636
1357 1591 2860
1402 1615 3083
1447 1640 3307
1492 1664 3531
1537 1689 3754
913 1505 204
958 1530 427
1003 1554 651
1048 1579 875
1094 1603 1098
1139 1628 1322
1184 1652 1546
1229 1677 1769
1274 1701 1993
1319 1726 2217
1365 1750 2440
1410 1775 2664
1455 1799 2888
1500 1824 3111
1545 1848 3335
1590 1873 3558
1636 1897 3782
1011 1714 232
1056 1738 455
1101 1763 679
1147 1787 903
1192 1812 1126
1237 1836 1350
1282 1861 1573
1327 1885 1797
1372 1910 2021
1418 1934 2244
1463 1959 2468
1508 1983 2692
1553 2008 2915
1598 2032 3139
1644 2057 3363
1689 2081 3586
1734 2106 3810
1109 1923 259
1155 1947 483
1200 1971 707
1245 1996 930
1290 2020 1154
1335 2045 1378
1380 2069 1601
1426 2094 1825
1471 2118 2049
1516 2143 2272
1561 2167 2496
1606 2192 2720
1651 2216 2943
1697 2241 3167
1742 2265 3391
1787 2290 3614
1832 2314 3838
1208 2131 287
1253 2156 511
1298 2180 735
1343 2204 958
1388 2229 1182
1433 2253 1405
1479 2278 1629
1524 2302 1853
1569 2327 2076
1614 2351 2300
1659 2376 2524
1705 2400 2747
1750 2425 2971
1795 2449 3195
1840 2474 3418
1885 2498 3642
1930 2523 3866
1306 2340 315
1351 2364 539
1396 2389 762
1441 2413 986
1487 2437 1210
1532 2462 1433
1577 2486 1657
1622 2511 1881
1667 2535 2104
1712 2560 2328
1758 2584 2552
1803 2609 2775
1848 2633 2999
1893 2658 3223
1938 2682 3446
1983 2707 3670
2029 2731 3893
1404 2548 343
1449 2573 567
1494 2597 790
1540 2622 1014
1585 2646 1237
1630 2670 1461
1675 2695 1685
1720 2719 1908
1766 2744 2132
1811 2768 2356
1856 2793 2579
1901 2817 2803
1946 2842 3027
1991 2866 3250
2037 2891 3474
2082 2915 3698
2127 2940 3921
1502 2757 371
1548 2781 594
1593 2806 818
1638 2830 1042
1683 2855 1265
1728 2879 1489
1773 2904 1713
1819 2928 1936
1864 2952 2160
1909 2977 2384
1954 3001 2607
1999 3026 2831
2044 3050 3055
2090 3075 3278
2135 3099 3502
2180 3124 3725
2225 3148 3949
1601 2965 399
1646 2990 622
1691 3014 846
1736 3039 1069
1781 3063 1293
1827 3088 1517
1872 3112 1740
1917 3137 1964
1962 3161 2188
2007 3185 2411
2052 3210 2635
2098 3234 2859
2143 3259 3082
2188 3283 3306
2233 3308 3530
2278 3332 3753
2323 3357 3977
1699 3174 426
1744 3198 650
1789 3223 874
1834 3247 1097
1880 3272 1321
1925 3296 1545
1970 3321 1768
2015 3345 1992
2060 3370 2216
2105 3394 2439
2151 3418 2663
2196 3443 2887
2241 3467 3110
2286 3492 3334
2331 3516 3557
2377 3541 3781
2422 3565 4005
1797 3382 454
1842 3407 678
1887 3431 901
1933 3456 1125
1978 3480 1349
2023 3505 1572
2068 3529 1796
2113 3554 2020
2159 3578 2243
2204 3603 2467
2249 3627 2691
2294 3652 2914
2339 3676 3138
2384 3700 3362
2430 3725 3585
2475 3749 3809
2520 3774 4033
338 69 13
383 93 237
428 118 461
473 142 684
518 167 908
563 191 1132
609 216 1355
654 240 1579
699 265 1803
744 289 2026
789 314 2250
834 338 2474
880 363 2697
925 387 2921
970 412 3144
1015 436 3368
1060 461 3592
436 277 41
481 302 265
526 326 489
571 351 712
616 375 936
662 400 1159
707 424 1383
752 449 1607
797 473 1830
842 498 2054
888 522 2278
933 547 2501
978 571 2725
1023 596 2949
1068 620 3172
1113 645 3396
