src/resources/luts/linear_to_filmic-sRGB-MediumLow.3dl
0 64 128 192 256 320 384 448 512 575 639 703 767 831 895 959 1023
0 0 0
0 0 1338
0 0 1790
0 0 2077
0 0 2280
0 0 2437
0 0 2565
0 0 2671
0 0 2762
0 0 2840
0 0 2909
0 0 2970
0 0 3025
0 0 3074
0 0 3119
0 0 3160
0 0 3197
0 1338 0
0 1338 1338
0 1338 1790
0 1338 2077
0 1338 2280
0 1338 2437
0 1338 2565
0 1338 2671
0 1338 2762
0 1338 2840
0 1338 2909
0 1338 2970
0 1338 3025
0 1338 3074
0 1338 3119
0 1338 3160
0 1338 3197
0 1790 0
0 1790 1338
0 1790 1790
0 1790 2077
0 1790 2280
0 1790 2437
0 1790 2565
0 1790 2671
0 1790 2762
0 1790 2840
0 1790 2909
0 1790 2970
0 1790 3025
0 1790 3074
0 1790 3119
0 1790 3160
0 1790 3197
0 2077 0
0 2077 1338
0 2077 1790
0 2077 2077
0 2077 2280
0 2077 2437
0 2077 2565
0 2077 2671
0 2077 2762
0 2077 2840
0 2077 2909
0 2077 2970
0 2077 3025
0 2077 3074
0 2077 3119
0 2077 3160
0 2077 3197
0 2280 0
0 2280 1338
0 2280 1790
0 2280 2077
0 2280 2280
0 2280 2437
0 2280 2565
0 2280 2671
0 2280 2762
0 2280 2840
0 2280 2909
0 2280 2970
0 2280 3025
0 2280 3074
0 2280 3119
0 2280 3160
0 2280 3197
0 2437 0
0 2437 1338
0 2437 1790
0 2437 2077
0 2437 2280
0 2437 2437
0 2437 2565
0 2437 2671
0 2437 2762
0 2437 2840
0 2437 2909
0 2437 2970
0 2437 3025
0 2437 3074
0 2437 3119
0 2437 3160
0 2437 3197
0 2565 0
0 2565 1338
0 2565 1790
0 2565 2077
0 2565 2280
0 2565 2437
0 2565 2565
0 2565 2671
0 2565 2762
0 2565 2840
0 2565 2909
0 2565 2970
0 2565 3025
0 2565 3074
0 2565 3119
0 2565 3160
0 2565 3197
0 2671 0
0 2671 1338
0 2671 1790
0 2671 2077
0 2671 2280
0 2671 2437
0 2671 2565
0 2671 2671
0 2671 2762
0 2671 2840
0 2671 2909
0 2671 2970
0 2671 3025
0 2671 3074
0 2671 3119
0 2671 3160
0 2671 3197
0 2762 0
0 2762 1338
0 2762 1790
0 2762 2077
0 2762 2280
0 2762 2437
0 2762 2565
0 2762 2671
0 2762 2762
0 2762 2840
0 2762 2909
0 2762 2970
0 2762 3025
0 2762 3074
0 2762 3119
0 2762 3160
0 2762 3197
0 2840 0
0 2840 1338
0 2840 1790
0 2840 2077
0 2840 2280
0 2840 2437
0 2840 2565
0 2840 2671
0 2840 2762
0 2840 2840
0 2840 2909
0 2840 2970
0 2840 3025
0 2840 3074
0 2840 3119
0 2840 3160
0 2840 3197
0 2909 0
0 2909 1338
0 2909 1790
0 2909 2077
0 2909 2280
0 2909 2437
0 2909 2565
0 2909 2671
0 2909 2762
0 2909 2840
0 2909 2909
0 2909 2970
0 2909 3025
0 2909 3074
0 2909 3119
0 2909 3160
0 2909 3197
0 2970 0
0 2970 1338
0 2970 1790
0 2970 2077
0 2970 2280
0 2970 2437
0 2970 2565
0 2970 2671
0 2970 2762
0 2970 2840
0 2970 2909
0 2970 2970
0 2970 3025
0 2970 3074
0 2970 3119
0 2970 3160
0 2970 3197
0 3025 0
0 3025 1338
0 3025 1790
0 3025 2077
0 3025 2280
0 3025 2437
0 3025 2565
0 3025 2671
0 3025 2762
0 3025 2840
0 3025 2909
0 3025 2970
0 3025 3025
0 3025 3074
0 3025 3119
0 3025 3160
0 3025 3197
0 3074 0
0 3074 1338
0 3074 1790
0 3074 2077
0 3074 2280
0 3074 2437
0 3074 2565
0 3074 2671
0 3074 2762
0 3074 2840
0 3074 2909
0 3074 2970
0 3074 3025
0 3074 3074
0 3074 3119
0 3074 3160
0 3074 3197
0 3119 0
0 3119 1338
0 3119 1790
0 3119 2077
0 3119 2280
0 3119 2437
0 3119 2565
0 3119 2671
0 3119 2762
0 3119 2840
0 3119 2909
0 3119 2970
0 3119 3025
0 3119 3074
0 3119 3119
0 3119 3160
0 3119 3197
0 3160 0
0 3160 1338
0 3160 1790
0 3160 2077
0 3160 2280
0 3160 2437
0 3160 2565
0 3160 2671
0 3160 2762
0 3160 2840
0 3160 2909
0 3160 2970
0 3160 3025
0 3160 3074
0 3160 3119
0 3160 3160
0 3160 3197
0 3197 0
0 3197 1338
0 3197 1790
0 3197 2077
0 3197 2280
0 3197 2437
0 3197 2565
0 3197 2671
0 3197 2762
0 3197 2840
0 3197 2909
0 3197 2970
0 3197 3025
0 3197 3074
0 3197 3119
0 3197 3160
0 3197 3197
1338 0 0
1338 0 1338
1338 0 1790
1338 0 2077
1338 0 2280
1338 0 2437
1338 0 2565
1338 0 2671
1338 0 2762
1338 0 2840
1338 0 2909
1338 0 2970
1338 0 3025
1338 0 3074
1338 0 3119
1338 0 3160
1338 0 3197
1338 1338 0
1338 1338 1338
1338 1338 1790
1338 1338 2077
1338 1338 2280
1338 1338 2437
1338 1338 2565
1338 1338 2671
1338 1338 2762
1338 1338 2840
1338 1338 2909
1338 1338 2970
1338 1338 3025
1338 1338 3074
1338 1338 3119
1338 1338 3160
1338 1338 3197
1338 1790 0
1338 1790 1338
1338 1790 1790
1338 1790 2077
1338 1790 2280
1338 1790 2437
1338 1790 2565
1338 1790 2671
1338 1790 2762
1338 1790 2840
1338 1790 2909
1338 1790 2970
1338 1790 3025
1338 1790 3074
1338 1790 3119
1338 1790 3160
1338 1790 3197
1338 2077 0
1338 2077 1338
1338 2077 1790
1338 2077 2077
1338 2077 2280
1338 2077 2437
1338 2077 2565
1338 2077 2671
1338 2077 2762
1338 2077 2840
1338 2077 2909
1338 2077 2970
1338 2077 3025
1338 2077 3074
1338 2077 3119
1338 2077 3160
1338 2077 3197
1338 2280 0
1338 2280 1338
1338 2280 1790
1338 2280 2077
1338 2280 2280
1338 2280 2437
1338 2280 2565
1338 2280 2671
1338 2280 2762
1338 2280 2840
1338 2280 2909
1338 2280 2970
1338 2280 3025
1338 2280 3074
1338 2280 3119
1338 2280 3160
1338 2280 3197
1338 2437 0
1338 2437 1338
1338 2437 1790
1338 2437 2077
1338 2437 2280
1338 2437 2437
1338 2437 2565
1338 2437 2671
1338 2437 2762
1338 2437 2840
1338 2437 2909
1338 2437 2970
1338 2437 3025
1338 2437 3074
1338 2437 3119
1338 2437 3160
1338 2437 3197
1338 2565 0
1338 2565 1338
1338 2565 1790
1338 2565 2077
1338 2565 2280
1338 2565 2437
1338 2565 2565
1338 2565 2671
1338 2565 2762
1338 2565 2840
1338 2565 2909
1338 2565 2970
1338 2565 3025
1338 2565 3074
1338 2565 3119
1338 2565 3160
1338 2565 3197
1338 2671 0
1338 2671 1338
1338 2671 1790
1338 2671 2077
1338 2671 2280
1338 2671 2437
1338 2671 2565
1338 2671 2671
1338 2671 2762
1338 2671 2840
1338 2671 2909
1338 2671 2970
1338 2671 3025
1338 2671 3074
1338 2671 3119
1338 2671 3160
1338 2671 3197
1338 2762 0
1338 2762 1338
1338 2762 1790
1338 2762 2077
1338 2762 2280
1338 2762 2437
1338 2762 2565
1338 2762 2671
1338 2762 2762
1338 2762 2840
1338 2762 2909
1338 2762 2970
1338 2762 3025
1338 2762 3074
1338 2762 3119
1338 2762 3160
1338 2762 3197
1338 2840 0
1338 2840 1338
1338 2840 1790
1338 2840 2077
1338 2840 2280
1338 2840 2437
1338 2840 2565
1338 2840 2671
1338 2840 2762
1338 2840 2840
1338 2840 2909
1338 2840 2970
1338 2840 3025
1338 2840 3074
1338 2840 3119
1338 2840 3160
1338 2840 3197
1338 2909 0
1338 2909 1338
1338 2909 1790
1338 2909 2077
1338 2909 2280
1338 2909 2437
1338 2909 2565
1338 2909 2671
1338 2909 2762
1338 2909 2840
1338 2909 2909
1338 2909 2970
1338 2909 3025
1338 2909 3074
1338 2909 3119
1338 2909 3160
1338 2909 3197
1338 2970 0
1338 2970 1338
1338 2970 1790
1338 2970 2077
1338 2970 2280
1338 2970 2437
1338 2970 2565
1338 2970 2671
1338 2970 2762
1338 2970 2840
1338 2970 2909
1338 2970 2970
1338 2970 3025
1338 2970 3074
1338 2970 3119
1338 2970 3160
1338 2970 3197
1338 3025 0
1338 3025 1338
1338 3025 1790
1338 3025 2077
1338 3025 2280
1338 3025 2437
1338 3025 2565
1338 3025 2671
1338 3025 2762
1338 3025 2840
1338 3025 2909
1338 3025 2970
1338 3025 3025
1338 3025 3074
1338 3025 3119
1338 3025 3160
1338 3025 3197
1338 3074 0
1338 3074 1338
1338 3074 1790
1338 3074 2077
1338 3074 2280
1338 3074 2437
1338 3074 2565
1338 3074 2671
1338 3074 2762
1338 3074 2840
1338 3074 2909
1338 3074 2970
1338 3074 3025
1338 3074 3074
1338 3074 3119
1338 3074 3160
1338 3074 3197
1338 3119 0
1338 3119 1338
1338 3119 1790
1338 3119 2077
1338 3119 2280
1338 3119 2437
1338 3119 2565
1338 3119 2671
1338 3119 2762
1338 3119 2840
1338 3119 2909
1338 3119 2970
1338 3119 3025
1338 3119 3074
1338 3119 3119
1338 3119 3160
1338 3119 3197
1338 3160 0
1338 3160 1338
1338 3160 1790
1338 3160 2077
1338 3160 2280
1338 3160 2437
1338 3160 2565
1338 3160 2671
1338 3160 2762
1338 3160 2840
1338 3160 2909
1338 3160 2970
1338 3160 3025
1338 3160 3074
1338 3160 3119
1338 3160 3160
1338 3160 3197
1338 3197 0
1338 3197 1338
1338 3197 1790
1338 3197 2077
1338 3197 2280
1338 3197 2437
1338 3197 2565
1338 3197 2671
1338 3197 2762
1338 3197 2840
1338 3197 2909
1338 3197 2970
1338 3197 3025
1338 3197 3074
1338 3197 3119
1338 3197 3160
1338 3197 3197
1790 0 0
1790 0 1338
1790 0 1790
1790 0 2077
1790 0 2280
1790 0 2437
1790 0 2565
1790 0 2671
1790 0 2762
1790 0 2840
1790 0 2909
1790 0 2970
1790 0 3025
1790 0 3074
1790 0 3119
1790 0 3160
1790 0 3197
1790 1338 0
1790 1338 1338
1790 1338 1790
1790 1338 2077
1790 1338 2280
1790 1338 2437
1790 1338 2565
1790 1338 2671
1790 1338 2762
1790 1338 2840
1790 1338 2909
1790 1338 2970
1790 1338 3025
1790 1338 3074
1790 1338 3119
1790 1338 3160
1790 1338 3197
1790 1790 0
1790 1790 1338
1790 1790 1790
1790 1790 2077
1790 1790 2280
1790 1790 2437
1790 1790 2565
1790 1790 2671
1790 1790 2762
1790 1790 2840
1790 1790 2909
1790 1790 2970
1790 1790 3025
1790 1790 3074
1790 1790 3119
1790 1790 3160
1790 1790 3197
1790 2077 0
1790 2077 1338
1790 2077 1790
1790 2077 2077
1790 2077 2280
1790 2077 2437
1790 2077 2565
1790 2077 2671
1790 2077 2762
1790 2077 2840
1790 2077 2909
1790 2077 2970
1790 2077 3025
1790 2077 3074
1790 2077 3119
1790 2077 3160
1790 2077 3197
1790 2280 0
1790 2280 1338
1790 2280 1790
1790 2280 2077
1790 2280 2280
1790 2280 2437
1790 2280 2565
1790 2280 2671
1790 2280 2762
1790 2280 2840
1790 2280 2909
1790 2280 2970
1790 2280 3025
1790 2280 3074
1790 2280 3119
1790 2280 3160
1790 2280 3197
1790 2437 0
1790 2437 1338
1790 2437 1790
1790 2437 2077
1790 2437 2280
1790 2437 2437
1790 2437 2565
1790 2437 2671
1790 2437 2762
1790 2437 2840
1790 2437 2909
1790 2437 2970
1790 2437 3025
1790 2437 3074
1790 2437 3119
1790 2437 3160
1790 2437 3197
1790 2565 0
1790 2565 1338
1790 2565 1790
1790 2565 2077
1790 2565 2280
1790 2565 2437
1790 2565 2565
1790 2565 2671
1790 2565 2762
1790 2565 2840
1790 2565 2909
1790 2565 2970
1790 2565 3025
1790 2565 3074
1790 2565 3119
1790 2565 3160
1790 2565 3197
1790 2671 0
1790 2671 1338
1790 2671 1790
1790 2671 2077
1790 2671 2280
1790 2671 2437
1790 2671 2565
1790 2671 2671
1790 2671 2762
1790 2671 2840
1790 2671 2909
1790 2671 2970
1790 2671 3025
1790 2671 3074
1790 2671 3119
1790 2671 3160
1790 2671 3197
1790 2762 0
1790 2762 1338
1790 2762 1790
1790 2762 2077
1790 2762 2280
1790 2762 2437
1790 2762 2565
1790 2762 2671
1790 2762 2762
1790 2762 2840
1790 2762 2909
1790 2762 2970
1790 2762 3025
1790 2762 3074
1790 2762 3119
1790 2762 3160
1790 2762 3197
1790 2840 0
1790 2840 1338
1790 2840 1790
1790 2840 2077
1790 2840 2280
1790 2840 2437
1790 2840 2565
1790 2840 2671
1790 2840 2762
1790 2840 2840
1790 2840 2909
1790 2840 2970
1790 2840 3025
1790 2840 3074
1790 2840 3119
1790 2840 3160
1790 2840 3197
1790 2909 0
1790 2909 1338
1790 2909 1790
1790 2909 2077
1790 2909 2280
1790 2909 2437
1790 2909 2565
1790 2909 2671
1790 2909 2762
1790 2909 2840
1790 2909 2909
1790 2909 2970
1790 2909 3025
1790 2909 3074
1790 2909 3119
1790 2909 3160
1790 2909 3197
1790 2970 0
1790 2970 1338
1790 2970 1790
1790 2970 2077
1790 2970 2280
1790 2970 2437
1790 2970 2565
1790 2970 2671
1790 2970 2762
1790 2970 2840
1790 2970 2909
1790 2970 2970
1790 2970 3025
1790 2970 3074
1790 2970 3119
1790 2970 3160
1790 2970 3197
1790 3025 0
1790 3025 1338
1790 3025 1790
1790 3025 2077
1790 3025 2280
1790 3025 2437
1790 3025 2565
1790 3025 2671
1790 3025 2762
1790 3025 2840
1790 3025 2909
1790 3025 2970
1790 3025 3025
1790 3025 3074
1790 3025 3119
1790 3025 3160
1790 3025 3197
1790 3074 0
1790 3074 1338
1790 3074 1790
1790 3074 2077
1790 3074 2280
1790 3074 2437
1790 3074 2565
1790 3074 2671
1790 3074 2762
1790 3074 2840
1790 3074 2909
1790 3074 2970
1790 3074 3025
1790 3074 3074
1790 3074 3119
1790 3074 3160
1790 3074 3197
1790 3119 0
1790 3119 1338
1790 3119 1790
1790 3119 2077
1790 3119 2280
1790 3119 2437
1790 3119 2565
1790 3119 2671
1790 3119 2762
1790 3119 2840
1790 3119 2909
1790 3119 2970
1790 3119 3025
1790 3119 3074
1790 3119 3119
1790 3119 3160
1790 3119 3197
1790 3160 0
1790 3160 1338
1790 3160 1790
1790 3160 2077
1790 3160 2280
1790 3160 2437
1790 3160 2565
1790 3160 2671
1790 3160 2762
1790 3160 2840
1790 3160 2909
1790 3160 2970
1790 3160 3025
1790 3160 3074
1790 3160 3119
1790 3160 3160
1790 3160 3197
1790 3197 0
1790 3197 1338
1790 3197 1790
1790 3197 2077
1790 3197 2280
1790 3197 2437
1790 3197 2565
1790 3197 2671
1790 3197 2762
1790 3197 2840
1790 3197 2909
1790 3197 2970
1790 3197 3025
1790 3197 3074
1790 3197 3119
1790 3197 3160
1790 3197 3197
2077 0 0
2077 0 1338
2077 0 1790
2077 0 2077
2077 0 2280
2077 0 2437
2077 0 2565
2077 0 2671
2077 0 2762
2077 0 2840
2077 0 2909
2077 0 2970
2077 0 3025
2077 0 3074
2077 0 3119
2077 0 3160
2077 0 3197
2077 1338 0
2077 1338 1338
2077 1338 1790
2077 1338 2077
2077 1338 2280
2077 1338 2437
2077 1338 2565
2077 1338 2671
2077 1338 2762
2077 1338 2840
2077 1338 2909
2077 1338 2970
2077 1338 3025
2077 1338 3074
2077 1338 3119
2077 1338 3160
