src/resources/luts/linear_to_filmic-sRGB-MediumHigh.3dl
0 256 512 767 1023
0 0 0
0 0 2349
0 0 2943
0 0 3237
0 0 3415
0 2349 0
0 2349 2349
0 2349 2943
0 2349 3237
0 2349 3415
0 2943 0
0 2943 2349
0 2943 2943
0 2943 3237
0 2943 3415
0 3237 0
0 3237 2349
0 3237 2943
0 3237 3237
0 3237 3415
0 3415 0
0 3415 2349
0 3415 2943
0 3415 3237
0 3415 3415
2349 0 0
2349 0 2349
2349 0 2943
2349 0 3237
2349 0 3415
2349 2349 0
2349 2349 2349
2349 2349 2943
2349 2349 3237
2349 2349 3415
2349 2943 0
2349 2943 2349
2349 2943 2943
2349 2943 3237
2349 2943 3415
2349 3237 0
2349 3237 2349
2349 3237 2943
2349 3237 3237
2349 3237 3415
2349 3415 0
2349 3415 2349
2349 3415 2943
2349 3415 3237
2349 3415 3415
2943 0 0
2943 0 2349
2943 0 2943
2943 0 3237
2943 0 3415
2943 2349 0
2943 2349 2349
2943 2349 2943
2943 2349 3237
2943 2349 3415
2943 2943 0
2943 2943 2349
2943 2943 2943
2943 2943 3237
2943 2943 3415
2943 3237 0
2943 3237 2349
2943 3237 2943
2943 3237 3237
2943 3237 3415
2943 3415 0
2943 3415 2349
2943 3415 2943
2943 3415 3237
2943 3415 3415
3237 0 0
3237 0 2349
3237 0 2943
3237 0 3237
3237 0 3415
3237 2349 0
3237 2349 2349
3237 2349 2943
3237 2349 3237
3237 2349 3415
3237 2943 0
3237 2943 2349
3237 2943 2943
3237 2943 3237
3237 2943 3415
3237 3237 0
3237 3237 2349
3237 3237 2943
3237 3237 3237
3237 3237 3415
3237 3415 0
3237 3415 2349
3237 3415 2943
3237 3415 3237
3237 3415 3415
3415 0 0
3415 0 2349
3415 0 2943
3415 0 3237
3415 0 3415
3415 2349 0
3415 2349 2349
3415 2349 2943
3415 2349 3237
3415 2349 3415
3415 2943 0
3415 2943 2349
3415 2943 2943
3415 2943 3237
3415 2943 3415
3415 3237 0
3415 3237 2349
3415 3237 2943
3415 3237 3237
3415 3237 3415
3415 3415 0
3415 3415 2349
3415 3415 2943
3415 3415 3237
3415 3415 3415
