src/resources/luts/linear_to_filmic-sRGB-VeryLow.3dl
0 256 512 767 1023
0 0 0
0 0 2222
0 0 2605
0 0 2831
0 0 2990
0 2222 0
0 2222 2222
0 2222 2605
0 2222 2831
0 2222 2990
0 2605 0
0 2605 2222
0 2605 2605
0 2605 2831
0 2605 2990
0 2831 0
0 2831 2222
0 2831 2605
0 2831 2831
0 2831 2990
0 2990 0
0 2990 2222
0 2990 2605
0 2990 2831
0 2990 2990
2222 0 0
2222 0 2222
2222 0 2605
2222 0 2831
2222 0 2990
2222 2222 0
2222 2222 2222
2222 2222 2605
2222 2222 2831
2222 2222 2990
2222 2605 0
2222 2605 2222
2222 2605 2605
2222 2605 2831
2222 2605 2990
2222 2831 0
2222 2831 2222
2222 2831 2605
2222 2831 2831
2222 2831 2990
2222 2990 0
2222 2990 2222
2222 2990 2605
2222 2990 2831
2222 2990 2990
2605 0 0
2605 0 2222
2605 0 2605
2605 0 2831
2605 0 2990
2605 2222 0
2605 2222 2222
2605 2222 2605
2605 2222 2831
2605 2222 2990
2605 2605 0
2605 2605 2222
2605 2605 2605
2605 2605 2831
2605 2605 2990
2605 2831 0
2605 2831 2222
2605 2831 2605
2605 2831 2831
2605 2831 2990
2605 2990 0
2605 2990 2222
2605 2990 2605
2605 2990 2831
2605 2990 2990
2831 0 0
2831 0 2222
2831 0 2605
2831 0 2831
2831 0 2990
2831 2222 0
2831 2222 2222
2831 2222 2605
2831 2222 2831
2831 2222 2990
2831 2605 0
2831 2605 2222
2831 2605 2605
2831 2605 2831
2831 2605 2990
2831 2831 0
2831 2831 2222
2831 2831 2605
2831 2831 2831
2831 2831 2990
2831 2990 0
2831 2990 2222
2831 2990 2605
2831 2990 2831
2831 2990 2990
2990 0 0
2990 0 2222
2990 0 2605
2990 0 2831
2990 0 2990
2990 2222 0
2990 2222 2222
2990 2222 2605
2990 2222 2831
2990 2222 2990
2990 2605 0
2990 2605 2222
2990 2605 2605
2990 2605 2831
2990 2605 2990
2990 2831 0
2990 2831 2222
2990 2831 2605
2990 2831 2831
2990 2831 2990
2990 2990 0
2990 2990 2222
2990 2990 2605
2990 2990 2831
2990 2990 2990
