src/resources/luts/linear-ACES_to_linear-RGB.3dl
0 64 128 192 256 320 384 448 512 575 639 703 767 831 895 959 1023
0 0 0
0 0 298
0 0 596
0 0 894
0 0 1191
0 0 1489
0 0 1787
0 0 2085
0 0 2383
0 0 2681
0 0 2979
0 0 3276
0 0 3574
0 0 3872
0 0 4095
0 0 4095
0 0 4095
0 351 0
0 326 260
0 302 558
0 278 856
0 254 1154
0 230 1451
0 206 1749
0 182 2047
0 157 2345
0 133 2643
0 109 2941
0 85 3239
0 61 3536
0 37 3834
0 12 4095
0 0 4095
0 0 4095
0 701 0
0 677 222
0 653 520
0 629 818
0 605 1116
0 580 1414
0 556 1711
0 532 2009
0 508 2307
0 484 2605
0 460 2903
0 436 3201
0 411 3499
0 387 3796
0 363 4094
0 339 4095
0 315 4095
0 1052 0
0 1028 184
0 1003 482
0 979 780
0 955 1078
0 931 1376
0 907 1674
0 883 1971
0 859 2269
0 834 2567
0 810 2865
0 786 3163
0 762 3461
0 738 3759
0 714 4056
0 690 4095
0 665 4095
0 1402 0
0 1378 147
0 1354 444
0 1330 742
0 1306 1040
0 1282 1338
0 1257 1636
0 1233 1934
0 1209 2232
0 1185 2529
0 1161 2827
0 1137 3125
0 1113 3423
0 1088 3721
0 1064 4019
0 1040 4095
0 1016 4095
0 1753 0
0 1729 109
0 1705 407
0 1681 704
0 1656 1002
0 1632 1300
0 1608 1598
0 1584 1896
0 1560 2194
0 1536 2492
0 1511 2789
0 1487 3087
0 1463 3385
0 1439 3683
0 1415 3981
0 1391 4095
0 1367 4095
0 2104 0
0 2079 71
0 2055 369
0 2031 667
0 2007 964
0 1983 1262
0 1959 1560
0 1935 1858
0 1910 2156
0 1886 2454
0 1862 2752
0 1838 3049
0 1814 3347
0 1790 3645
0 1765 3943
0 1741 4095
0 1717 4095
0 2454 0
0 2430 33
0 2406 331
0 2382 629
0 2358 927
0 2333 1224
0 2309 1522
0 2285 1820
0 2261 2118
0 2237 2416
0 2213 2714
0 2188 3012
0 2164 3309
0 2140 3607
0 2116 3905
0 2092 4095
0 2068 4095
0 2805 0
0 2781 0
0 2756 293
0 2732 591
0 2708 889
0 2684 1187
0 2660 1485
0 2636 1782
0 2612 2080
0 2587 2378
0 2563 2676
0 2539 2974
0 2515 3272
0 2491 3569
0 2467 3867
0 2442 4095
0 2418 4095
0 3155 0
0 3131 0
0 3107 255
0 3083 553
0 3059 851
0 3035 1149
0 3010 1447
0 2986 1745
0 2962 2042
0 2938 2340
0 2914 2638
0 2890 2936
0 2866 3234
0 2841 3532
0 2817 3830
0 2793 4095
0 2769 4095
0 3506 0
0 3482 0
0 3458 217
0 3433 515
0 3409 813
0 3385 1111
0 3361 1409
0 3337 1707
0 3313 2005
0 3289 2302
0 3264 2600
0 3240 2898
0 3216 3196
0 3192 3494
0 3168 3792
0 3144 4090
0 3120 4095
0 3857 0
0 3832 0
0 3808 180
0 3784 477
0 3760 775
0 3736 1073
0 3712 1371
0 3687 1669
0 3663 1967
0 3639 2265
0 3615 2562
0 3591 2860
0 3567 3158
0 3543 3456
0 3518 3754
0 3494 4052
0 3470 4095
0 4095 0
0 4095 0
0 4095 142
0 4095 440
0 4095 738
0 4086 1035
0 4062 1333
0 4038 1631
0 4014 1929
0 3990 2227
0 3966 2525
0 3941 2822
0 3917 3120
0 3893 3418
0 3869 3716
0 3845 4014
0 3821 4095
0 4095 0
0 4095 0
0 4095 104
0 4095 402
0 4095 700
0 4095 998
0 4095 1295
0 4095 1593
0 4095 1891
0 4095 2189
0 4095 2487
0 4095 2785
0 4095 3083
0 4095 3380
0 4095 3678
0 4095 3976
0 4095 4095
0 4095 0
0 4095 0
0 4095 66
0 4095 364
0 4095 662
0 4095 960
0 4095 1258
0 4095 1555
0 4095 1853
0 4095 2151
0 4095 2449
0 4095 2747
0 4095 3045
0 4095 3343
0 4095 3640
0 4095 3938
0 4095 4095
0 4095 0
0 4095 0
0 4095 28
0 4095 326
0 4095 624
0 4095 922
0 4095 1220
0 4095 1518
0 4095 1815
0 4095 2113
0 4095 2411
0 4095 2709
0 4095 3007
0 4095 3305
0 4095 3603
0 4095 3900
0 4095 4095
0 4095 0
0 4095 0
0 4095 0
0 4095 288
0 4095 586
0 4095 884
0 4095 1182
0 4095 1480
0 4095 1778
0 4095 2075
0 4095 2373
0 4095 2671
0 4095 2969
0 4095 3267
0 4095 3565
0 4095 3863
0 4095 4095
645 0 0
547 0 294
448 0 592
350 0 889
251 0 1187
153 0 1485
54 0 1783
0 0 2081
0 0 2379
0 0 2677
0 0 2974
0 0 3272
0 0 3570
0 0 3868
0 0 4095
0 0 4095
0 0 4095
354 280 0
256 256 256
157 232 554
59 208 852
0 183 1149
0 159 1447
0 135 1745
0 111 2043
0 87 2341
0 63 2639
0 39 2937
0 14 3234
0 0 3532
0 0 3830
0 0 4095
0 0 4095
0 0 4095
63 631 0
0 607 218
0 582 516
0 558 814
0 534 1112
0 510 1410
0 486 1707
0 462 2005
0 437 2303
0 413 2601
0 389 2899
0 365 3197
0 341 3494
0 317 3792
0 293 4090
0 268 4095
0 244 4095
0 981 0
0 957 180
0 933 478
0 909 776
0 885 1074
0 861 1372
0 836 1670
0 812 1967
0 788 2265
0 764 2563
0 740 2861
0 716 3159
0 691 3457
0 667 3755
0 643 4052
0 619 4095
0 595 4095
0 1332 0
0 1308 142
0 1284 440
0 1259 738
0 1235 1036
0 1211 1334
0 1187 1632
0 1163 1930
0 1139 2227
0 1115 2525
0 1090 2823
0 1066 3121
0 1042 3419
0 1018 3717
0 994 4015
0 970 4095
0 945 4095
0 1682 0
0 1658 105
0 1634 402
0 1610 700
0 1586 998
0 1562 1296
0 1538 1594
0 1513 1892
0 1489 2190
0 1465 2487
0 1441 2785
0 1417 3083
0 1393 3381
0 1369 3679
0 1344 3977
0 1320 4095
0 1296 4095
0 2033 0
0 2009 67
0 1985 365
0 1961 663
0 1936 960
0 1912 1258
0 1888 1556
0 1864 1854
0 1840 2152
0 1816 2450
0 1792 2747
0 1767 3045
0 1743 3343
0 1719 3641
0 1695 3939
0 1671 4095
0 1647 4095
0 2384 0
0 2359 29
0 2335 327
0 2311 625
0 2287 923
0 2263 1220
0 2239 1518
0 2215 1816
0 2190 2114
0 2166 2412
0 2142 2710
0 2118 3008
0 2094 3305
0 2070 3603
0 2046 3901
0 2021 4095
0 1997 4095
0 2734 0
0 2710 0
0 2686 289
0 2662 587
0 2638 885
0 2613 1183
0 2589 1480
0 2565 1778
0 2541 2076
0 2517 2374
0 2493 2672
0 2469 2970
0 2444 3268
0 2420 3565
0 2396 3863
0 2372 4095
0 2348 4095
0 3085 0
0 3061 0
0 3037 251
0 3012 549
0 2988 847
0 2964 1145
0 2940 1443
0 2916 1740
0 2892 2038
0 2867 2336
0 2843 2634
0 2819 2932
0 2795 3230
0 2771 3528
0 2747 3825
0 2723 4095
0 2698 4095
0 3435 0
0 3411 0
0 3387 213
0 3363 511
0 3339 809
0 3315 1107
0 3291 1405
0 3266 1703
0 3242 2000
0 3218 2298
0 3194 2596
0 3170 2894
0 3146 3192
0 3121 3490
0 3097 3788
0 3073 4085
0 3049 4095
0 3786 0
0 3762 0
0 3738 176
0 3714 473
0 3689 771
0 3665 1069
0 3641 1367
0 3617 1665
0 3593 1963
0 3569 2261
0 3545 2558
0 3520 2856
0 3496 3154
0 3472 3452
0 3448 3750
0 3424 4048
0 3400 4095
0 4095 0
0 4095 0
0 4088 138
0 4064 436
0 4040 733
0 4016 1031
0 3992 1329
0 3968 1627
0 3943 1925
0 3919 2223
0 3895 2521
0 3871 2818
0 3847 3116
0 3823 3414
0 3798 3712
0 3774 4010
0 3750 4095
0 4095 0
0 4095 0
0 4095 100
0 4095 398
0 4095 696
0 4095 993
0 4095 1291
0 4095 1589
0 4095 1887
0 4095 2185
0 4095 2483
0 4095 2781
0 4095 3078
0 4095 3376
0 4095 3674
0 4095 3972
0 4095 4095
0 4095 0
0 4095 0
0 4095 62
0 4095 360
0 4095 658
0 4095 956
0 4095 1253
0 4095 1551
0 4095 1849
0 4095 2147
0 4095 2445
0 4095 2743
0 4095 3041
0 4095 3338
0 4095 3636
0 4095 3934
0 4095 4095
0 4095 0
0 4095 0
0 4095 24
0 4095 322
0 4095 620
0 4095 918
0 4095 1216
0 4095 1513
0 4095 1811
0 4095 2109
0 4095 2407
0 4095 2705
0 4095 3003
0 4095 3301
0 4095 3598
0 4095 3896
0 4095 4095
0 4095 0
0 4095 0
0 4095 0
0 4095 284
0 4095 582
0 4095 880
0 4095 1178
0 4095 1476
0 4095 1774
0 4095 2071
0 4095 2369
0 4095 2667
0 4095 2965
0 4095 3263
0 4095 3561
0 4095 3858
0 4095 4095
1291 0 0
1192 0 290
1094 0 588
995 0 885
897 0 1183
798 0 1481
700 0 1779
601 0 2077
503 0 2375
404 0 2672
306 0 2970
207 0 3268
109 0 3566
10 0 3864
0 0 4095
0 0 4095
0 0 4095
1000 210 0
901 185 252
803 161 550
704 137 848
606 113 1145
507 89 1443
409 65 1741
310 41 2039
212 16 2337
113 0 2635
15 0 2933
0 0 3230
0 0 3528
0 0 3826
0 0 4095
0 0 4095
0 0 4095
709 560 0
610 536 214
512 512 512
413 488 810
315 464 1108
216 439 1405
118 415 1703
19 391 2001
0 367 2299
0 343 2597
0 319 2895
0 295 3193
0 270 3490
0 246 3788
0 222 4086
0 198 4095
0 174 4095
418 911 0
319 887 176
221 862 474
122 838 772
24 814 1070
0 790 1368
0 766 1665
0 742 1963
0 718 2261
0 693 2559
0 669 2857
0 645 3155
0 621 3453
0 597 3750
0 573 4048
0 549 4095
0 524 4095
127 1261 0
28 1237 138
0 1213 436
0 1189 734
0 1165 1032
0 1141 1330
0 1116 1628
0 1092 1925
0 1068 2223
0 1044 2521
0 1020 2819
0 996 3117
0 972 3415
0 947 3713
0 923 4010
0 899 4095
0 875 4095
0 1612 0
0 1588 101
0 1564 398
0 1540 696
0 1515 994
0 1491 1292
0 1467 1590
0 1443 1888
0 1419 2186
0 1395 2483
0 1370 2781
0 1346 3079
0 1322 3377
0 1298 3675
0 1274 3973
0 1250 4095
0 1226 4095
0 1963 0
0 1938 63
0 1914 361
0 1890 658
0 1866 956
0 1842 1254
0 1818 1552
0 1793 1850
0 1769 2148
0 1745 2446
0 1721 2743
0 1697 3041
0 1673 3339
0 1649 3637
0 1624 3935
0 1600 4095
0 1576 4095
0 2313 0
0 2289 25
0 2265 323
0 2241 621
0 2217 918
0 2192 1216
0 2168 1514
0 2144 1812
0 2120 2110
0 2096 2408
0 2072 2706
0 2047 3003
0 2023 3301
0 1999 3599
0 1975 3897
0 1951 4095
0 1927 4095
0 2664 0
0 2640 0
0 2615 285
0 2591 583
0 2567 881
0 2543 1178
0 2519 1476
0 2495 1774
0 2471 2072
0 2446 2370
0 2422 2668
0 2398 2966
0 2374 3263
0 2350 3561
0 2326 3859
0 2301 4095
0 2277 4095
0 3014 0
0 2990 0
0 2966 247
0 2942 545
0 2918 843
0 2894 1141
0 2869 1439
0 2845 1736
0 2821 2034
0 2797 2332
0 2773 2630
0 2749 2928
0 2725 3226
0 2700 3523
0 2676 3821
0 2652 4095
0 2628 4095
0 3365 0
0 3341 0
0 3317 209
0 3292 507
0 3268 805
0 3244 1103
0 3220 1401
0 3196 1699
0 3172 1996
0 3148 2294
0 3123 2592
0 3099 2890
0 3075 3188
0 3051 3486
0 3027 3784
0 3003 4081
0 2979 4095
0 3715 0
0 3691 0
0 3667 171
0 3643 469
0 3619 767
0 3595 1065
0 3571 1363
0 3546 1661
0 3522 1959
0 3498 2256
0 3474 2554
0 3450 2852
0 3426 3150
0 3402 3448
0 3377 3746
0 3353 4044
0 3329 4095
0 4066 0
0 4042 0
0 4018 134
0 3994 431
0 3969 729
0 3945 1027
0 3921 1325
0 3897 1623
0 3873 1921
0 3849 2219
0 3825 2516
0 3800 2814
0 3776 3112
0 3752 3410
0 3728 3708
0 3704 4006
0 3680 4095
0 4095 0
0 4095 0
0 4095 96
0 4095 394
0 4095 691
0 4095 989
0 4095 1287
0 4095 1585
0 4095 1883
0 4095 2181
0 4095 2479
0 4095 2776
0 4095 3074
0 4095 3372
0 4079 3670
0 4054 3968
0 4030 4095
0 4095 0
0 4095 0
0 4095 58
0 4095 356
0 4095 654
0 4095 952
0 4095 1249
0 4095 1547
0 4095 1845
0 4095 2143
0 4095 2441
0 4095 2739
0 4095 3036
0 4095 3334
0 4095 3632
0 4095 3930
0 4095 4095
0 4095 0
0 4095 0
0 4095 20
0 4095 318
0 4095 616
0 4095 914
0 4095 1212
0 4095 1509
0 4095 1807
0 4095 2105
0 4095 2403
0 4095 2701
0 4095 2999
0 4095 3297
0 4095 3594
0 4095 3892
0 4095 4095
0 4095 0
0 4095 0
0 4095 0
0 4095 280
0 4095 578
0 4095 876
0 4095 1174
0 4095 1472
0 4095 1769
0 4095 2067
0 4095 2365
0 4095 2663
0 4095 2961
0 4095 3259
0 4095 3557
0 4095 3854
0 4095 4095
1936 0 0
1838 0 286
1739 0 583
1641 0 881
1542 0 1179
1444 0 1477
1345 0 1775
1247 0 2073
1148 0 2371
1050 0 2668
951 0 2966
853 0 3264
754 0 3562
656 0 3860
557 0 4095
459 0 4095
360 0 4095
1645 139 0
1547 115 248
1448 91 546
1350 67 843
1251 42 1141
1153 18 1439
1054 0 1737
956 0 2035
857 0 2333
759 0 2631
660 0 2928
562 0 3226
463 0 3524
365 0 3822
266 0 4095
168 0 4095
