src/resources/luts/linear-ACES_to_linear-RGB.3dl
0 128 256 384 512 639 767 895 1023
0 0 0
0 0 596
0 0 1191
0 0 1787
0 0 2383
0 0 2979
0 0 3574
0 0 4095
0 0 4095
0 701 0
0 653 520
0 605 1116
0 556 1711
0 508 2307
0 460 2903
0 411 3499
0 363 4094
0 315 4095
0 1402 0
0 1354 444
0 1306 1040
0 1257 1636
0 1209 2232
0 1161 2827
0 1113 3423
0 1064 4019
0 1016 4095
0 2104 0
0 2055 369
0 2007 964
0 1959 1560
0 1910 2156
0 1862 2752
0 1814 3347
0 1765 3943
0 1717 4095
0 2805 0
0 2756 293
0 2708 889
0 2660 1485
0 2612 2080
0 2563 2676
0 2515 3272
0 2467 3867
0 2418 4095
0 3506 0
0 3458 217
0 3409 813
0 3361 1409
0 3313 2005
0 3264 2600
0 3216 3196
0 3168 3792
0 3120 4095
0 4095 0
0 4095 142
0 4095 738
0 4062 1333
0 4014 1929
0 3966 2525
0 3917 3120
0 3869 3716
0 3821 4095
0 4095 0
0 4095 66
0 4095 662
0 4095 1258
0 4095 1853
0 4095 2449
0 4095 3045
0 4095 3640
0 4095 4095
0 4095 0
0 4095 0
0 4095 586
0 4095 1182
0 4095 1778
0 4095 2373
0 4095 2969
0 4095 3565
0 4095 4095
1291 0 0
1094 0 588
897 0 1183
700 0 1779
503 0 2375
306 0 2970
109 0 3566
0 0 4095
0 0 4095
709 560 0
512 512 512
315 464 1108
118 415 1703
0 367 2299
0 319 2895
0 270 3490
0 222 4086
0 174 4095
127 1261 0
0 1213 436
0 1165 1032
0 1116 1628
0 1068 2223
0 1020 2819
0 972 3415
0 923 4010
0 875 4095
0 1963 0
0 1914 361
0 1866 956
0 1818 1552
0 1769 2148
0 1721 2743
0 1673 3339
0 1624 3935
0 1576 4095
0 2664 0
0 2615 285
0 2567 881
0 2519 1476
0 2471 2072
0 2422 2668
0 2374 3263
0 2326 3859
0 2277 4095
0 3365 0
0 3317 209
0 3268 805
0 3220 1401
0 3172 1996
0 3123 2592
0 3075 3188
0 3027 3784
0 2979 4095
0 4066 0
0 4018 134
0 3969 729
0 3921 1325
0 3873 1921
0 3825 2516
0 3776 3112
0 3728 3708
0 3680 4095
0 4095 0
0 4095 58
0 4095 654
0 4095 1249
0 4095 1845
0 4095 2441
0 4095 3036
0 4095 3632
0 4095 4095
0 4095 0
0 4095 0
0 4095 578
0 4095 1174
0 4095 1769
0 4095 2365
0 4095 2961
0 4095 3557
0 4095 4095
2582 0 0
2385 0 579
2188 0 1175
1991 0 1771
1794 0 2366
1597 0 2962
1400 0 3558
1203 0 4095
1006 0 4095
2000 419 0
1803 371 504
1606 323 1099
1409 274 1695
1212 226 2291
1015 178 2887
818 129 3482
621 81 4078
424 33 4095
1418 1120 0
1221 1072 428
1024 1024 1024
827 975 1619
630 927 2215
433 879 2811
236 831 3407
39 782 4002
0 734 4095
836 1822 0
639 1773 352
442 1725 948
245 1677 1544
48 1628 2140
0 1580 2735
0 1532 3331
0 1483 3927
0 1435 4095
254 2523 0
57 2474 277
0 2426 872
0 2378 1468
0 2330 2064
0 2281 2660
0 2233 3255
0 2185 3851
0 2136 4095
0 3224 0
0 3176 201
0 3127 797
0 3079 1392
0 3031 1988
0 2982 2584
0 2934 3180
0 2886 3775
0 2838 4095
0 3925 0
0 3877 125
0 3828 721
0 3780 1317
0 3732 1913
0 3684 2508
0 3635 3104
0 3587 3700
0 3539 4095
0 4095 0
0 4095 50
0 4095 645
0 4095 1241
0 4095 1837
0 4095 2433
0 4095 3028
0 4095 3624
0 4095 4095
0 4095 0
0 4095 0
0 4095 570
0 4095 1166
0 4095 1761
0 4095 2357
0 4095 2953
0 4095 3548
0 4095 4095
3873 0 0
3676 0 571
3479 0 1167
3282 0 1763
3085 0 2358
2888 0 2954
2691 0 3550
2494 0 4095
2297 0 4095
3291 278 0
3094 230 496
2897 182 1091
2700 133 1687
2503 85 2283
2306 37 2878
2109 0 3474
1912 0 4070
1715 0 4095
2709 979 0
2512 931 420
2315 883 1016
2118 834 1611
1921 786 2207
1724 738 2803
1527 690 3398
1330 641 3994
1133 593 4095
2127 1681 0
1930 1632 344
1733 1584 940
1536 1536 1536
1339 1487 2131
1142 1439 2727
945 1391 3323
748 1342 3918
551 1294 4095
1545 2382 0
1348 2333 269
1151 2285 864
954 2237 1460
757 2189 2056
560 2140 2651
363 2092 3247
166 2044 3843
0 1995 4095
963 3083 0
766 3035 193
569 2986 789
372 2938 1384
175 2890 1980
0 2841 2576
0 2793 3171
0 2745 3767
0 2697 4095
381 3784 0
184 3736 117
0 3687 713
0 3639 1309
0 3591 1904
0 3543 2500
0 3494 3096
0 3446 3691
0 3398 4095
0 4095 0
0 4095 42
0 4095 637
0 4095 1233
0 4095 1829
0 4095 2424
0 4095 3020
0 4095 3616
0 4095 4095
0 4095 0
0 4095 0
0 4095 562
0 4095 1157
0 4095 1753
0 4095 2349
0 4095 2944
0 4095 3540
0 4095 4095
4095 0 0
4095 0 563
4095 0 1159
4095 0 1754
4095 0 2350
4095 0 2946
3982 0 3542
3784 0 4095
3587 0 4095
4095 137 0
4095 89 487
4095 41 1083
3991 0 1679
3794 0 2274
3597 0 2870
3399 0 3466
3202 0 4062
3005 0 4095
4000 838 0
3803 790 412
3606 742 1007
3409 693 1603
3212 645 2199
3015 597 2794
2817 549 3390
2620 500 3986
2423 452 4095
3418 1540 0
3221 1491 336
3024 1443 932
2827 1395 1527
2630 1346 2123
2432 1298 2719
2235 1250 3315
2038 1201 3910
1841 1153 4095
2836 2241 0
2639 2192 260
2442 2144 856
2245 2096 1452
2047 2048 2047
1850 1999 2643
1653 1951 3239
1456 1903 3835
1259 1854 4095
2254 2942 0
2057 2894 185
1860 2845 780
1662 2797 1376
1465 2749 1972
1268 2700 2568
1071 2652 3163
874 2604 3759
677 2555 4095
1672 3643 0
1475 3595 109
1277 3546 705
1080 3498 1300
883 3450 1896
686 3402 2492
489 3353 3088
292 3305 3683
95 3257 4095
1090 4095 0
893 4095 33
695 4095 629
498 4095 1225
301 4095 1821
104 4095 2416
0 4054 3012
0 4006 3608
0 3958 4095
508 4095 0
310 4095 0
113 4095 553
0 4095 1149
0 4095 1745
0 4095 2341
0 4095 2936
0 4095 3532
0 4095 4095
4095 0 0
4095 0 555
4095 0 1150
4095 0 1746
4095 0 2342
4095 0 2938
4095 0 3533
4095 0 4095
4095 0 4095
4095 0 0
4095 0 479
4095 0 1075
4095 0 1671
4095 0 2266
4095 0 2862
4095 0 3458
4095 0 4053
4095 0 4095
4095 697 0
4095 649 403
4095 601 999
4095 552 1595
4095 504 2191
4095 456 2786
4095 408 3382
3911 359 3978
3714 311 4095
4095 1399 0
4095 1350 328
4095 1302 924
4095 1254 1519
3920 1205 2115
3723 1157 2711
3526 1109 3306
3329 1060 3902
3132 1012 4095
4095 2100 0
3929 2051 252
3732 2003 848
3535 1955 1444
3338 1907 2039
3141 1858 2635
2944 1810 3231
2747 1762 3826
2550 1713 4095
3544 2801 0
3347 2753 177
3150 2704 772
2953 2656 1368
2756 2608 1964
2559 2559 2559
2362 2511 3155
2165 2463 3751
1968 2414 4095
2962 3502 0
2765 3454 101
2568 3405 697
2371 3357 1292
2174 3309 1888
1977 3261 2484
1780 3212 3079
1583 3164 3675
1386 3116 4095
2380 4095 0
2183 4095 25
1986 4095 621
1789 4058 1217
1592 4010 1812
1395 3962 2408
1198 3913 3004
1001 3865 3599
804 3817 4095
1798 4095 0
1601 4095 0
1404 4095 545
1207 4095 1141
1010 4095 1737
813 4095 2332
616 4095 2928
419 4095 3524
222 4095 4095
4095 0 0
4095 0 547
4095 0 1142
4095 0 1738
4095 0 2334
4095 0 2929
4095 0 3525
4095 0 4095
4095 0 4095
4095 0 0
4095 0 471
4095 0 1067
4095 0 1662
4095 0 2258
4095 0 2854
4095 0 3449
4095 0 4045
4095 0 4095
4095 556 0
4095 508 395
4095 460 991
4095 411 1587
4095 363 2182
4095 315 2778
4095 267 3374
4095 218 3970
4095 170 4095
4095 1258 0
4095 1209 320
4095 1161 915
4095 1113 1511
4095 1064 2107
4095 1016 2702
4095 968 3298
4095 919 3894
4095 871 4095
4095 1959 0
4095 1910 244
4095 1862 840
4095 1814 1435
4095 1765 2031
4095 1717 2627
4095 1669 3223
4038 1621 3818
3841 1572 4095
4095 2660 0
4095 2612 168
4095 2563 764
4095 2515 1360
4047 2467 1955
3850 2418 2551
3653 2370 3147
3456 2322 3743
3259 2273 4095
4095 3361 0
4056 3313 93
3859 3264 688
3662 3216 1284
3465 3168 1880
3268 3120 2476
3071 3071 3071
2874 3023 3667
2677 2975 4095
3671 4062 0
3474 4014 17
3277 3966 613
3080 3917 1208
2883 3869 1804
2686 3821 2400
2489 3772 2996
2292 3724 3591
2095 3676 4095
3089 4095 0
2892 4095 0
2695 4095 537
2498 4095 1133
2301 4095 1729
2104 4095 2324
1907 4095 2920
1710 4095 3516
1513 4095 4095
4095 0 0
4095 0 538
4095 0 1134
4095 0 1730
4095 0 2326
4095 0 2921
4095 0 3517
4095 0 4095
4095 0 4095
4095 0 0
4095 0 463
4095 0 1058
4095 0 1654
4095 0 2250
4095 0 2846
4095 0 3441
4095 0 4037
4095 0 4095
4095 415 0
4095 367 387
4095 319 983
4095 270 1579
4095 222 2174
4095 174 2770
4095 126 3366
4095 77 3961
4095 29 4095
4095 1117 0
4095 1068 311
4095 1020 907
4095 972 1503
4095 923 2099
4095 875 2694
4095 827 3290
4095 778 3886
4095 730 4095
4095 1818 0
4095 1769 236
4095 1721 832
4095 1673 1427
4095 1624 2023
4095 1576 2619
4095 1528 3214
4095 1480 3810
4095 1431 4095
4095 2519 0
4095 2471 160
4095 2422 756
4095 2374 1352
4095 2326 1947
4095 2277 2543
4095 2229 3139
4095 2181 3734
4095 2132 4095
4095 3220 0
4095 3172 85
4095 3123 680
4095 3075 1276
4095 3027 1872
4095 2979 2467
4095 2930 3063
4095 2882 3659
3968 2834 4095
4095 3921 0
4095 3873 9
4095 3825 605
4095 3776 1200
4095 3728 1796
3977 3680 2392
3780 3631 2987
3583 3583 3583
3386 3535 4095
4095 4095 0
4095 4095 0
3986 4095 529
3789 4095 1125
3592 4095 1720
3395 4095 2316
3198 4095 2912
3001 4095 3507
2804 4095 4095
4095 0 0
4095 0 530
4095 0 1126
4095 0 1722
4095 0 2317
4095 0 2913
4095 0 3509
4095 0 4095
4095 0 4095
4095 0 0
4095 0 455
4095 0 1050
4095 0 1646
4095 0 2242
4095 0 2837
4095 0 3433
4095 0 4029
4095 0 4095
4095 274 0
4095 226 379
4095 178 975
4095 129 1570
4095 81 2166
4095 33 2762
4095 0 3357
4095 0 3953
4095 0 4095
4095 975 0
4095 927 303
4095 879 899
4095 831 1495
4095 782 2090
4095 734 2686
4095 686 3282
4095 637 3878
4095 589 4095
4095 1677 0
4095 1628 228
4095 1580 823
4095 1532 1419
4095 1483 2015
4095 1435 2610
4095 1387 3206
4095 1339 3802
4095 1290 4095
4095 2378 0
4095 2330 152
4095 2281 748
4095 2233 1343
4095 2185 1939
4095 2136 2535
4095 2088 3131
4095 2040 3726
4095 1991 4095
4095 3079 0
4095 3031 76
4095 2982 672
4095 2934 1268
4095 2886 1863
4095 2838 2459
4095 2789 3055
4095 2741 3651
4095 2693 4095
4095 3780 0
4095 3732 1
4095 3684 596
4095 3635 1192
4095 3587 1788
4095 3539 2384
4095 3490 2979
4095 3442 3575
4095 3394 4095
4095 4095 0
4095 4095 0
4095 4095 521
4095 4095 1116
4095 4095 1712
4095 4095 2308
4095 4095 2904
4095 4095 3499
4095 4095 4095
