src/resources/luts/linear_to_filmic-sRGB-MediumLow.3dl
0 128 256 384 512 639 767 895 1023
0 0 0
0 0 1790
0 0 2280
0 0 2565
0 0 2762
0 0 2909
0 0 3025
0 0 3119
0 0 3197
0 1790 0
0 1790 1790
0 1790 2280
0 1790 2565
0 1790 2762
0 1790 2909
0 1790 3025
0 1790 3119
0 1790 3197
0 2280 0
0 2280 1790
0 2280 2280
0 2280 2565
0 2280 2762
0 2280 2909
0 2280 3025
0 2280 3119
0 2280 3197
0 2565 0
0 2565 1790
0 2565 2280
0 2565 2565
0 2565 2762
0 2565 2909
0 2565 3025
0 2565 3119
0 2565 3197
0 2762 0
0 2762 1790
0 2762 2280
0 2762 2565
0 2762 2762
0 2762 2909
0 2762 3025
0 2762 3119
0 2762 3197
0 2909 0
0 2909 1790
0 2909 2280
0 2909 2565
0 2909 2762
0 2909 2909
0 2909 3025
0 2909 3119
0 2909 3197
0 3025 0
0 3025 1790
0 3025 2280
0 3025 2565
0 3025 2762
0 3025 2909
0 3025 3025
0 3025 3119
0 3025 3197
0 3119 0
0 3119 1790
0 3119 2280
0 3119 2565
0 3119 2762
0 3119 2909
0 3119 3025
0 3119 3119
0 3119 3197
0 3197 0
0 3197 1790
0 3197 2280
0 3197 2565
0 3197 2762
0 3197 2909
0 3197 3025
0 3197 3119
0 3197 3197
1790 0 0
1790 0 1790
1790 0 2280
1790 0 2565
1790 0 2762
1790 0 2909
1790 0 3025
1790 0 3119
1790 0 3197
1790 1790 0
1790 1790 1790
1790 1790 2280
1790 1790 2565
1790 1790 2762
1790 1790 2909
1790 1790 3025
1790 1790 3119
1790 1790 3197
1790 2280 0
1790 2280 1790
1790 2280 2280
1790 2280 2565
1790 2280 2762
1790 2280 2909
1790 2280 3025
1790 2280 3119
1790 2280 3197
1790 2565 0
1790 2565 1790
1790 2565 2280
1790 2565 2565
1790 2565 2762
1790 2565 2909
1790 2565 3025
1790 2565 3119
1790 2565 3197
1790 2762 0
1790 2762 1790
1790 2762 2280
1790 2762 2565
1790 2762 2762
1790 2762 2909
1790 2762 3025
1790 2762 3119
1790 2762 3197
1790 2909 0
1790 2909 1790
1790 2909 2280
1790 2909 2565
1790 2909 2762
1790 2909 2909
1790 2909 3025
1790 2909 3119
1790 2909 3197
1790 3025 0
1790 3025 1790
1790 3025 2280
1790 3025 2565
1790 3025 2762
1790 3025 2909
1790 3025 3025
1790 3025 3119
1790 3025 3197
1790 3119 0
1790 3119 1790
1790 3119 2280
1790 3119 2565
1790 3119 2762
1790 3119 2909
1790 3119 3025
1790 3119 3119
1790 3119 3197
1790 3197 0
1790 3197 1790
1790 3197 2280
1790 3197 2565
1790 3197 2762
1790 3197 2909
1790 3197 3025
1790 3197 3119
1790 3197 3197
2280 0 0
2280 0 1790
2280 0 2280
2280 0 2565
2280 0 2762
2280 0 2909
2280 0 3025
2280 0 3119
2280 0 3197
2280 1790 0
2280 1790 1790
2280 1790 2280
2280 1790 2565
2280 1790 2762
2280 1790 2909
2280 1790 3025
2280 1790 3119
2280 1790 3197
2280 2280 0
2280 2280 1790
2280 2280 2280
2280 2280 2565
2280 2280 2762
2280 2280 2909
2280 2280 3025
2280 2280 3119
2280 2280 3197
2280 2565 0
2280 2565 1790
2280 2565 2280
2280 2565 2565
2280 2565 2762
2280 2565 2909
2280 2565 3025
2280 2565 3119
2280 2565 3197
2280 2762 0
2280 2762 1790
2280 2762 2280
2280 2762 2565
2280 2762 2762
2280 2762 2909
2280 2762 3025
2280 2762 3119
2280 2762 3197
2280 2909 0
2280 2909 1790
2280 2909 2280
2280 2909 2565
2280 2909 2762
2280 2909 2909
2280 2909 3025
2280 2909 3119
2280 2909 3197
2280 3025 0
2280 3025 1790
2280 3025 2280
2280 3025 2565
2280 3025 2762
2280 3025 2909
2280 3025 3025
2280 3025 3119
2280 3025 3197
2280 3119 0
2280 3119 1790
2280 3119 2280
2280 3119 2565
2280 3119 2762
2280 3119 2909
2280 3119 3025
2280 3119 3119
2280 3119 3197
2280 3197 0
2280 3197 1790
2280 3197 2280
2280 3197 2565
2280 3197 2762
2280 3197 2909
2280 3197 3025
2280 3197 3119
2280 3197 3197
2565 0 0
2565 0 1790
2565 0 2280
2565 0 2565
2565 0 2762
2565 0 2909
2565 0 3025
2565 0 3119
2565 0 3197
2565 1790 0
2565 1790 1790
2565 1790 2280
2565 1790 2565
2565 1790 2762
2565 1790 2909
2565 1790 3025
2565 1790 3119
2565 1790 3197
2565 2280 0
2565 2280 1790
2565 2280 2280
2565 2280 2565
2565 2280 2762
2565 2280 2909
2565 2280 3025
2565 2280 3119
2565 2280 3197
2565 2565 0
2565 2565 1790
2565 2565 2280
2565 2565 2565
2565 2565 2762
2565 2565 2909
2565 2565 3025
2565 2565 3119
2565 2565 3197
2565 2762 0
2565 2762 1790
2565 2762 2280
2565 2762 2565
2565 2762 2762
2565 2762 2909
2565 2762 3025
2565 2762 3119
2565 2762 3197
2565 2909 0
2565 2909 1790
2565 2909 2280
2565 2909 2565
2565 2909 2762
2565 2909 2909
2565 2909 3025
2565 2909 3119
2565 2909 3197
2565 3025 0
2565 3025 1790
2565 3025 2280
2565 3025 2565
2565 3025 2762
2565 3025 2909
2565 3025 3025
2565 3025 3119
2565 3025 3197
2565 3119 0
2565 3119 1790
2565 3119 2280
2565 3119 2565
2565 3119 2762
2565 3119 2909
2565 3119 3025
2565 3119 3119
2565 3119 3197
2565 3197 0
2565 3197 1790
2565 3197 2280
2565 3197 2565
2565 3197 2762
2565 3197 2909
2565 3197 3025
2565 3197 3119
2565 3197 3197
2762 0 0
2762 0 1790
2762 0 2280
2762 0 2565
2762 0 2762
2762 0 2909
2762 0 3025
2762 0 3119
2762 0 3197
2762 1790 0
2762 1790 1790
2762 1790 2280
2762 1790 2565
2762 1790 2762
2762 1790 2909
2762 1790 3025
2762 1790 3119
2762 1790 3197
2762 2280 0
2762 2280 1790
2762 2280 2280
2762 2280 2565
2762 2280 2762
2762 2280 2909
2762 2280 3025
2762 2280 3119
2762 2280 3197
2762 2565 0
2762 2565 1790
2762 2565 2280
2762 2565 2565
2762 2565 2762
2762 2565 2909
2762 2565 3025
2762 2565 3119
2762 2565 3197
2762 2762 0
2762 2762 1790
2762 2762 2280
2762 2762 2565
2762 2762 2762
2762 2762 2909
2762 2762 3025
2762 2762 3119
2762 2762 3197
2762 2909 0
2762 2909 1790
2762 2909 2280
2762 2909 2565
2762 2909 2762
2762 2909 2909
2762 2909 3025
2762 2909 3119
2762 2909 3197
2762 3025 0
2762 3025 1790
2762 3025 2280
2762 3025 2565
2762 3025 2762
2762 3025 2909
2762 3025 3025
2762 3025 3119
2762 3025 3197
2762 3119 0
2762 3119 1790
2762 3119 2280
2762 3119 2565
2762 3119 2762
2762 3119 2909
2762 3119 3025
2762 3119 3119
2762 3119 3197
2762 3197 0
2762 3197 1790
2762 3197 2280
2762 3197 2565
2762 3197 2762
2762 3197 2909
2762 3197 3025
2762 3197 3119
2762 3197 3197
2909 0 0
2909 0 1790
2909 0 2280
2909 0 2565
2909 0 2762
2909 0 2909
2909 0 3025
2909 0 3119
2909 0 3197
2909 1790 0
2909 1790 1790
2909 1790 2280
2909 1790 2565
2909 1790 2762
2909 1790 2909
2909 1790 3025
2909 1790 3119
2909 1790 3197
2909 2280 0
2909 2280 1790
2909 2280 2280
2909 2280 2565
2909 2280 2762
2909 2280 2909
2909 2280 3025
2909 2280 3119
2909 2280 3197
2909 2565 0
2909 2565 1790
2909 2565 2280
2909 2565 2565
2909 2565 2762
2909 2565 2909
2909 2565 3025
2909 2565 3119
2909 2565 3197
2909 2762 0
2909 2762 1790
2909 2762 2280
2909 2762 2565
2909 2762 2762
2909 2762 2909
2909 2762 3025
2909 2762 3119
2909 2762 3197
2909 2909 0
2909 2909 1790
2909 2909 2280
2909 2909 2565
2909 2909 2762
2909 2909 2909
2909 2909 3025
2909 2909 3119
2909 2909 3197
2909 3025 0
2909 3025 1790
2909 3025 2280
2909 3025 2565
2909 3025 2762
2909 3025 2909
2909 3025 3025
2909 3025 3119
2909 3025 3197
2909 3119 0
2909 3119 1790
2909 3119 2280
2909 3119 2565
2909 3119 2762
2909 3119 2909
2909 3119 3025
2909 3119 3119
2909 3119 3197
2909 3197 0
2909 3197 1790
2909 3197 2280
2909 3197 2565
2909 3197 2762
2909 3197 2909
2909 3197 3025
2909 3197 3119
2909 3197 3197
3025 0 0
3025 0 1790
3025 0 2280
3025 0 2565
3025 0 2762
3025 0 2909
3025 0 3025
3025 0 3119
3025 0 3197
3025 1790 0
3025 1790 1790
3025 1790 2280
3025 1790 2565
3025 1790 2762
3025 1790 2909
3025 1790 3025
3025 1790 3119
3025 1790 3197
3025 2280 0
3025 2280 1790
3025 2280 2280
3025 2280 2565
3025 2280 2762
3025 2280 2909
3025 2280 3025
3025 2280 3119
3025 2280 3197
3025 2565 0
3025 2565 1790
3025 2565 2280
3025 2565 2565
3025 2565 2762
3025 2565 2909
3025 2565 3025
3025 2565 3119
3025 2565 3197
3025 2762 0
3025 2762 1790
3025 2762 2280
3025 2762 2565
3025 2762 2762
3025 2762 2909
3025 2762 3025
3025 2762 3119
3025 2762 3197
3025 2909 0
3025 2909 1790
3025 2909 2280
3025 2909 2565
3025 2909 2762
3025 2909 2909
3025 2909 3025
3025 2909 3119
3025 2909 3197
3025 3025 0
3025 3025 1790
3025 3025 2280
3025 3025 2565
3025 3025 2762
3025 3025 2909
3025 3025 3025
3025 3025 3119
3025 3025 3197
3025 3119 0
3025 3119 1790
3025 3119 2280
3025 3119 2565
3025 3119 2762
3025 3119 2909
3025 3119 3025
3025 3119 3119
3025 3119 3197
3025 3197 0
3025 3197 1790
3025 3197 2280
3025 3197 2565
3025 3197 2762
3025 3197 2909
3025 3197 3025
3025 3197 3119
3025 3197 3197
3119 0 0
3119 0 1790
3119 0 2280
3119 0 2565
3119 0 2762
3119 0 2909
3119 0 3025
3119 0 3119
3119 0 3197
3119 1790 0
3119 1790 1790
3119 1790 2280
3119 1790 2565
3119 1790 2762
3119 1790 2909
3119 1790 3025
3119 1790 3119
3119 1790 3197
3119 2280 0
3119 2280 1790
3119 2280 2280
3119 2280 2565
3119 2280 2762
3119 2280 2909
3119 2280 3025
3119 2280 3119
3119 2280 3197
3119 2565 0
3119 2565 1790
3119 2565 2280
3119 2565 2565
3119 2565 2762
3119 2565 2909
3119 2565 3025
3119 2565 3119
3119 2565 3197
3119 2762 0
3119 2762 1790
3119 2762 2280
3119 2762 2565
3119 2762 2762
3119 2762 2909
3119 2762 3025
3119 2762 3119
3119 2762 3197
3119 2909 0
3119 2909 1790
3119 2909 2280
3119 2909 2565
3119 2909 2762
3119 2909 2909
3119 2909 3025
3119 2909 3119
3119 2909 3197
3119 3025 0
3119 3025 1790
3119 3025 2280
3119 3025 2565
3119 3025 2762
3119 3025 2909
3119 3025 3025
3119 3025 3119
3119 3025 3197
3119 3119 0
3119 3119 1790
3119 3119 2280
3119 3119 2565
3119 3119 2762
3119 3119 2909
3119 3119 3025
3119 3119 3119
3119 3119 3197
3119 3197 0
3119 3197 1790
3119 3197 2280
3119 3197 2565
3119 3197 2762
3119 3197 2909
3119 3197 3025
3119 3197 3119
3119 3197 3197
3197 0 0
3197 0 1790
3197 0 2280
3197 0 2565
3197 0 2762
3197 0 2909
3197 0 3025
3197 0 3119
3197 0 3197
3197 1790 0
3197 1790 1790
3197 1790 2280
3197 1790 2565
3197 1790 2762
3197 1790 2909
3197 1790 3025
3197 1790 3119
3197 1790 3197
3197 2280 0
3197 2280 1790
3197 2280 2280
3197 2280 2565
3197 2280 2762
3197 2280 2909
3197 2280 3025
3197 2280 3119
3197 2280 3197
3197 2565 0
3197 2565 1790
3197 2565 2280
3197 2565 2565
3197 2565 2762
3197 2565 2909
3197 2565 3025
3197 2565 3119
3197 2565 3197
3197 2762 0
3197 2762 1790
3197 2762 2280
3197 2762 2565
3197 2762 2762
3197 2762 2909
3197 2762 3025
3197 2762 3119
3197 2762 3197
3197 2909 0
3197 2909 1790
3197 2909 2280
3197 2909 2565
3197 2909 2762
3197 2909 2909
3197 2909 3025
3197 2909 3119
3197 2909 3197
3197 3025 0
3197 3025 1790
3197 3025 2280
3197 3025 2565
3197 3025 2762
3197 3025 2909
3197 3025 3025
3197 3025 3119
3197 3025 3197
3197 3119 0
3197 3119 1790
3197 3119 2280
3197 3119 2565
3197 3119 2762
3197 3119 2909
3197 3119 3025
3197 3119 3119
3197 3119 3197
3197 3197 0
3197 3197 1790
3197 3197 2280
3197 3197 2565
3197 3197 2762
3197 3197 2909
3197 3197 3025
3197 3197 3119
3197 3197 3197
