src/resources/luts/linear_to_filmic-sRGB-High.3dl
0 64 128 192 256 320 384 448 512 575 639 703 767 831 895 959 1023
0 0 0
0 0 1042
0 0 1671
0 0 2092
0 0 2393
0 0 2619
0 0 2795
0 0 2936
0 0 3051
0 0 3147
0 0 3228
0 0 3297
0 0 3357
0 0 3410
0 0 3456
0 0 3497
0 0 3534
0 1042 0
0 1042 1042
0 1042 1671
0 1042 2092
0 1042 2393
0 1042 2619
0 1042 2795
0 1042 2936
0 1042 3051
0 1042 3147
0 1042 3228
0 1042 3297
0 1042 3357
0 1042 3410
0 1042 3456
0 1042 3497
0 1042 3534
0 1671 0
0 1671 1042
0 1671 1671
0 1671 2092
0 1671 2393
0 1671 2619
0 1671 2795
0 1671 2936
0 1671 3051
0 1671 3147
0 1671 3228
0 1671 3297
0 1671 3357
0 1671 3410
0 1671 3456
0 1671 3497
0 1671 3534
0 2092 0
0 2092 1042
0 2092 1671
0 2092 2092
0 2092 2393
0 2092 2619
0 2092 2795
0 2092 2936
0 2092 3051
0 2092 3147
0 2092 3228
0 2092 3297
0 2092 3357
0 2092 3410
0 2092 3456
0 2092 3497
0 2092 3534
0 2393 0
0 2393 1042
0 2393 1671
0 2393 2092
0 2393 2393
0 2393 2619
0 2393 2795
0 2393 2936
0 2393 3051
0 2393 3147
0 2393 3228
0 2393 3297
0 2393 3357
0 2393 3410
0 2393 3456
0 2393 3497
0 2393 3534
0 2619 0
0 2619 1042
0 2619 1671
0 2619 2092
0 2619 2393
0 2619 2619
0 2619 2795
0 2619 2936
0 2619 3051
0 2619 3147
0 2619 3228
0 2619 3297
0 2619 3357
0 2619 3410
0 2619 3456
0 2619 3497
0 2619 3534
0 2795 0
0 2795 1042
0 2795 1671
0 2795 2092
0 2795 2393
0 2795 2619
0 2795 2795
0 2795 2936
0 2795 3051
0 2795 3147
0 2795 3228
0 2795 3297
0 2795 3357
0 2795 3410
0 2795 3456
0 2795 3497
0 2795 3534
0 2936 0
0 2936 1042
0 2936 1671
0 2936 2092
0 2936 2393
0 2936 2619
0 2936 2795
0 2936 2936
0 2936 3051
0 2936 3147
0 2936 3228
0 2936 3297
0 2936 3357
0 2936 3410
0 2936 3456
0 2936 3497
0 2936 3534
0 3051 0
0 3051 1042
0 3051 1671
0 3051 2092
0 3051 2393
0 3051 2619
0 3051 2795
0 3051 2936
0 3051 3051
0 3051 3147
0 3051 3228
0 3051 3297
0 3051 3357
0 3051 3410
0 3051 3456
0 3051 3497
0 3051 3534
0 3147 0
0 3147 1042
0 3147 1671
0 3147 2092
0 3147 2393
0 3147 2619
0 3147 2795
0 3147 2936
0 3147 3051
0 3147 3147
0 3147 3228
0 3147 3297
0 3147 3357
0 3147 3410
0 3147 3456
0 3147 3497
0 3147 3534
0 3228 0
0 3228 1042
0 3228 1671
0 3228 2092
0 3228 2393
0 3228 2619
0 3228 2795
0 3228 2936
0 3228 3051
0 3228 3147
0 3228 3228
0 3228 3297
0 3228 3357
0 3228 3410
0 3228 3456
0 3228 3497
0 3228 3534
0 3297 0
0 3297 1042
0 3297 1671
0 3297 2092
0 3297 2393
0 3297 2619
0 3297 2795
0 3297 2936
0 3297 3051
0 3297 3147
0 3297 3228
0 3297 3297
0 3297 3357
0 3297 3410
0 3297 3456
0 3297 3497
0 3297 3534
0 3357 0
0 3357 1042
0 3357 1671
0 3357 2092
0 3357 2393
0 3357 2619
0 3357 2795
0 3357 2936
0 3357 3051
0 3357 3147
0 3357 3228
0 3357 3297
0 3357 3357
0 3357 3410
0 3357 3456
0 3357 3497
0 3357 3534
0 3410 0
0 3410 1042
0 3410 1671
0 3410 2092
0 3410 2393
0 3410 2619
0 3410 2795
0 3410 2936
0 3410 3051
0 3410 3147
0 3410 3228
0 3410 3297
0 3410 3357
0 3410 3410
0 3410 3456
0 3410 3497
0 3410 3534
0 3456 0
0 3456 1042
0 3456 1671
0 3456 2092
0 3456 2393
0 3456 2619
0 3456 2795
0 3456 2936
0 3456 3051
0 3456 3147
0 3456 3228
0 3456 3297
0 3456 3357
0 3456 3410
0 3456 3456
0 3456 3497
0 3456 3534
0 3497 0
0 3497 1042
0 3497 1671
0 3497 2092
0 3497 2393
0 3497 2619
0 3497 2795
0 3497 2936
0 3497 3051
0 3497 3147
0 3497 3228
0 3497 3297
0 3497 3357
0 3497 3410
0 3497 3456
0 3497 3497
0 3497 3534
0 3534 0
0 3534 1042
0 3534 1671
0 3534 2092
0 3534 2393
0 3534 2619
0 3534 2795
0 3534 2936
0 3534 3051
0 3534 3147
0 3534 3228
0 3534 3297
0 3534 3357
0 3534 3410
0 3534 3456
0 3534 3497
0 3534 3534
1042 0 0
1042 0 1042
1042 0 1671
1042 0 2092
1042 0 2393
1042 0 2619
1042 0 2795
1042 0 2936
1042 0 3051
1042 0 3147
1042 0 3228
1042 0 3297
1042 0 3357
1042 0 3410
1042 0 3456
1042 0 3497
1042 0 3534
1042 1042 0
1042 1042 1042
1042 1042 1671
1042 1042 2092
1042 1042 2393
1042 1042 2619
1042 1042 2795
1042 1042 2936
1042 1042 3051
1042 1042 3147
1042 1042 3228
1042 1042 3297
1042 1042 3357
1042 1042 3410
1042 1042 3456
1042 1042 3497
1042 1042 3534
1042 1671 0
1042 1671 1042
1042 1671 1671
1042 1671 2092
1042 1671 2393
1042 1671 2619
1042 1671 2795
1042 1671 2936
1042 1671 3051
1042 1671 3147
1042 1671 3228
1042 1671 3297
1042 1671 3357
1042 1671 3410
1042 1671 3456
1042 1671 3497
1042 1671 3534
1042 2092 0
1042 2092 1042
1042 2092 1671
1042 2092 2092
1042 2092 2393
1042 2092 2619
1042 2092 2795
1042 2092 2936
1042 2092 3051
1042 2092 3147
1042 2092 3228
1042 2092 3297
1042 2092 3357
1042 2092 3410
1042 2092 3456
1042 2092 3497
1042 2092 3534
1042 2393 0
1042 2393 1042
1042 2393 1671
1042 2393 2092
1042 2393 2393
1042 2393 2619
1042 2393 2795
1042 2393 2936
1042 2393 3051
1042 2393 3147
1042 2393 3228
1042 2393 3297
1042 2393 3357
1042 2393 3410
1042 2393 3456
1042 2393 3497
1042 2393 3534
1042 2619 0
1042 2619 1042
1042 2619 1671
1042 2619 2092
1042 2619 2393
1042 2619 2619
1042 2619 2795
1042 2619 2936
1042 2619 3051
1042 2619 3147
1042 2619 3228
1042 2619 3297
1042 2619 3357
1042 2619 3410
1042 2619 3456
1042 2619 3497
1042 2619 3534
1042 2795 0
1042 2795 1042
1042 2795 1671
1042 2795 2092
1042 2795 2393
1042 2795 2619
1042 2795 2795
1042 2795 2936
1042 2795 3051
1042 2795 3147
1042 2795 3228
1042 2795 3297
1042 2795 3357
1042 2795 3410
1042 2795 3456
1042 2795 3497
1042 2795 3534
1042 2936 0
1042 2936 1042
1042 2936 1671
1042 2936 2092
1042 2936 2393
1042 2936 2619
1042 2936 2795
1042 2936 2936
1042 2936 3051
1042 2936 3147
1042 2936 3228
1042 2936 3297
1042 2936 3357
1042 2936 3410
1042 2936 3456
1042 2936 3497
1042 2936 3534
1042 3051 0
1042 3051 1042
1042 3051 1671
1042 3051 2092
1042 3051 2393
1042 3051 2619
1042 3051 2795
1042 3051 2936
1042 3051 3051
1042 3051 3147
1042 3051 3228
1042 3051 3297
1042 3051 3357
1042 3051 3410
1042 3051 3456
1042 3051 3497
1042 3051 3534
1042 3147 0
1042 3147 1042
1042 3147 1671
1042 3147 2092
1042 3147 2393
1042 3147 2619
1042 3147 2795
1042 3147 2936
1042 3147 3051
1042 3147 3147
1042 3147 3228
1042 3147 3297
1042 3147 3357
1042 3147 3410
1042 3147 3456
1042 3147 3497
1042 3147 3534
1042 3228 0
1042 3228 1042
1042 3228 1671
1042 3228 2092
1042 3228 2393
1042 3228 2619
1042 3228 2795
1042 3228 2936
1042 3228 3051
1042 3228 3147
1042 3228 3228
1042 3228 3297
1042 3228 3357
1042 3228 3410
1042 3228 3456
1042 3228 3497
1042 3228 3534
1042 3297 0
1042 3297 1042
1042 3297 1671
1042 3297 2092
1042 3297 2393
1042 3297 2619
1042 3297 2795
1042 3297 2936
1042 3297 3051
1042 3297 3147
1042 3297 3228
1042 3297 3297
1042 3297 3357
1042 3297 3410
1042 3297 3456
1042 3297 3497
1042 3297 3534
1042 3357 0
1042 3357 1042
1042 3357 1671
1042 3357 2092
1042 3357 2393
1042 3357 2619
1042 3357 2795
1042 3357 2936
1042 3357 3051
1042 3357 3147
1042 3357 3228
1042 3357 3297
1042 3357 3357
1042 3357 3410
1042 3357 3456
1042 3357 3497
1042 3357 3534
1042 3410 0
1042 3410 1042
1042 3410 1671
1042 3410 2092
1042 3410 2393
1042 3410 2619
1042 3410 2795
1042 3410 2936
1042 3410 3051
1042 3410 3147
1042 3410 3228
1042 3410 3297
1042 3410 3357
1042 3410 3410
1042 3410 3456
1042 3410 3497
1042 3410 3534
1042 3456 0
1042 3456 1042
1042 3456 1671
1042 3456 2092
1042 3456 2393
1042 3456 2619
1042 3456 2795
1042 3456 2936
1042 3456 3051
1042 3456 3147
1042 3456 3228
1042 3456 3297
1042 3456 3357
1042 3456 3410
1042 3456 3456
1042 3456 3497
1042 3456 3534
1042 3497 0
1042 3497 1042
1042 3497 1671
1042 3497 2092
1042 3497 2393
1042 3497 2619
1042 3497 2795
1042 3497 2936
1042 3497 3051
1042 3497 3147
1042 3497 3228
1042 3497 3297
1042 3497 3357
1042 3497 3410
1042 3497 3456
1042 3497 3497
1042 3497 3534
1042 3534 0
1042 3534 1042
1042 3534 1671
1042 3534 2092
1042 3534 2393
1042 3534 2619
1042 3534 2795
1042 3534 2936
1042 3534 3051
1042 3534 3147
1042 3534 3228
1042 3534 3297
1042 3534 3357
1042 3534 3410
1042 3534 3456
1042 3534 3497
1042 3534 3534
1671 0 0
1671 0 1042
1671 0 1671
1671 0 2092
1671 0 2393
1671 0 2619
1671 0 2795
1671 0 2936
1671 0 3051
1671 0 3147
1671 0 3228
1671 0 3297
1671 0 3357
1671 0 3410
1671 0 3456
1671 0 3497
1671 0 3534
1671 1042 0
1671 1042 1042
1671 1042 1671
1671 1042 2092
1671 1042 2393
1671 1042 2619
1671 1042 2795
1671 1042 2936
1671 1042 3051
1671 1042 3147
1671 1042 3228
1671 1042 3297
1671 1042 3357
1671 1042 3410
1671 1042 3456
1671 1042 3497
1671 1042 3534
1671 1671 0
1671 1671 1042
1671 1671 1671
1671 1671 2092
1671 1671 2393
1671 1671 2619
1671 1671 2795
1671 1671 2936
1671 1671 3051
1671 1671 3147
1671 1671 3228
1671 1671 3297
1671 1671 3357
1671 1671 3410
1671 1671 3456
1671 1671 3497
1671 1671 3534
1671 2092 0
1671 2092 1042
1671 2092 1671
1671 2092 2092
1671 2092 2393
1671 2092 2619
1671 2092 2795
1671 2092 2936
1671 2092 3051
1671 2092 3147
1671 2092 3228
1671 2092 3297
1671 2092 3357
1671 2092 3410
1671 2092 3456
1671 2092 3497
1671 2092 3534
1671 2393 0
1671 2393 1042
1671 2393 1671
1671 2393 2092
1671 2393 2393
1671 2393 2619
1671 2393 2795
1671 2393 2936
1671 2393 3051
1671 2393 3147
1671 2393 3228
1671 2393 3297
1671 2393 3357
1671 2393 3410
1671 2393 3456
1671 2393 3497
1671 2393 3534
1671 2619 0
1671 2619 1042
1671 2619 1671
1671 2619 2092
1671 2619 2393
1671 2619 2619
1671 2619 2795
1671 2619 2936
1671 2619 3051
1671 2619 3147
1671 2619 3228
1671 2619 3297
1671 2619 3357
1671 2619 3410
1671 2619 3456
1671 2619 3497
1671 2619 3534
1671 2795 0
1671 2795 1042
1671 2795 1671
1671 2795 2092
1671 2795 2393
1671 2795 2619
1671 2795 2795
1671 2795 2936
1671 2795 3051
1671 2795 3147
1671 2795 3228
1671 2795 3297
1671 2795 3357
1671 2795 3410
1671 2795 3456
1671 2795 3497
1671 2795 3534
1671 2936 0
1671 2936 1042
1671 2936 1671
1671 2936 2092
1671 2936 2393
1671 2936 2619
1671 2936 2795
1671 2936 2936
1671 2936 3051
1671 2936 3147
1671 2936 3228
1671 2936 3297
1671 2936 3357
1671 2936 3410
1671 2936 3456
1671 2936 3497
1671 2936 3534
1671 3051 0
1671 3051 1042
1671 3051 1671
1671 3051 2092
1671 3051 2393
1671 3051 2619
1671 3051 2795
1671 3051 2936
1671 3051 3051
1671 3051 3147
1671 3051 3228
1671 3051 3297
1671 3051 3357
1671 3051 3410
1671 3051 3456
1671 3051 3497
1671 3051 3534
1671 3147 0
1671 3147 1042
1671 3147 1671
1671 3147 2092
1671 3147 2393
1671 3147 2619
1671 3147 2795
1671 3147 2936
1671 3147 3051
1671 3147 3147
1671 3147 3228
1671 3147 3297
1671 3147 3357
1671 3147 3410
1671 3147 3456
1671 3147 3497
1671 3147 3534
1671 3228 0
1671 3228 1042
1671 3228 1671
1671 3228 2092
1671 3228 2393
1671 3228 2619
1671 3228 2795
1671 3228 2936
1671 3228 3051
1671 3228 3147
1671 3228 3228
1671 3228 3297
1671 3228 3357
1671 3228 3410
1671 3228 3456
1671 3228 3497
1671 3228 3534
1671 3297 0
1671 3297 1042
1671 3297 1671
1671 3297 2092
1671 3297 2393
1671 3297 2619
1671 3297 2795
1671 3297 2936
1671 3297 3051
1671 3297 3147
1671 3297 3228
1671 3297 3297
1671 3297 3357
1671 3297 3410
1671 3297 3456
1671 3297 3497
1671 3297 3534
1671 3357 0
1671 3357 1042
1671 3357 1671
1671 3357 2092
1671 3357 2393
1671 3357 2619
1671 3357 2795
1671 3357 2936
1671 3357 3051
1671 3357 3147
1671 3357 3228
1671 3357 3297
1671 3357 3357
1671 3357 3410
1671 3357 3456
1671 3357 3497
1671 3357 3534
1671 3410 0
1671 3410 1042
1671 3410 1671
1671 3410 2092
1671 3410 2393
1671 3410 2619
1671 3410 2795
1671 3410 2936
1671 3410 3051
1671 3410 3147
1671 3410 3228
1671 3410 3297
1671 3410 3357
1671 3410 3410
1671 3410 3456
1671 3410 3497
1671 3410 3534
1671 3456 0
1671 3456 1042
1671 3456 1671
1671 3456 2092
1671 3456 2393
1671 3456 2619
1671 3456 2795
1671 3456 2936
1671 3456 3051
1671 3456 3147
1671 3456 3228
1671 3456 3297
1671 3456 3357
1671 3456 3410
1671 3456 3456
1671 3456 3497
1671 3456 3534
1671 3497 0
1671 3497 1042
1671 3497 1671
1671 3497 2092
1671 3497 2393
1671 3497 2619
1671 3497 2795
1671 3497 2936
1671 3497 3051
1671 3497 3147
1671 3497 3228
1671 3497 3297
1671 3497 3357
1671 3497 3410
1671 3497 3456
1671 3497 3497
1671 3497 3534
1671 3534 0
1671 3534 1042
1671 3534 1671
1671 3534 2092
1671 3534 2393
1671 3534 2619
1671 3534 2795
1671 3534 2936
1671 3534 3051
1671 3534 3147
1671 3534 3228
1671 3534 3297
1671 3534 3357
1671 3534 3410
1671 3534 3456
1671 3534 3497
1671 3534 3534
2092 0 0
2092 0 1042
2092 0 1671
2092 0 2092
2092 0 2393
2092 0 2619
2092 0 2795
2092 0 2936
2092 0 3051
2092 0 3147
2092 0 3228
2092 0 3297
2092 0 3357
2092 0 3410
2092 0 3456
2092 0 3497
2092 0 3534
2092 1042 0
2092 1042 1042
2092 1042 1671
2092 1042 2092
2092 1042 2393
2092 1042 2619
2092 1042 2795
2092 1042 2936
2092 1042 3051
2092 1042 3147
2092 1042 3228
2092 1042 3297
2092 1042 3357
2092 1042 3410
2092 1042 3456
2092 1042 3497
